jplin123/TWIST/assets/upper_body_csv/SM_left_yeah.csv
timeCNT,planningAngle::waist_yaw_joint,planningAngle::waist_pitch_joint,planningAngle::waist_roll_joint,planningAngle::left_shoulder_pitch_joint,planningAngle::left_shoulder_roll_joint,planningAngle::left_shoulder_yaw_joint,planningAngle::left_elbow_joint,planningAngle::left_wrist_yaw_joint,planningAngle::left_wrist_pitch_joint,planningAngle::left_wrist_roll_joint,planningAngle::right_shoulder_pitch_joint,planningAngle::right_shoulder_roll_joint,planningAngle::right_shoulder_yaw_joint,planningAngle::right_elbow_joint,planningAngle::right_wrist_yaw_joint,planningAngle::right_wrist_pitch_joint,planningAngle::right_wrist_roll_joint
0.0,0.0,0.0,0.0,0.4,0.0,0.0,-1.2,-1.57,0.0,0.0,0.4,0.0,0.0,-1.2,1.57,0.0,0.0
10.0,0.0,0.0,0.0,0.3915,0.0,0.0013000000000000002,-1.20145,-1.56315,-0.0014999999999999998,0.0,0.4,0.0,0.0,-1.2,1.57,0.0,0.0
20.0,0.0,0.0,0.0,0.383,0.0,0.0026000000000000003,-1.2028999999999999,-1.5563,-0.0029999999999999996,0.0,0.4,0.0,0.0,-1.2,1.57,0.0,0.0
30.0,0.0,0.0,0.0,0.3745,0.0,0.0039000000000000007,-1.20435,-1.54945,-0.0045,0.0,0.4,0.0,0.0,-1.2,1.57,0.0,0.0
40.0,0.0,0.0,0.0,0.366,0.0,0.005200000000000001,-1.2058,-1.5426,-0.005999999999999999,0.0,0.4,0.0,0.0,-1.2,1.57,0.0,0.0
50.0,0.0,0.0,0.0,0.35750000000000004,0.0,0.006500000000000001,-1.20725,-1.5357500000000002,-0.0075,0.0,0.4,0.0,0.0,-1.2,1.57,0.0,0.0
60.0,0.0,0.0,0.0,0.34900000000000003,0.0,0.007800000000000001,-1.2086999999999999,-1.5289000000000001,-0.009,0.0,0.4,0.0,0.0,-1.2,1.57,0.0,0.0
70.0,0.0,0.0,0.0,0.3405,0.0,0.0091,-1.21015,-1.5220500000000001,-0.010499999999999999,0.0,0.4,0.0,0.0,-1.2,1.57,0.0,0.0
80.0,0.0,0.0,0.0,0.332,0.0,0.010400000000000001,-1.2116,-1.5152,-0.011999999999999999,0.0,0.4,0.0,0.0,-1.2,1.57,0.0,0.0
90.0,0.0,0.0,0.0,0.3235,0.0,0.011700000000000002,-1.21305,-1.50835,-0.013499999999999998,0.0,0.4,0.0,0.0,-1.2,1.57,0.0,0.0
100.0,0.0,0.0,0.0,0.315,0.0,0.013000000000000001,-1.2145,-1.5015,-0.015,0.0,0.4,0.0,0.0,-1.2,1.57,0.0,0.0
110.0,0.0,0.0,0.0,0.3065,0.0,0.014300000000000002,-1.2159499999999999,-1.49465,-0.016499999999999997,0.0,0.4,0.0,0.0,-1.2,1.57,0.0,0.0
120.0,0.0,0.0,0.0,0.29800000000000004,0.0,0.015600000000000003,-1.2174,-1.4878,-0.018,0.0,0.4,0.0,0.0,-1.2,1.57,0.0,0.0
130.0,0.0,0.0,0.0,0.2895,0.0,0.016900000000000002,-1.21885,-1.48095,-0.0195,0.0,0.4,0.0,0.0,-1.2,1.57,0.0,0.0
140.0,0.0,0.0,0.0,0.281,0.0,0.0182,-1.2203,-1.4741,-0.020999999999999998,0.0,0.4,0.0,0.0,-1.2,1.57,0.0,0.0
150.0,0.0,0.0,0.0,0.2725,0.0,0.019500000000000003,-1.22175,-1.46725,-0.0225,0.0,0.4,0.0,0.0,-1.2,1.57,0.0,0.0
160.0,0.0,0.0,0.0,0.264,0.0,0.020800000000000003,-1.2232,-1.4604000000000001,-0.023999999999999997,0.0,0.4,0.0,0.0,-1.2,1.57,0.0,0.0
170.0,0.0,0.0,0.0,0.2555,0.0,0.0221,-1.22465,-1.4535500000000001,-0.0255,0.0,0.4,0.0,0.0,-1.2,1.57,0.0,0.0
180.0,0.0,0.0,0.0,0.247,0.0,0.023400000000000004,-1.2261,-1.4467,-0.026999999999999996,0.0,0.4,0.0,0.0,-1.2,1.57,0.0,0.0
190.0,0.0,0.0,0.0,0.23850000000000002,0.0,0.024700000000000003,-1.22755,-1.43985,-0.028499999999999998,0.0,0.4,0.0,0.0,-1.2,1.57,0.0,0.0
200.0,0.0,0.0,0.0,0.23,0.0,0.026000000000000002,-1.2289999999999999,-1.433,-0.03,0.0,0.4,0.0,0.0,-1.2,1.57,0.0,0.0
210.0,0.0,0.0,0.0,0.2215,0.0,0.027300000000000005,-1.23045,-1.42615,-0.0315,0.0,0.4,0.0,0.0,-1.2,1.57,0.0,0.0
220.0,0.0,0.0,0.0,0.21300000000000002,0.0,0.028600000000000004,-1.2319,-1.4193,-0.032999999999999995,0.0,0.4,0.0,0.0,-1.2,1.57,0.0,0.0
230.0,0.0,0.0,0.0,0.20450000000000002,0.0,0.029900000000000003,-1.23335,-1.41245,-0.034499999999999996,0.0,0.4,0.0,0.0,-1.2,1.57,0.0,0.0
240.0,0.0,0.0,0.0,0.196,0.0,0.031200000000000006,-1.2348,-1.4056,-0.036,0.0,0.4,0.0,0.0,-1.2,1.57,0.0,0.0
250.0,0.0,0.0,0.0,0.1875,0.0,0.0325,-1.23625,-1.3987500000000002,-0.0375,0.0,0.4,0.0,0.0,-1.2,1.57,0.0,0.0
260.0,0.0,0.0,0.0,0.179,0.0,0.033800000000000004,-1.2377,-1.3919000000000001,-0.039,0.0,0.4,0.0,0.0,-1.2,1.57,0.0,0.0
270.0,0.0,0.0,0.0,0.1705,0.0,0.035100000000000006,-1.23915,-1.3850500000000001,-0.040499999999999994,0.0,0.4,0.0,0.0,-1.2,1.57,0.0,0.0
280.0,0.0,0.0,0.0,0.162,0.0,0.0364,-1.2406,-1.3782,-0.041999999999999996,0.0,0.4,0.0,0.0,-1.2,1.57,0.0,0.0
290.0,0.0,0.0,0.0,0.1535,0.0,0.037700000000000004,-1.2420499999999999,-1.37135,-0.0435,0.0,0.4,0.0,0.0,-1.2,1.57,0.0,0.0
300.0,0.0,0.0,0.0,0.14500000000000002,0.0,0.03900000000000001,-1.2435,-1.3645,-0.045,0.0,0.4,0.0,0.0,-1.2,1.57,0.0,0.0
310.0,0.0,0.0,0.0,0.1365,0.0,0.0403,-1.24495,-1.35765,-0.04649999999999999,0.0,0.4,0.0,0.0,-1.2,1.57,0.0,0.0
320.0,0.0,0.0,0.0,0.128,0.0,0.041600000000000005,-1.2464,-1.3508,-0.047999999999999994,0.0,0.4,0.0,0.0,-1.2,1.57,0.0,0.0
330.0,0.0,0.0,0.0,0.1195,0.0,0.04290000000000001,-1.24785,-1.34395,-0.049499999999999995,0.0,0.4,0.0,0.0,-1.2,1.57,0.0,0.0
340.0,0.0,0.0,0.0,0.11099999999999999,0.0,0.0442,-1.2492999999999999,-1.3371,-0.051,0.0,0.4,0.0,0.0,-1.2,1.57,0.0,0.0
350.0,0.0,0.0,0.0,0.10249999999999998,0.0,0.045500000000000006,-1.25075,-1.33025,-0.0525,0.0,0.4,0.0,0.0,-1.2,1.57,0.0,0.0
360.0,0.0,0.0,0.0,0.09399999999999997,0.0,0.04680000000000001,-1.2522,-1.3234000000000001,-0.05399999999999999,0.0,0.4,0.0,0.0,-1.2,1.57,0.0,0.0
370.0,0.0,0.0,0.0,0.08550000000000002,0.0,0.048100000000000004,-1.25365,-1.31655,-0.055499999999999994,0.0,0.4,0.0,0.0,-1.2,1.57,0.0,0.0
380.0,0.0,0.0,0.0,0.07700000000000001,0.0,0.049400000000000006,-1.2550999999999999,-1.3097,-0.056999999999999995,0.0,0.4,0.0,0.0,-1.2,1.57,0.0,0.0
390.0,0.0,0.0,0.0,0.0685,0.0,0.05070000000000001,-1.25655,-1.30285,-0.058499999999999996,0.0,0.4,0.0,0.0,-1.2,1.57,0.0,0.0
400.0,0.0,0.0,0.0,0.06,0.0,0.052000000000000005,-1.258,-1.296,-0.06,0.0,0.4,0.0,0.0,-1.2,1.57,0.0,0.0
410.0,0.0,0.0,0.0,0.05149999999999999,0.0,0.05330000000000001,-1.25945,-1.28915,-0.06149999999999999,0.0,0.4,0.0,0.0,-1.2,1.57,0.0,0.0
420.0,0.0,0.0,0.0,0.04299999999999998,0.0,0.05460000000000001,-1.2609,-1.2823,-0.063,0.0,0.4,0.0,0.0,-1.2,1.57,0.0,0.0
430.0,0.0,0.0,0.0,0.034499999999999975,0.0,0.055900000000000005,-1.2623499999999999,-1.27545,-0.06449999999999999,0.0,0.4,0.0,0.0,-1.2,1.57,0.0,0.0
440.0,0.0,0.0,0.0,0.026000000000000023,0.0,0.05720000000000001,-1.2638,-1.2686000000000002,-0.06599999999999999,0.0,0.4,0.0,0.0,-1.2,1.57,0.0,0.0
450.0,0.0,0.0,0.0,0.017500000000000016,0.0,0.05850000000000001,-1.26525,-1.2617500000000001,-0.06749999999999999,0.0,0.4,0.0,0.0,-1.2,1.57,0.0,0.0
460.0,0.0,0.0,0.0,0.009000000000000008,0.0,0.059800000000000006,-1.2667,-1.2549000000000001,-0.06899999999999999,0.0,0.4,0.0,0.0,-1.2,1.57,0.0,0.0
470.0,0.0,0.0,0.0,0.0005000000000000004,0.0,0.06110000000000001,-1.2681499999999999,-1.24805,-0.0705,0.0,0.4,0.0,0.0,-1.2,1.57,0.0,0.0
480.0,0.0,0.0,0.0,-0.008000000000000007,0.0,0.06240000000000001,-1.2696,-1.2412,-0.072,0.0,0.4,0.0,0.0,-1.2,1.57,0.0,0.0
490.0,0.0,0.0,0.0,-0.016500000000000015,0.0,0.0637,-1.27105,-1.23435,-0.0735,0.0,0.4,0.0,0.0,-1.2,1.57,0.0,0.0
500.0,0.0,0.0,0.0,-0.025000000000000022,0.0,0.065,-1.2725,-1.2275,-0.075,0.0,0.4,0.0,0.0,-1.2,1.57,0.0,0.0
510.0,0.0,0.0,0.0,-0.03350000000000003,0.0,0.06630000000000001,-1.27395,-1.22065,-0.0765,0.0,0.4,0.0,0.0,-1.2,1.57,0.0,0.0
520.0,0.0,0.0,0.0,-0.04200000000000004,0.0,0.06760000000000001,-1.2753999999999999,-1.2138,-0.078,0.0,0.4,0.0,0.0,-1.2,1.57,0.0,0.0
530.0,0.0,0.0,0.0,-0.05049999999999999,0.0,0.0689,-1.27685,-1.20695,-0.07949999999999999,0.0,0.4,0.0,0.0,-1.2,1.57,0.0,0.0
540.0,0.0,0.0,0.0,-0.059,0.0,0.07020000000000001,-1.2783,-1.2001,-0.08099999999999999,0.0,0.4,0.0,0.0,-1.2,1.57,0.0,0.0
550.0,0.0,0.0,0.0,-0.0675,0.0,0.07150000000000001,-1.27975,-1.19325,-0.08249999999999999,0.0,0.4,0.0,0.0,-1.2,1.57,0.0,0.0
560.0,0.0,0.0,0.0,-0.07600000000000001,0.0,0.0728,-1.2812,-1.1864,-0.08399999999999999,0.0,0.4,0.0,0.0,-1.2,1.57,0.0,0.0
570.0,0.0,0.0,0.0,-0.08450000000000002,0.0,0.07410000000000001,-1.28265,-1.17955,-0.08549999999999999,0.0,0.4,0.0,0.0,-1.2,1.57,0.0,0.0
580.0,0.0,0.0,0.0,-0.09300000000000003,0.0,0.07540000000000001,-1.2841,-1.1727,-0.087,0.0,0.4,0.0,0.0,-1.2,1.57,0.0,0.0
590.0,0.0,0.0,0.0,-0.10150000000000003,0.0,0.0767,-1.28555,-1.16585,-0.0885,0.0,0.4,0.0,0.0,-1.2,1.57,0.0,0.0
600.0,0.0,0.0,0.0,-0.10999999999999999,0.0,0.07800000000000001,-1.287,-1.159,-0.09,0.0,0.4,0.0,0.0,-1.2,1.57,0.0,0.0
610.0,0.0,0.0,0.0,-0.11850000000000005,0.0,0.07930000000000001,-1.2884499999999999,-1.15215,-0.0915,0.0,0.4,0.0,0.0,-1.2,1.57,0.0,0.0
620.0,0.0,0.0,0.0,-0.127,0.0,0.0806,-1.2899,-1.1453,-0.09299999999999999,0.0,0.4,0.0,0.0,-1.2,1.57,0.0,0.0
630.0,0.0,0.0,0.0,-0.13550000000000006,0.0,0.08190000000000001,-1.29135,-1.13845,-0.09449999999999999,0.0,0.4,0.0,0.0,-1.2,1.57,0.0,0.0
640.0,0.0,0.0,0.0,-0.14400000000000002,0.0,0.08320000000000001,-1.2928,-1.1316000000000002,-0.09599999999999999,0.0,0.4,0.0,0.0,-1.2,1.57,0.0,0.0
650.0,0.0,0.0,0.0,-0.15249999999999997,0.0,0.0845,-1.29425,-1.1247500000000001,-0.09749999999999999,0.0,0.4,0.0,0.0,-1.2,1.57,0.0,0.0
660.0,0.0,0.0,0.0,-0.16100000000000003,0.0,0.08580000000000002,-1.2957,-1.1179000000000001,-0.09899999999999999,0.0,0.4,0.0,0.0,-1.2,1.57,0.0,0.0
670.0,0.0,0.0,0.0,-0.16949999999999998,0.0,0.08710000000000001,-1.29715,-1.11105,-0.10049999999999999,0.0,0.4,0.0,0.0,-1.2,1.57,0.0,0.0
680.0,0.0,0.0,0.0,-0.17800000000000005,0.0,0.0884,-1.2986,-1.1042,-0.102,0.0,0.4,0.0,0.0,-1.2,1.57,0.0,0.0
690.0,0.0,0.0,0.0,-0.1865,0.0,0.08970000000000002,-1.30005,-1.09735,-0.1035,0.0,0.4,0.0,0.0,-1.2,1.57,0.0,0.0
700.0,0.0,0.0,0.0,-0.19500000000000006,0.0,0.09100000000000001,-1.3014999999999999,-1.0905,-0.105,0.0,0.4,0.0,0.0,-1.2,1.57,0.0,0.0
710.0,0.0,0.0,0.0,-0.20350000000000001,0.0,0.09230000000000001,-1.30295,-1.08365,-0.1065,0.0,0.4,0.0,0.0,-1.2,1.57,0.0,0.0
720.0,0.0,0.0,0.0,-0.21200000000000008,0.0,0.09360000000000002,-1.3044,-1.0768,-0.10799999999999998,0.0,0.4,0.0,0.0,-1.2,1.57,0.0,0.0
730.0,0.0,0.0,0.0,-0.22050000000000003,0.0,0.09490000000000001,-1.30585,-1.06995,-0.10949999999999999,0.0,0.4,0.0,0.0,-1.2,1.57,0.0,0.0
740.0,0.0,0.0,0.0,-0.22899999999999998,0.0,0.09620000000000001,-1.3073,-1.0631,-0.11099999999999999,0.0,0.4,0.0,0.0,-1.2,1.57,0.0,0.0
750.0,0.0,0.0,0.0,-0.23750000000000004,0.0,0.09750000000000002,-1.30875,-1.05625,-0.11249999999999999,0.0,0.4,0.0,0.0,-1.2,1.57,0.0,0.0
760.0,0.0,0.0,0.0,-0.246,0.0,0.09880000000000001,-1.3102,-1.0493999999999999,-0.11399999999999999,0.0,0.4,0.0,0.0,-1.2,1.57,0.0,0.0
770.0,0.0,0.0,0.0,-0.25450000000000006,0.0,0.10010000000000001,-1.31165,-1.0425499999999999,-0.11549999999999999,0.0,0.4,0.0,0.0,-1.2,1.57,0.0,0.0
780.0,0.0,0.0,0.0,-0.263,0.0,0.10140000000000002,-1.3131,-1.0357,-0.11699999999999999,0.0,0.4,0.0,0.0,-1.2,1.57,0.0,0.0
790.0,0.0,0.0,0.0,-0.2715000000000001,0.0,0.10270000000000001,-1.3145499999999999,-1.02885,-0.1185,0.0,0.4,0.0,0.0,-1.2,1.57,0.0,0.0
800.0,0.0,0.0,0.0,-0.28,0.0,0.10400000000000001,-1.316,-1.022,-0.12,0.0,0.4,0.0,0.0,-1.2,1.57,0.0,0.0
810.0,0.0,0.0,0.0,-0.2885,0.0,0.10530000000000002,-1.31745,-1.01515,-0.12149999999999998,0.0,0.4,0.0,0.0,-1.2,1.57,0.0,0.0
820.0,0.0,0.0,0.0,-0.29700000000000004,0.0,0.10660000000000001,-1.3189,-1.0083,-0.12299999999999998,0.0,0.4,0.0,0.0,-1.2,1.57,0.0,0.0
830.0,0.0,0.0,0.0,-0.3055,0.0,0.10790000000000001,-1.32035,-1.0014500000000002,-0.12449999999999999,0.0,0.4,0.0,0.0,-1.2,1.57,0.0,0.0
840.0,0.0,0.0,0.0,-0.31400000000000006,0.0,0.10920000000000002,-1.3218,-0.9946,-0.126,0.0,0.4,0.0,0.0,-1.2,1.57,0.0,0.0
850.0,0.0,0.0,0.0,-0.3225,0.0,0.11050000000000001,-1.32325,-0.98775,-0.1275,0.0,0.4,0.0,0.0,-1.2,1.57,0.0,0.0
860.0,0.0,0.0,0.0,-0.33100000000000007,0.0,0.11180000000000001,-1.3247,-0.9809,-0.12899999999999998,0.0,0.4,0.0,0.0,-1.2,1.57,0.0,0.0
870.0,0.0,0.0,0.0,-0.3395,0.0,0.11310000000000002,-1.32615,-0.97405,-0.13049999999999998,0.0,0.4,0.0,0.0,-1.2,1.57,0.0,0.0
880.0,0.0,0.0,0.0,-0.348,0.0,0.11440000000000002,-1.3276,-0.9672000000000001,-0.13199999999999998,0.0,0.4,0.0,0.0,-1.2,1.57,0.0,0.0
890.0,0.0,0.0,0.0,-0.35650000000000004,0.0,0.11570000000000001,-1.32905,-0.96035,-0.13349999999999998,0.0,0.4,0.0,0.0,-1.2,1.57,0.0,0.0
900.0,0.0,0.0,0.0,-0.365,0.0,0.11700000000000002,-1.3305,-0.9535,-0.13499999999999998,0.0,0.4,0.0,0.0,-1.2,1.57,0.0,0.0
910.0,0.0,0.0,0.0,-0.37350000000000005,0.0,0.11830000000000002,-1.33195,-0.94665,-0.13649999999999998,0.0,0.4,0.0,0.0,-1.2,1.57,0.0,0.0
920.0,0.0,0.0,0.0,-0.382,0.0,0.11960000000000001,-1.3334,-0.9398,-0.13799999999999998,0.0,0.4,0.0,0.0,-1.2,1.57,0.0,0.0
930.0,0.0,0.0,0.0,-0.39050000000000007,0.0,0.12090000000000002,-1.3348499999999999,-0.9329500000000001,-0.13949999999999999,0.0,0.4,0.0,0.0,-1.2,1.57,0.0,0.0
940.0,0.0,0.0,0.0,-0.399,0.0,0.12220000000000002,-1.3363,-0.9261,-0.141,0.0,0.4,0.0,0.0,-1.2,1.57,0.0,0.0
950.0,0.0,0.0,0.0,-0.4075000000000001,0.0,0.12350000000000001,-1.33775,-0.91925,-0.1425,0.0,0.4,0.0,0.0,-1.2,1.57,0.0,0.0
960.0,0.0,0.0,0.0,-0.41600000000000004,0.0,0.12480000000000002,-1.3392,-0.9124,-0.144,0.0,0.4,0.0,0.0,-1.2,1.57,0.0,0.0
970.0,0.0,0.0,0.0,-0.4245,0.0,0.12610000000000002,-1.34065,-0.90555,-0.1455,0.0,0.4,0.0,0.0,-1.2,1.57,0.0,0.0
980.0,0.0,0.0,0.0,-0.43300000000000005,0.0,0.1274,-1.3421,-0.8987,-0.147,0.0,0.4,0.0,0.0,-1.2,1.57,0.0,0.0
990.0,0.0,0.0,0.0,-0.4415,0.0,0.1287,-1.34355,-0.89185,-0.1485,0.0,0.4,0.0,0.0,-1.2,1.57,0.0,0.0
1000.0,0.0,0.0,0.0,-0.45000000000000007,0.0,0.13,-1.345,-0.885,-0.15,0.0,0.4,0.0,0.0,-1.2,1.57,0.0,0.0
1010.0,0.0,0.0,0.0,-0.4585,0.0,0.13130000000000003,-1.34645,-0.87815,-0.1515,0.0,0.4,0.0,0.0,-1.2,1.57,0.0,0.0
1020.0,0.0,0.0,0.0,-0.4670000000000001,0.0,0.13260000000000002,-1.3479,-0.8713,-0.153,0.0,0.4,0.0,0.0,-1.2,1.57,0.0,0.0
1030.0,0.0,0.0,0.0,-0.47550000000000003,0.0,0.13390000000000002,-1.34935,-0.86445,-0.1545,0.0,0.4,0.0,0.0,-1.2,1.57,0.0,0.0
1040.0,0.0,0.0,0.0,-0.4840000000000001,0.0,0.13520000000000001,-1.3508,-0.8576,-0.156,0.0,0.4,0.0,0.0,-1.2,1.57,0.0,0.0
1050.0,0.0,0.0,0.0,-0.49250000000000005,0.0,0.1365,-1.35225,-0.85075,-0.15749999999999997,0.0,0.4,0.0,0.0,-1.2,1.57,0.0,0.0
1060.0,0.0,0.0,0.0,-0.501,0.0,0.1378,-1.3537,-0.8439,-0.15899999999999997,0.0,0.4,0.0,0.0,-1.2,1.57,0.0,0.0
1070.0,0.0,0.0,0.0,-0.5095000000000001,0.0,0.13910000000000003,-1.35515,-0.83705,-0.16049999999999998,0.0,0.4,0.0,0.0,-1.2,1.57,0.0,0.0
1080.0,0.0,0.0,0.0,-0.518,0.0,0.14040000000000002,-1.3566,-0.8302,-0.16199999999999998,0.0,0.4,0.0,0.0,-1.2,1.57,0.0,0.0
1090.0,0.0,0.0,0.0,-0.5265000000000001,0.0,0.14170000000000002,-1.35805,-0.82335,-0.16349999999999998,0.0,0.4,0.0,0.0,-1.2,1.57,0.0,0.0
1100.0,0.0,0.0,0.0,-0.535,0.0,0.14300000000000002,-1.3595,-0.8165,-0.16499999999999998,0.0,0.4,0.0,0.0,-1.2,1.57,0.0,0.0
1110.0,0.0,0.0,0.0,-0.5435000000000001,0.0,0.1443,-1.3609499999999999,-0.80965,-0.16649999999999998,0.0,0.4,0.0,0.0,-1.2,1.57,0.0,0.0
1120.0,0.0,0.0,0.0,-0.552,0.0,0.1456,-1.3624,-0.8028,-0.16799999999999998,0.0,0.4,0.0,0.0,-1.2,1.57,0.0,0.0
1130.0,0.0,0.0,0.0,-0.5605,0.0,0.14690000000000003,-1.36385,-0.79595,-0.16949999999999998,0.0,0.4,0.0,0.0,-1.2,1.57,0.0,0.0
1140.0,0.0,0.0,0.0,-0.5690000000000001,0.0,0.14820000000000003,-1.3653,-0.7891,-0.17099999999999999,0.0,0.4,0.0,0.0,-1.2,1.57,0.0,0.0
1150.0,0.0,0.0,0.0,-0.5775,0.0,0.14950000000000002,-1.36675,-0.78225,-0.1725,0.0,0.4,0.0,0.0,-1.2,1.57,0.0,0.0
1160.0,0.0,0.0,0.0,-0.5860000000000001,0.0,0.15080000000000002,-1.3682,-0.7754,-0.174,0.0,0.4,0.0,0.0,-1.2,1.57,0.0,0.0
1170.0,0.0,0.0,0.0,-0.5945,0.0,0.1521,-1.36965,-0.76855,-0.1755,0.0,0.4,0.0,0.0,-1.2,1.57,0.0,0.0
1180.0,0.0,0.0,0.0,-0.6030000000000001,0.0,0.1534,-1.3711,-0.7617,-0.177,0.0,0.4,0.0,0.0,-1.2,1.57,0.0,0.0
1190.0,0.0,0.0,0.0,-0.6115,0.0,0.15470000000000003,-1.37255,-0.75485,-0.1785,0.0,0.4,0.0,0.0,-1.2,1.57,0.0,0.0
1200.0,0.0,0.0,0.0,-0.62,0.0,0.15600000000000003,-1.374,-0.748,-0.18,0.0,0.4,0.0,0.0,-1.2,1.57,0.0,0.0
1210.0,0.0,0.0,0.0,-0.6285,0.0,0.15730000000000002,-1.37545,-0.74115,-0.1815,0.0,0.4,0.0,0.0,-1.2,1.57,0.0,0.0
1220.0,0.0,0.0,0.0,-0.6370000000000001,0.0,0.15860000000000002,-1.3769,-0.7343,-0.183,0.0,0.4,0.0,0.0,-1.2,1.57,0.0,0.0
1230.0,0.0,0.0,0.0,-0.6455000000000001,0.0,0.15990000000000001,-1.37835,-0.72745,-0.1845,0.0,0.4,0.0,0.0,-1.2,1.57,0.0,0.0
1240.0,0.0,0.0,0.0,-0.654,0.0,0.1612,-1.3798,-0.7206,-0.18599999999999997,0.0,0.4,0.0,0.0,-1.2,1.57,0.0,0.0
1250.0,0.0,0.0,0.0,-0.6625,0.0,0.16250000000000003,-1.38125,-0.71375,-0.18749999999999997,0.0,0.4,0.0,0.0,-1.2,1.57,0.0,0.0
1260.0,0.0,0.0,0.0,-0.6710000000000002,0.0,0.16380000000000003,-1.3827,-0.7069,-0.18899999999999997,0.0,0.4,0.0,0.0,-1.2,1.57,0.0,0.0
1270.0,0.0,0.0,0.0,-0.6795000000000001,0.0,0.16510000000000002,-1.38415,-0.70005,-0.19049999999999997,0.0,0.4,0.0,0.0,-1.2,1.57,0.0,0.0
1280.0,0.0,0.0,0.0,-0.6880000000000001,0.0,0.16640000000000002,-1.3856,-0.6932,-0.19199999999999998,0.0,0.4,0.0,0.0,-1.2,1.57,0.0,0.0
1290.0,0.0,0.0,0.0,-0.6965,0.0,0.16770000000000002,-1.38705,-0.68635,-0.19349999999999998,0.0,0.4,0.0,0.0,-1.2,1.57,0.0,0.0
1300.0,0.0,0.0,0.0,-0.705,0.0,0.169,-1.3885,-0.6795,-0.19499999999999998,0.0,0.4,0.0,0.0,-1.2,1.57,0.0,0.0
1310.0,0.0,0.0,0.0,-0.7135000000000001,0.0,0.1703,-1.38995,-0.67265,-0.19649999999999998,0.0,0.4,0.0,0.0,-1.2,1.57,0.0,0.0
1320.0,0.0,0.0,0.0,-0.7220000000000001,0.0,0.17160000000000003,-1.3914,-0.6658,-0.19799999999999998,0.0,0.4,0.0,0.0,-1.2,1.57,0.0,0.0
1330.0,0.0,0.0,0.0,-0.7305,0.0,0.17290000000000003,-1.39285,-0.6589499999999999,-0.19949999999999998,0.0,0.4,0.0,0.0,-1.2,1.57,0.0,0.0
1340.0,0.0,0.0,0.0,-0.739,0.0,0.17420000000000002,-1.3942999999999999,-0.6521,-0.20099999999999998,0.0,0.4,0.0,0.0,-1.2,1.57,0.0,0.0
1350.0,0.0,0.0,0.0,-0.7475000000000002,0.0,0.17550000000000002,-1.39575,-0.64525,-0.20249999999999999,0.0,0.4,0.0,0.0,-1.2,1.57,0.0,0.0
1360.0,0.0,0.0,0.0,-0.7560000000000001,0.0,0.1768,-1.3972,-0.6384,-0.204,0.0,0.4,0.0,0.0,-1.2,1.57,0.0,0.0
1370.0,0.0,0.0,0.0,-0.7645000000000001,0.0,0.1781,-1.39865,-0.63155,-0.2055,0.0,0.4,0.0,0.0,-1.2,1.57,0.0,0.0
1380.0,0.0,0.0,0.0,-0.773,0.0,0.17940000000000003,-1.4001,-0.6246999999999999,-0.207,0.0,0.4,0.0,0.0,-1.2,1.57,0.0,0.0
1390.0,0.0,0.0,0.0,-0.7815,0.0,0.18070000000000003,-1.40155,-0.61785,-0.2085,0.0,0.4,0.0,0.0,-1.2,1.57,0.0,0.0
1400.0,0.0,0.0,0.0,-0.7900000000000001,0.0,0.18200000000000002,-1.403,-0.611,-0.21,0.0,0.4,0.0,0.0,-1.2,1.57,0.0,0.0
1410.0,0.0,0.0,0.0,-0.7985000000000001,0.0,0.18330000000000002,-1.40445,-0.60415,-0.2115,0.0,0.4,0.0,0.0,-1.2,1.57,0.0,0.0
1420.0,0.0,0.0,0.0,-0.807,0.0,0.18460000000000001,-1.4059,-0.5972999999999999,-0.213,0.0,0.4,0.0,0.0,-1.2,1.57,0.0,0.0
1430.0,0.0,0.0,0.0,-0.8155,0.0,0.1859,-1.40735,-0.5904499999999999,-0.21449999999999997,0.0,0.4,0.0,0.0,-1.2,1.57,0.0,0.0
1440.0,0.0,0.0,0.0,-0.8240000000000002,0.0,0.18720000000000003,-1.4088,-0.5836,-0.21599999999999997,0.0,0.4,0.0,0.0,-1.2,1.57,0.0,0.0
1450.0,0.0,0.0,0.0,-0.8325000000000001,0.0,0.18850000000000003,-1.41025,-0.57675,-0.21749999999999997,0.0,0.4,0.0,0.0,-1.2,1.57,0.0,0.0
1460.0,0.0,0.0,0.0,-0.8410000000000001,0.0,0.18980000000000002,-1.4117,-0.5699000000000001,-0.21899999999999997,0.0,0.4,0.0,0.0,-1.2,1.57,0.0,0.0
1470.0,0.0,0.0,0.0,-0.8495,0.0,0.19110000000000002,-1.41315,-0.56305,-0.22049999999999997,0.0,0.4,0.0,0.0,-1.2,1.57,0.0,0.0
1480.0,0.0,0.0,0.0,-0.858,0.0,0.19240000000000002,-1.4146,-0.5562,-0.22199999999999998,0.0,0.4,0.0,0.0,-1.2,1.57,0.0,0.0
1490.0,0.0,0.0,0.0,-0.8665000000000002,0.0,0.1937,-1.41605,-0.54935,-0.22349999999999998,0.0,0.4,0.0,0.0,-1.2,1.57,0.0,0.0
1500.0,0.0,0.0,0.0,-0.8750000000000001,0.0,0.19500000000000003,-1.4175,-0.5425,-0.22499999999999998,0.0,0.4,0.0,0.0,-1.2,1.57,0.0,0.0
1510.0,0.0,0.0,0.0,-0.8835000000000001,0.0,0.19630000000000003,-1.41895,-0.53565,-0.22649999999999998,0.0,0.4,0.0,0.0,-1.2,1.57,0.0,0.0
1520.0,0.0,0.0,0.0,-0.892,0.0,0.19760000000000003,-1.4203999999999999,-0.5287999999999999,-0.22799999999999998,0.0,0.4,0.0,0.0,-1.2,1.57,0.0,0.0
1530.0,0.0,0.0,0.0,-0.9005,0.0,0.19890000000000002,-1.42185,-0.5219499999999999,-0.22949999999999998,0.0,0.4,0.0,0.0,-1.2,1.57,0.0,0.0
1540.0,0.0,0.0,0.0,-0.9090000000000001,0.0,0.20020000000000002,-1.4233,-0.5150999999999999,-0.23099999999999998,0.0,0.4,0.0,0.0,-1.2,1.57,0.0,0.0
1550.0,0.0,0.0,0.0,-0.9175000000000001,0.0,0.2015,-1.42475,-0.5082499999999999,-0.23249999999999998,0.0,0.4,0.0,0.0,-1.2,1.57,0.0,0.0
1560.0,0.0,0.0,0.0,-0.926,0.0,0.20280000000000004,-1.4262,-0.5014000000000001,-0.23399999999999999,0.0,0.4,0.0,0.0,-1.2,1.57,0.0,0.0
1570.0,0.0,0.0,0.0,-0.9345,0.0,0.20410000000000003,-1.42765,-0.49455000000000005,-0.2355,0.0,0.4,0.0,0.0,-1.2,1.57,0.0,0.0
1580.0,0.0,0.0,0.0,-0.9430000000000002,0.0,0.20540000000000003,-1.4291,-0.4877,-0.237,0.0,0.4,0.0,0.0,-1.2,1.57,0.0,0.0
1590.0,0.0,0.0,0.0,-0.9515000000000001,0.0,0.20670000000000002,-1.43055,-0.48085,-0.2385,0.0,0.4,0.0,0.0,-1.2,1.57,0.0,0.0
1600.0,0.0,0.0,0.0,-0.9600000000000001,0.0,0.20800000000000002,-1.432,-0.474,-0.24,0.0,0.4,0.0,0.0,-1.2,1.57,0.0,0.0
1610.0,0.0,0.0,0.0,-0.9685,0.0,0.2093,-1.4334500000000001,-0.46714999999999995,-0.2415,0.0,0.4,0.0,0.0,-1.2,1.57,0.0,0.0
1620.0,0.0,0.0,0.0,-0.977,0.0,0.21060000000000004,-1.4349,-0.46029999999999993,-0.24299999999999997,0.0,0.4,0.0,0.0,-1.2,1.57,0.0,0.0
1630.0,0.0,0.0,0.0,-0.9855000000000002,0.0,0.21190000000000003,-1.43635,-0.4534499999999999,-0.24449999999999997,0.0,0.4,0.0,0.0,-1.2,1.57,0.0,0.0
1640.0,0.0,0.0,0.0,-0.9940000000000001,0.0,0.21320000000000003,-1.4378,-0.4465999999999999,-0.24599999999999997,0.0,0.4,0.0,0.0,-1.2,1.57,0.0,0.0
1650.0,0.0,0.0,0.0,-1.0025,0.0,0.21450000000000002,-1.43925,-0.43974999999999986,-0.24749999999999997,0.0,0.4,0.0,0.0,-1.2,1.57,0.0,0.0
1660.0,0.0,0.0,0.0,-1.0110000000000001,0.0,0.21580000000000002,-1.4407,-0.43290000000000006,-0.24899999999999997,0.0,0.4,0.0,0.0,-1.2,1.57,0.0,0.0
1670.0,0.0,0.0,0.0,-1.0195000000000003,0.0,0.21710000000000002,-1.44215,-0.42605000000000004,-0.2505,0.0,0.4,0.0,0.0,-1.2,1.57,0.0,0.0
1680.0,0.0,0.0,0.0,-1.028,0.0,0.21840000000000004,-1.4436,-0.4192,-0.252,0.0,0.4,0.0,0.0,-1.2,1.57,0.0,0.0
1690.0,0.0,0.0,0.0,-1.0365000000000002,0.0,0.21970000000000003,-1.44505,-0.41235,-0.2535,0.0,0.4,0.0,0.0,-1.2,1.57,0.0,0.0
1700.0,0.0,0.0,0.0,-1.045,0.0,0.22100000000000003,-1.4465,-0.40549999999999997,-0.255,0.0,0.4,0.0,0.0,-1.2,1.57,0.0,0.0
1710.0,0.0,0.0,0.0,-1.0535,0.0,0.22230000000000003,-1.44795,-0.39864999999999995,-0.25649999999999995,0.0,0.4,0.0,0.0,-1.2,1.57,0.0,0.0
1720.0,0.0,0.0,0.0,-1.0620000000000003,0.0,0.22360000000000002,-1.4494,-0.3917999999999999,-0.25799999999999995,0.0,0.4,0.0,0.0,-1.2,1.57,0.0,0.0
1730.0,0.0,0.0,0.0,-1.0705,0.0,0.22490000000000002,-1.45085,-0.3849499999999999,-0.25949999999999995,0.0,0.4,0.0,0.0,-1.2,1.57,0.0,0.0
1740.0,0.0,0.0,0.0,-1.0790000000000002,0.0,0.22620000000000004,-1.4523,-0.3780999999999999,-0.26099999999999995,0.0,0.4,0.0,0.0,-1.2,1.57,0.0,0.0
1750.0,0.0,0.0,0.0,-1.0875,0.0,0.22750000000000004,-1.4537499999999999,-0.37124999999999986,-0.26249999999999996,0.0,0.4,0.0,0.0,-1.2,1.57,0.0,0.0
1760.0,0.0,0.0,0.0,-1.096,0.0,0.22880000000000003,-1.4552,-0.36440000000000006,-0.26399999999999996,0.0,0.4,0.0,0.0,-1.2,1.57,0.0,0.0
1770.0,0.0,0.0,0.0,-1.1045000000000003,0.0,0.23010000000000003,-1.45665,-0.35755000000000003,-0.26549999999999996,0.0,0.4,0.0,0.0,-1.2,1.57,0.0,0.0
1780.0,0.0,0.0,0.0,-1.113,0.0,0.23140000000000002,-1.4581,-0.3507,-0.26699999999999996,0.0,0.4,0.0,0.0,-1.2,1.57,0.0,0.0
1790.0,0.0,0.0,0.0,-1.1215000000000002,0.0,0.23270000000000002,-1.4595500000000001,-0.34385,-0.26849999999999996,0.0,0.4,0.0,0.0,-1.2,1.57,0.0,0.0
1800.0,0.0,0.0,0.0,-1.13,0.0,0.23400000000000004,-1.461,-0.33699999999999997,-0.26999999999999996,0.0,0.4,0.0,0.0,-1.2,1.57,0.0,0.0
1810.0,0.0,0.0,0.0,-1.1385,0.0,0.23530000000000004,-1.46245,-0.33014999999999994,-0.27149999999999996,0.0,0.4,0.0,0.0,-1.2,1.57,0.0,0.0
1820.0,0.0,0.0,0.0,-1.1470000000000002,0.0,0.23660000000000003,-1.4639,-0.3232999999999999,-0.27299999999999996,0.0,0.4,0.0,0.0,-1.2,1.57,0.0,0.0
1830.0,0.0,0.0,0.0,-1.1555,0.0,0.23790000000000003,-1.46535,-0.3164499999999999,-0.27449999999999997,0.0,0.4,0.0,0.0,-1.2,1.57,0.0,0.0
1840.0,0.0,0.0,0.0,-1.1640000000000001,0.0,0.23920000000000002,-1.4668,-0.3095999999999999,-0.27599999999999997,0.0,0.4,0.0,0.0,-1.2,1.57,0.0,0.0
1850.0,0.0,0.0,0.0,-1.1724999999999999,0.0,0.24050000000000002,-1.46825,-0.30274999999999985,-0.27749999999999997,0.0,0.4,0.0,0.0,-1.2,1.57,0.0,0.0
1860.0,0.0,0.0,0.0,-1.181,0.0,0.24180000000000004,-1.4697,-0.29590000000000005,-0.27899999999999997,0.0,0.4,0.0,0.0,-1.2,1.57,0.0,0.0
1870.0,0.0,0.0,0.0,-1.1895000000000002,0.0,0.24310000000000004,-1.47115,-0.28905000000000003,-0.28049999999999997,0.0,0.4,0.0,0.0,-1.2,1.57,0.0,0.0
1880.0,0.0,0.0,0.0,-1.198,0.0,0.24440000000000003,-1.4726,-0.2822,-0.282,0.0,0.4,0.0,0.0,-1.2,1.57,0.0,0.0
1890.0,0.0,0.0,0.0,-1.2065000000000001,0.0,0.24570000000000003,-1.47405,-0.27535,-0.2835,0.0,0.4,0.0,0.0,-1.2,1.57,0.0,0.0
1900.0,0.0,0.0,0.0,-1.2150000000000003,0.0,0.24700000000000003,-1.4755,-0.26849999999999996,-0.285,0.0,0.4,0.0,0.0,-1.2,1.57,0.0,0.0
1910.0,0.0,0.0,0.0,-1.2235,0.0,0.24830000000000002,-1.47695,-0.26164999999999994,-0.2865,0.0,0.4,0.0,0.0,-1.2,1.57,0.0,0.0
1920.0,0.0,0.0,0.0,-1.2320000000000002,0.0,0.24960000000000004,-1.4784,-0.2547999999999999,-0.288,0.0,0.4,0.0,0.0,-1.2,1.57,0.0,0.0
1930.0,0.0,0.0,0.0,-1.2405,0.0,0.2509,-1.4798499999999999,-0.2479499999999999,-0.2895,0.0,0.4,0.0,0.0,-1.2,1.57,0.0,0.0
1940.0,0.0,0.0,0.0,-1.249,0.0,0.25220000000000004,-1.4813,-0.24109999999999987,-0.291,0.0,0.4,0.0,0.0,-1.2,1.57,0.0,0.0
1950.0,0.0,0.0,0.0,-1.2575000000000003,0.0,0.2535,-1.48275,-0.23424999999999985,-0.2925,0.0,0.4,0.0,0.0,-1.2,1.57,0.0,0.0
1960.0,0.0,0.0,0.0,-1.266,0.0,0.2548,-1.4842,-0.22740000000000005,-0.294,0.0,0.4,0.0,0.0,-1.2,1.57,0.0,0.0
1970.0,0.0,0.0,0.0,-1.2745000000000002,0.0,0.25610000000000005,-1.4856500000000001,-0.22055000000000002,-0.2955,0.0,0.4,0.0,0.0,-1.2,1.57,0.0,0.0
1980.0,0.0,0.0,0.0,-1.283,0.0,0.2574,-1.4871,-0.2137,-0.297,0.0,0.4,0.0,0.0,-1.2,1.57,0.0,0.0
1990.0,0.0,0.0,0.0,-1.2915,0.0,0.25870000000000004,-1.48855,-0.20684999999999998,-0.2985,0.0,0.4,0.0,0.0,-1.2,1.57,0.0,0.0
2000.0,0.0,0.0,0.0,-1.3,0.0,0.26,-1.49,-0.2,-0.3,0.0,0.4,0.0,0.0,-1.2,1.57,0.0,0.0
2010.0,0.0,0.0,0.0,-1.3,0.0,0.26,-1.49,-0.2,-0.3,0.0,0.4,0.0,0.0,-1.2,1.57,0.0,0.0
2020.0,0.0,0.0,0.0,-1.3,0.0,0.26,-1.49,-0.2,-0.3,0.0,0.4,0.0,0.0,-1.2,1.57,0.0,0.0
2030.0,0.0,0.0,0.0,-1.3,0.0,0.26,-1.49,-0.2,-0.3,0.0,0.4,0.0,0.0,-1.2,1.57,0.0,0.0
2040.0,0.0,0.0,0.0,-1.3,0.0,0.26,-1.49,-0.2,-0.3,0.0,0.4,0.0,0.0,-1.2,1.57,0.0,0.0
2050.0,0.0,0.0,0.0,-1.3,0.0,0.26,-1.49,-0.2,-0.3,0.0,0.4,0.0,0.0,-1.2,1.57,0.0,0.0
2060.0,0.0,0.0,0.0,-1.3,0.0,0.26,-1.49,-0.2,-0.3,0.0,0.4,0.0,0.0,-1.2,1.57,0.0,0.0
2070.0,0.0,0.0,0.0,-1.3,0.0,0.26,-1.49,-0.2,-0.3,0.0,0.4,0.0,0.0,-1.2,1.57,0.0,0.0
2080.0,0.0,0.0,0.0,-1.3,0.0,0.26,-1.49,-0.2,-0.3,0.0,0.4,0.0,0.0,-1.2,1.57,0.0,0.0
2090.0,0.0,0.0,0.0,-1.3,0.0,0.26,-1.49,-0.2,-0.3,0.0,0.4,0.0,0.0,-1.2,1.57,0.0,0.0
2100.0,0.0,0.0,0.0,-1.3,0.0,0.26,-1.49,-0.2,-0.3,0.0,0.4,0.0,0.0,-1.2,1.57,0.0,0.0
2110.0,0.0,0.0,0.0,-1.3,0.0,0.26,-1.49,-0.2,-0.3,0.0,0.4,0.0,0.0,-1.2,1.57,0.0,0.0
2120.0,0.0,0.0,0.0,-1.3,0.0,0.26,-1.49,-0.2,-0.3,0.0,0.4,0.0,0.0,-1.2,1.57,0.0,0.0
2130.0,0.0,0.0,0.0,-1.3,0.0,0.26,-1.49,-0.2,-0.3,0.0,0.4,0.0,0.0,-1.2,1.57,0.0,0.0
2140.0,0.0,0.0,0.0,-1.3,0.0,0.26,-1.49,-0.2,-0.3,0.0,0.4,0.0,0.0,-1.2,1.57,0.0,0.0
2150.0,0.0,0.0,0.0,-1.3,0.0,0.26,-1.49,-0.2,-0.3,0.0,0.4,0.0,0.0,-1.2,1.57,0.0,0.0
2160.0,0.0,0.0,0.0,-1.3,0.0,0.26,-1.49,-0.2,-0.3,0.0,0.4,0.0,0.0,-1.2,1.57,0.0,0.0
2170.0,0.0,0.0,0.0,-1.3,0.0,0.26,-1.49,-0.2,-0.3,0.0,0.4,0.0,0.0,-1.2,1.57,0.0,0.0
2180.0,0.0,0.0,0.0,-1.3,0.0,0.26,-1.49,-0.2,-0.3,0.0,0.4,0.0,0.0,-1.2,1.57,0.0,0.0
2190.0,0.0,0.0,0.0,-1.3,0.0,0.26,-1.49,-0.2,-0.3,0.0,0.4,0.0,0.0,-1.2,1.57,0.0,0.0
2200.0,0.0,0.0,0.0,-1.3,0.0,0.26,-1.49,-0.2,-0.3,0.0,0.4,0.0,0.0,-1.2,1.57,0.0,0.0
2210.0,0.0,0.0,0.0,-1.3,0.0,0.26,-1.49,-0.2,-0.3,0.0,0.4,0.0,0.0,-1.2,1.57,0.0,0.0
2220.0,0.0,0.0,0.0,-1.3,0.0,0.26,-1.49,-0.2,-0.3,0.0,0.4,0.0,0.0,-1.2,1.57,0.0,0.0
2230.0,0.0,0.0,0.0,-1.3,0.0,0.26,-1.49,-0.2,-0.3,0.0,0.4,0.0,0.0,-1.2,1.57,0.0,0.0
2240.0,0.0,0.0,0.0,-1.3,0.0,0.26,-1.49,-0.2,-0.3,0.0,0.4,0.0,0.0,-1.2,1.57,0.0,0.0
2250.0,0.0,0.0,0.0,-1.3,0.0,0.26,-1.49,-0.2,-0.3,0.0,0.4,0.0,0.0,-1.2,1.57,0.0,0.0
2260.0,0.0,0.0,0.0,-1.3,0.0,0.26,-1.49,-0.2,-0.3,0.0,0.4,0.0,0.0,-1.2,1.57,0.0,0.0
2270.0,0.0,0.0,0.0,-1.3,0.0,0.26,-1.49,-0.2,-0.3,0.0,0.4,0.0,0.0,-1.2,1.57,0.0,0.0
2280.0,0.0,0.0,0.0,-1.3,0.0,0.26,-1.49,-0.2,-0.3,0.0,0.4,0.0,0.0,-1.2,1.57,0.0,0.0
2290.0,0.0,0.0,0.0,-1.3,0.0,0.26,-1.49,-0.2,-0.3,0.0,0.4,0.0,0.0,-1.2,1.57,0.0,0.0
2300.0,0.0,0.0,0.0,-1.3,0.0,0.26,-1.49,-0.2,-0.3,0.0,0.4,0.0,0.0,-1.2,1.57,0.0,0.0
2310.0,0.0,0.0,0.0,-1.3,0.0,0.26,-1.49,-0.2,-0.3,0.0,0.4,0.0,0.0,-1.2,1.57,0.0,0.0
2320.0,0.0,0.0,0.0,-1.3,0.0,0.26,-1.49,-0.2,-0.3,0.0,0.4,0.0,0.0,-1.2,1.57,0.0,0.0
2330.0,0.0,0.0,0.0,-1.3,0.0,0.26,-1.49,-0.2,-0.3,0.0,0.4,0.0,0.0,-1.2,1.57,0.0,0.0
2340.0,0.0,0.0,0.0,-1.3,0.0,0.26,-1.49,-0.2,-0.3,0.0,0.4,0.0,0.0,-1.2,1.57,0.0,0.0
2350.0,0.0,0.0,0.0,-1.3,0.0,0.26,-1.49,-0.2,-0.3,0.0,0.4,0.0,0.0,-1.2,1.57,0.0,0.0
2360.0,0.0,0.0,0.0,-1.3,0.0,0.26,-1.49,-0.2,-0.3,0.0,0.4,0.0,0.0,-1.2,1.57,0.0,0.0
2370.0,0.0,0.0,0.0,-1.3,0.0,0.26,-1.49,-0.2,-0.3,0.0,0.4,0.0,0.0,-1.2,1.57,0.0,0.0
2380.0,0.0,0.0,0.0,-1.3,0.0,0.26,-1.49,-0.2,-0.3,0.0,0.4,0.0,0.0,-1.2,1.57,0.0,0.0
2390.0,0.0,0.0,0.0,-1.3,0.0,0.26,-1.49,-0.2,-0.3,0.0,0.4,0.0,0.0,-1.2,1.57,0.0,0.0
2400.0,0.0,0.0,0.0,-1.3,0.0,0.26,-1.49,-0.2,-0.3,0.0,0.4,0.0,0.0,-1.2,1.57,0.0,0.0
2410.0,0.0,0.0,0.0,-1.3,0.0,0.26,-1.49,-0.2,-0.3,0.0,0.4,0.0,0.0,-1.2,1.57,0.0,0.0
2420.0,0.0,0.0,0.0,-1.3,0.0,0.26,-1.49,-0.2,-0.3,0.0,0.4,0.0,0.0,-1.2,1.57,0.0,0.0
2430.0,0.0,0.0,0.0,-1.3,0.0,0.26,-1.49,-0.2,-0.3,0.0,0.4,0.0,0.0,-1.2,1.57,0.0,0.0
2440.0,0.0,0.0,0.0,-1.3,0.0,0.26,-1.49,-0.2,-0.3,0.0,0.4,0.0,0.0,-1.2,1.57,0.0,0.0
2450.0,0.0,0.0,0.0,-1.3,0.0,0.26,-1.49,-0.2,-0.3,0.0,0.4,0.0,0.0,-1.2,1.57,0.0,0.0
2460.0,0.0,0.0,0.0,-1.3,0.0,0.26,-1.49,-0.2,-0.3,0.0,0.4,0.0,0.0,-1.2,1.57,0.0,0.0
2470.0,0.0,0.0,0.0,-1.3,0.0,0.26,-1.49,-0.2,-0.3,0.0,0.4,0.0,0.0,-1.2,1.57,0.0,0.0
2480.0,0.0,0.0,0.0,-1.3,0.0,0.26,-1.49,-0.2,-0.3,0.0,0.4,0.0,0.0,-1.2,1.57,0.0,0.0
2490.0,0.0,0.0,0.0,-1.3,0.0,0.26,-1.49,-0.2,-0.3,0.0,0.4,0.0,0.0,-1.2,1.57,0.0,0.0
2500.0,0.0,0.0,0.0,-1.3,0.0,0.26,-1.49,-0.2,-0.3,0.0,0.4,0.0,0.0,-1.2,1.57,0.0,0.0
2510.0,0.0,0.0,0.0,-1.3,0.0,0.26,-1.49,-0.2,-0.3,0.0,0.4,0.0,0.0,-1.2,1.57,0.0,0.0
2520.0,0.0,0.0,0.0,-1.3,0.0,0.26,-1.49,-0.2,-0.3,0.0,0.4,0.0,0.0,-1.2,1.57,0.0,0.0
2530.0,0.0,0.0,0.0,-1.3,0.0,0.26,-1.49,-0.2,-0.3,0.0,0.4,0.0,0.0,-1.2,1.57,0.0,0.0
2540.0,0.0,0.0,0.0,-1.3,0.0,0.26,-1.49,-0.2,-0.3,0.0,0.4,0.0,0.0,-1.2,1.57,0.0,0.0
2550.0,0.0,0.0,0.0,-1.3,0.0,0.26,-1.49,-0.2,-0.3,0.0,0.4,0.0,0.0,-1.2,1.57,0.0,0.0
2560.0,0.0,0.0,0.0,-1.3,0.0,0.26,-1.49,-0.2,-0.3,0.0,0.4,0.0,0.0,-1.2,1.57,0.0,0.0
2570.0,0.0,0.0,0.0,-1.3,0.0,0.26,-1.49,-0.2,-0.3,0.0,0.4,0.0,0.0,-1.2,1.57,0.0,0.0
2580.0,0.0,0.0,0.0,-1.3,0.0,0.26,-1.49,-0.2,-0.3,0.0,0.4,0.0,0.0,-1.2,1.57,0.0,0.0
2590.0,0.0,0.0,0.0,-1.3,0.0,0.26,-1.49,-0.2,-0.3,0.0,0.4,0.0,0.0,-1.2,1.57,0.0,0.0
2600.0,0.0,0.0,0.0,-1.3,0.0,0.26,-1.49,-0.2,-0.3,0.0,0.4,0.0,0.0,-1.2,1.57,0.0,0.0
2610.0,0.0,0.0,0.0,-1.3,0.0,0.26,-1.49,-0.2,-0.3,0.0,0.4,0.0,0.0,-1.2,1.57,0.0,0.0
2620.0,0.0,0.0,0.0,-1.3,0.0,0.26,-1.49,-0.2,-0.3,0.0,0.4,0.0,0.0,-1.2,1.57,0.0,0.0
2630.0,0.0,0.0,0.0,-1.3,0.0,0.26,-1.49,-0.2,-0.3,0.0,0.4,0.0,0.0,-1.2,1.57,0.0,0.0
2640.0,0.0,0.0,0.0,-1.3,0.0,0.26,-1.49,-0.2,-0.3,0.0,0.4,0.0,0.0,-1.2,1.57,0.0,0.0
2650.0,0.0,0.0,0.0,-1.3,0.0,0.26,-1.49,-0.2,-0.3,0.0,0.4,0.0,0.0,-1.2,1.57,0.0,0.0
2660.0,0.0,0.0,0.0,-1.3,0.0,0.26,-1.49,-0.2,-0.3,0.0,0.4,0.0,0.0,-1.2,1.57,0.0,0.0
2670.0,0.0,0.0,0.0,-1.3,0.0,0.26,-1.49,-0.2,-0.3,0.0,0.4,0.0,0.0,-1.2,1.57,0.0,0.0
2680.0,0.0,0.0,0.0,-1.3,0.0,0.26,-1.49,-0.2,-0.3,0.0,0.4,0.0,0.0,-1.2,1.57,0.0,0.0
2690.0,0.0,0.0,0.0,-1.3,0.0,0.26,-1.49,-0.2,-0.3,0.0,0.4,0.0,0.0,-1.2,1.57,0.0,0.0
2700.0,0.0,0.0,0.0,-1.3,0.0,0.26,-1.49,-0.2,-0.3,0.0,0.4,0.0,0.0,-1.2,1.57,0.0,0.0
2710.0,0.0,0.0,0.0,-1.3,0.0,0.26,-1.49,-0.2,-0.3,0.0,0.4,0.0,0.0,-1.2,1.57,0.0,0.0
2720.0,0.0,0.0,0.0,-1.3,0.0,0.26,-1.49,-0.2,-0.3,0.0,0.4,0.0,0.0,-1.2,1.57,0.0,0.0
2730.0,0.0,0.0,0.0,-1.3,0.0,0.26,-1.49,-0.2,-0.3,0.0,0.4,0.0,0.0,-1.2,1.57,0.0,0.0
2740.0,0.0,0.0,0.0,-1.3,0.0,0.26,-1.49,-0.2,-0.3,0.0,0.4,0.0,0.0,-1.2,1.57,0.0,0.0
2750.0,0.0,0.0,0.0,-1.3,0.0,0.26,-1.49,-0.2,-0.3,0.0,0.4,0.0,0.0,-1.2,1.57,0.0,0.0
2760.0,0.0,0.0,0.0,-1.3,0.0,0.26,-1.49,-0.2,-0.3,0.0,0.4,0.0,0.0,-1.2,1.57,0.0,0.0
2770.0,0.0,0.0,0.0,-1.3,0.0,0.26,-1.49,-0.2,-0.3,0.0,0.4,0.0,0.0,-1.2,1.57,0.0,0.0
2780.0,0.0,0.0,0.0,-1.3,0.0,0.26,-1.49,-0.2,-0.3,0.0,0.4,0.0,0.0,-1.2,1.57,0.0,0.0
2790.0,0.0,0.0,0.0,-1.3,0.0,0.26,-1.49,-0.2,-0.3,0.0,0.4,0.0,0.0,-1.2,1.57,0.0,0.0
2800.0,0.0,0.0,0.0,-1.3,0.0,0.26,-1.49,-0.2,-0.3,0.0,0.4,0.0,0.0,-1.2,1.57,0.0,0.0
2810.0,0.0,0.0,0.0,-1.3,0.0,0.26,-1.49,-0.2,-0.3,0.0,0.4,0.0,0.0,-1.2,1.57,0.0,0.0
2820.0,0.0,0.0,0.0,-1.3,0.0,0.26,-1.49,-0.2,-0.3,0.0,0.4,0.0,0.0,-1.2,1.57,0.0,0.0
2830.0,0.0,0.0,0.0,-1.3,0.0,0.26,-1.49,-0.2,-0.3,0.0,0.4,0.0,0.0,-1.2,1.57,0.0,0.0
2840.0,0.0,0.0,0.0,-1.3,0.0,0.26,-1.49,-0.2,-0.3,0.0,0.4,0.0,0.0,-1.2,1.57,0.0,0.0
2850.0,0.0,0.0,0.0,-1.3,0.0,0.26,-1.49,-0.2,-0.3,0.0,0.4,0.0,0.0,-1.2,1.57,0.0,0.0
2860.0,0.0,0.0,0.0,-1.3,0.0,0.26,-1.49,-0.2,-0.3,0.0,0.4,0.0,0.0,-1.2,1.57,0.0,0.0
2870.0,0.0,0.0,0.0,-1.3,0.0,0.26,-1.49,-0.2,-0.3,0.0,0.4,0.0,0.0,-1.2,1.57,0.0,0.0
2880.0,0.0,0.0,0.0,-1.3,0.0,0.26,-1.49,-0.2,-0.3,0.0,0.4,0.0,0.0,-1.2,1.57,0.0,0.0
2890.0,0.0,0.0,0.0,-1.3,0.0,0.26,-1.49,-0.2,-0.3,0.0,0.4,0.0,0.0,-1.2,1.57,0.0,0.0
2900.0,0.0,0.0,0.0,-1.3,0.0,0.26,-1.49,-0.2,-0.3,0.0,0.4,0.0,0.0,-1.2,1.57,0.0,0.0
2910.0,0.0,0.0,0.0,-1.3,0.0,0.26,-1.49,-0.2,-0.3,0.0,0.4,0.0,0.0,-1.2,1.57,0.0,0.0
2920.0,0.0,0.0,0.0,-1.3,0.0,0.26,-1.49,-0.2,-0.3,0.0,0.4,0.0,0.0,-1.2,1.57,0.0,0.0
2930.0,0.0,0.0,0.0,-1.3,0.0,0.26,-1.49,-0.2,-0.3,0.0,0.4,0.0,0.0,-1.2,1.57,0.0,0.0
2940.0,0.0,0.0,0.0,-1.3,0.0,0.26,-1.49,-0.2,-0.3,0.0,0.4,0.0,0.0,-1.2,1.57,0.0,0.0
2950.0,0.0,0.0,0.0,-1.3,0.0,0.26,-1.49,-0.2,-0.3,0.0,0.4,0.0,0.0,-1.2,1.57,0.0,0.0
2960.0,0.0,0.0,0.0,-1.3,0.0,0.26,-1.49,-0.2,-0.3,0.0,0.4,0.0,0.0,-1.2,1.57,0.0,0.0
2970.0,0.0,0.0,0.0,-1.3,0.0,0.26,-1.49,-0.2,-0.3,0.0,0.4,0.0,0.0,-1.2,1.57,0.0,0.0
2980.0,0.0,0.0,0.0,-1.3,0.0,0.26,-1.49,-0.2,-0.3,0.0,0.4,0.0,0.0,-1.2,1.57,0.0,0.0
2990.0,0.0,0.0,0.0,-1.3,0.0,0.26,-1.49,-0.2,-0.3,0.0,0.4,0.0,0.0,-1.2,1.57,0.0,0.0
3000.0,0.0,0.0,0.0,-1.3,0.0,0.26,-1.49,-0.2,-0.3,0.0,0.4,0.0,0.0,-1.2,1.57,0.0,0.0
3010.0,0.0,0.0,0.0,-1.3,0.0,0.26,-1.49,-0.2,-0.3,0.0,0.4,0.0,0.0,-1.2,1.57,0.0,0.0
3020.0,0.0,0.0,0.0,-1.3,0.0,0.26,-1.49,-0.2,-0.3,0.0,0.4,0.0,0.0,-1.2,1.57,0.0,0.0
3030.0,0.0,0.0,0.0,-1.3,0.0,0.26,-1.49,-0.2,-0.3,0.0,0.4,0.0,0.0,-1.2,1.57,0.0,0.0
3040.0,0.0,0.0,0.0,-1.3,0.0,0.26,-1.49,-0.2,-0.3,0.0,0.4,0.0,0.0,-1.2,1.57,0.0,0.0
3050.0,0.0,0.0,0.0,-1.3,0.0,0.26,-1.49,-0.2,-0.3,0.0,0.4,0.0,0.0,-1.2,1.57,0.0,0.0
3060.0,0.0,0.0,0.0,-1.3,0.0,0.26,-1.49,-0.2,-0.3,0.0,0.4,0.0,0.0,-1.2,1.57,0.0,0.0
3070.0,0.0,0.0,0.0,-1.3,0.0,0.26,-1.49,-0.2,-0.3,0.0,0.4,0.0,0.0,-1.2,1.57,0.0,0.0
3080.0,0.0,0.0,0.0,-1.3,0.0,0.26,-1.49,-0.2,-0.3,0.0,0.4,0.0,0.0,-1.2,1.57,0.0,0.0
3090.0,0.0,0.0,0.0,-1.3,0.0,0.26,-1.49,-0.2,-0.3,0.0,0.4,0.0,0.0,-1.2,1.57,0.0,0.0
3100.0,0.0,0.0,0.0,-1.3,0.0,0.26,-1.49,-0.2,-0.3,0.0,0.4,0.0,0.0,-1.2,1.57,0.0,0.0
3110.0,0.0,0.0,0.0,-1.3,0.0,0.26,-1.49,-0.2,-0.3,0.0,0.4,0.0,0.0,-1.2,1.57,0.0,0.0
3120.0,0.0,0.0,0.0,-1.3,0.0,0.26,-1.49,-0.2,-0.3,0.0,0.4,0.0,0.0,-1.2,1.57,0.0,0.0
3130.0,0.0,0.0,0.0,-1.3,0.0,0.26,-1.49,-0.2,-0.3,0.0,0.4,0.0,0.0,-1.2,1.57,0.0,0.0
3140.0,0.0,0.0,0.0,-1.3,0.0,0.26,-1.49,-0.2,-0.3,0.0,0.4,0.0,0.0,-1.2,1.57,0.0,0.0
3150.0,0.0,0.0,0.0,-1.3,0.0,0.26,-1.49,-0.2,-0.3,0.0,0.4,0.0,0.0,-1.2,1.57,0.0,0.0
3160.0,0.0,0.0,0.0,-1.3,0.0,0.26,-1.49,-0.2,-0.3,0.0,0.4,0.0,0.0,-1.2,1.57,0.0,0.0
3170.0,0.0,0.0,0.0,-1.3,0.0,0.26,-1.49,-0.2,-0.3,0.0,0.4,0.0,0.0,-1.2,1.57,0.0,0.0
3180.0,0.0,0.0,0.0,-1.3,0.0,0.26,-1.49,-0.2,-0.3,0.0,0.4,0.0,0.0,-1.2,1.57,0.0,0.0
3190.0,0.0,0.0,0.0,-1.3,0.0,0.26,-1.49,-0.2,-0.3,0.0,0.4,0.0,0.0,-1.2,1.57,0.0,0.0
3200.0,0.0,0.0,0.0,-1.3,0.0,0.26,-1.49,-0.2,-0.3,0.0,0.4,0.0,0.0,-1.2,1.57,0.0,0.0
3210.0,0.0,0.0,0.0,-1.3,0.0,0.26,-1.49,-0.2,-0.3,0.0,0.4,0.0,0.0,-1.2,1.57,0.0,0.0
3220.0,0.0,0.0,0.0,-1.3,0.0,0.26,-1.49,-0.2,-0.3,0.0,0.4,0.0,0.0,-1.2,1.57,0.0,0.0
3230.0,0.0,0.0,0.0,-1.3,0.0,0.26,-1.49,-0.2,-0.3,0.0,0.4,0.0,0.0,-1.2,1.57,0.0,0.0
3240.0,0.0,0.0,0.0,-1.3,0.0,0.26,-1.49,-0.2,-0.3,0.0,0.4,0.0,0.0,-1.2,1.57,0.0,0.0
3250.0,0.0,0.0,0.0,-1.3,0.0,0.26,-1.49,-0.2,-0.3,0.0,0.4,0.0,0.0,-1.2,1.57,0.0,0.0
3260.0,0.0,0.0,0.0,-1.3,0.0,0.26,-1.49,-0.2,-0.3,0.0,0.4,0.0,0.0,-1.2,1.57,0.0,0.0
3270.0,0.0,0.0,0.0,-1.3,0.0,0.26,-1.49,-0.2,-0.3,0.0,0.4,0.0,0.0,-1.2,1.57,0.0,0.0
3280.0,0.0,0.0,0.0,-1.3,0.0,0.26,-1.49,-0.2,-0.3,0.0,0.4,0.0,0.0,-1.2,1.57,0.0,0.0
3290.0,0.0,0.0,0.0,-1.3,0.0,0.26,-1.49,-0.2,-0.3,0.0,0.4,0.0,0.0,-1.2,1.57,0.0,0.0
3300.0,0.0,0.0,0.0,-1.3,0.0,0.26,-1.49,-0.2,-0.3,0.0,0.4,0.0,0.0,-1.2,1.57,0.0,0.0
3310.0,0.0,0.0,0.0,-1.3,0.0,0.26,-1.49,-0.2,-0.3,0.0,0.4,0.0,0.0,-1.2,1.57,0.0,0.0
3320.0,0.0,0.0,0.0,-1.3,0.0,0.26,-1.49,-0.2,-0.3,0.0,0.4,0.0,0.0,-1.2,1.57,0.0,0.0
3330.0,0.0,0.0,0.0,-1.3,0.0,0.26,-1.49,-0.2,-0.3,0.0,0.4,0.0,0.0,-1.2,1.57,0.0,0.0
3340.0,0.0,0.0,0.0,-1.3,0.0,0.26,-1.49,-0.2,-0.3,0.0,0.4,0.0,0.0,-1.2,1.57,0.0,0.0
3350.0,0.0,0.0,0.0,-1.3,0.0,0.26,-1.49,-0.2,-0.3,0.0,0.4,0.0,0.0,-1.2,1.57,0.0,0.0
3360.0,0.0,0.0,0.0,-1.3,0.0,0.26,-1.49,-0.2,-0.3,0.0,0.4,0.0,0.0,-1.2,1.57,0.0,0.0
3370.0,0.0,0.0,0.0,-1.3,0.0,0.26,-1.49,-0.2,-0.3,0.0,0.4,0.0,0.0,-1.2,1.57,0.0,0.0
3380.0,0.0,0.0,0.0,-1.3,0.0,0.26,-1.49,-0.2,-0.3,0.0,0.4,0.0,0.0,-1.2,1.57,0.0,0.0
3390.0,0.0,0.0,0.0,-1.3,0.0,0.26,-1.49,-0.2,-0.3,0.0,0.4,0.0,0.0,-1.2,1.57,0.0,0.0
3400.0,0.0,0.0,0.0,-1.3,0.0,0.26,-1.49,-0.2,-0.3,0.0,0.4,0.0,0.0,-1.2,1.57,0.0,0.0
3410.0,0.0,0.0,0.0,-1.3,0.0,0.26,-1.49,-0.2,-0.3,0.0,0.4,0.0,0.0,-1.2,1.57,0.0,0.0
3420.0,0.0,0.0,0.0,-1.3,0.0,0.26,-1.49,-0.2,-0.3,0.0,0.4,0.0,0.0,-1.2,1.57,0.0,0.0
3430.0,0.0,0.0,0.0,-1.3,0.0,0.26,-1.49,-0.2,-0.3,0.0,0.4,0.0,0.0,-1.2,1.57,0.0,0.0
3440.0,0.0,0.0,0.0,-1.3,0.0,0.26,-1.49,-0.2,-0.3,0.0,0.4,0.0,0.0,-1.2,1.57,0.0,0.0
3450.0,0.0,0.0,0.0,-1.3,0.0,0.26,-1.49,-0.2,-0.3,0.0,0.4,0.0,0.0,-1.2,1.57,0.0,0.0
3460.0,0.0,0.0,0.0,-1.3,0.0,0.26,-1.49,-0.2,-0.3,0.0,0.4,0.0,0.0,-1.2,1.57,0.0,0.0
3470.0,0.0,0.0,0.0,-1.3,0.0,0.26,-1.49,-0.2,-0.3,0.0,0.4,0.0,0.0,-1.2,1.57,0.0,0.0
3480.0,0.0,0.0,0.0,-1.3,0.0,0.26,-1.49,-0.2,-0.3,0.0,0.4,0.0,0.0,-1.2,1.57,0.0,0.0
3490.0,0.0,0.0,0.0,-1.3,0.0,0.26,-1.49,-0.2,-0.3,0.0,0.4,0.0,0.0,-1.2,1.57,0.0,0.0
3500.0,0.0,0.0,0.0,-1.3,0.0,0.26,-1.49,-0.2,-0.3,0.0,0.4,0.0,0.0,-1.2,1.57,0.0,0.0
3510.0,0.0,0.0,0.0,-1.3,0.0,0.26,-1.49,-0.2,-0.3,0.0,0.4,0.0,0.0,-1.2,1.57,0.0,0.0
3520.0,0.0,0.0,0.0,-1.3,0.0,0.26,-1.49,-0.2,-0.3,0.0,0.4,0.0,0.0,-1.2,1.57,0.0,0.0
3530.0,0.0,0.0,0.0,-1.3,0.0,0.26,-1.49,-0.2,-0.3,0.0,0.4,0.0,0.0,-1.2,1.57,0.0,0.0
3540.0,0.0,0.0,0.0,-1.3,0.0,0.26,-1.49,-0.2,-0.3,0.0,0.4,0.0,0.0,-1.2,1.57,0.0,0.0
3550.0,0.0,0.0,0.0,-1.3,0.0,0.26,-1.49,-0.2,-0.3,0.0,0.4,0.0,0.0,-1.2,1.57,0.0,0.0
3560.0,0.0,0.0,0.0,-1.3,0.0,0.26,-1.49,-0.2,-0.3,0.0,0.4,0.0,0.0,-1.2,1.57,0.0,0.0
3570.0,0.0,0.0,0.0,-1.3,0.0,0.26,-1.49,-0.2,-0.3,0.0,0.4,0.0,0.0,-1.2,1.57,0.0,0.0
3580.0,0.0,0.0,0.0,-1.3,0.0,0.26,-1.49,-0.2,-0.3,0.0,0.4,0.0,0.0,-1.2,1.57,0.0,0.0
3590.0,0.0,0.0,0.0,-1.3,0.0,0.26,-1.49,-0.2,-0.3,0.0,0.4,0.0,0.0,-1.2,1.57,0.0,0.0
3600.0,0.0,0.0,0.0,-1.3,0.0,0.26,-1.49,-0.2,-0.3,0.0,0.4,0.0,0.0,-1.2,1.57,0.0,0.0
3610.0,0.0,0.0,0.0,-1.3,0.0,0.26,-1.49,-0.2,-0.3,0.0,0.4,0.0,0.0,-1.2,1.57,0.0,0.0
3620.0,0.0,0.0,0.0,-1.3,0.0,0.26,-1.49,-0.2,-0.3,0.0,0.4,0.0,0.0,-1.2,1.57,0.0,0.0
3630.0,0.0,0.0,0.0,-1.3,0.0,0.26,-1.49,-0.2,-0.3,0.0,0.4,0.0,0.0,-1.2,1.57,0.0,0.0
3640.0,0.0,0.0,0.0,-1.3,0.0,0.26,-1.49,-0.2,-0.3,0.0,0.4,0.0,0.0,-1.2,1.57,0.0,0.0
3650.0,0.0,0.0,0.0,-1.3,0.0,0.26,-1.49,-0.2,-0.3,0.0,0.4,0.0,0.0,-1.2,1.57,0.0,0.0
3660.0,0.0,0.0,0.0,-1.3,0.0,0.26,-1.49,-0.2,-0.3,0.0,0.4,0.0,0.0,-1.2,1.57,0.0,0.0
3670.0,0.0,0.0,0.0,-1.3,0.0,0.26,-1.49,-0.2,-0.3,0.0,0.4,0.0,0.0,-1.2,1.57,0.0,0.0
3680.0,0.0,0.0,0.0,-1.3,0.0,0.26,-1.49,-0.2,-0.3,0.0,0.4,0.0,0.0,-1.2,1.57,0.0,0.0
3690.0,0.0,0.0,0.0,-1.3,0.0,0.26,-1.49,-0.2,-0.3,0.0,0.4,0.0,0.0,-1.2,1.57,0.0,0.0
3700.0,0.0,0.0,0.0,-1.3,0.0,0.26,-1.49,-0.2,-0.3,0.0,0.4,0.0,0.0,-1.2,1.57,0.0,0.0
3710.0,0.0,0.0,0.0,-1.3,0.0,0.26,-1.49,-0.2,-0.3,0.0,0.4,0.0,0.0,-1.2,1.57,0.0,0.0
3720.0,0.0,0.0,0.0,-1.3,0.0,0.26,-1.49,-0.2,-0.3,0.0,0.4,0.0,0.0,-1.2,1.57,0.0,0.0
3730.0,0.0,0.0,0.0,-1.3,0.0,0.26,-1.49,-0.2,-0.3,0.0,0.4,0.0,0.0,-1.2,1.57,0.0,0.0
3740.0,0.0,0.0,0.0,-1.3,0.0,0.26,-1.49,-0.2,-0.3,0.0,0.4,0.0,0.0,-1.2,1.57,0.0,0.0
3750.0,0.0,0.0,0.0,-1.3,0.0,0.26,-1.49,-0.2,-0.3,0.0,0.4,0.0,0.0,-1.2,1.57,0.0,0.0
3760.0,0.0,0.0,0.0,-1.3,0.0,0.26,-1.49,-0.2,-0.3,0.0,0.4,0.0,0.0,-1.2,1.57,0.0,0.0
3770.0,0.0,0.0,0.0,-1.3,0.0,0.26,-1.49,-0.2,-0.3,0.0,0.4,0.0,0.0,-1.2,1.57,0.0,0.0
3780.0,0.0,0.0,0.0,-1.3,0.0,0.26,-1.49,-0.2,-0.3,0.0,0.4,0.0,0.0,-1.2,1.57,0.0,0.0
3790.0,0.0,0.0,0.0,-1.3,0.0,0.26,-1.49,-0.2,-0.3,0.0,0.4,0.0,0.0,-1.2,1.57,0.0,0.0
3800.0,0.0,0.0,0.0,-1.3,0.0,0.26,-1.49,-0.2,-0.3,0.0,0.4,0.0,0.0,-1.2,1.57,0.0,0.0
3810.0,0.0,0.0,0.0,-1.3,0.0,0.26,-1.49,-0.2,-0.3,0.0,0.4,0.0,0.0,-1.2,1.57,0.0,0.0
3820.0,0.0,0.0,0.0,-1.3,0.0,0.26,-1.49,-0.2,-0.3,0.0,0.4,0.0,0.0,-1.2,1.57,0.0,0.0
3830.0,0.0,0.0,0.0,-1.3,0.0,0.26,-1.49,-0.2,-0.3,0.0,0.4,0.0,0.0,-1.2,1.57,0.0,0.0
3840.0,0.0,0.0,0.0,-1.3,0.0,0.26,-1.49,-0.2,-0.3,0.0,0.4,0.0,0.0,-1.2,1.57,0.0,0.0
3850.0,0.0,0.0,0.0,-1.3,0.0,0.26,-1.49,-0.2,-0.3,0.0,0.4,0.0,0.0,-1.2,1.57,0.0,0.0
3860.0,0.0,0.0,0.0,-1.3,0.0,0.26,-1.49,-0.2,-0.3,0.0,0.4,0.0,0.0,-1.2,1.57,0.0,0.0
3870.0,0.0,0.0,0.0,-1.3,0.0,0.26,-1.49,-0.2,-0.3,0.0,0.4,0.0,0.0,-1.2,1.57,0.0,0.0
3880.0,0.0,0.0,0.0,-1.3,0.0,0.26,-1.49,-0.2,-0.3,0.0,0.4,0.0,0.0,-1.2,1.57,0.0,0.0
3890.0,0.0,0.0,0.0,-1.3,0.0,0.26,-1.49,-0.2,-0.3,0.0,0.4,0.0,0.0,-1.2,1.57,0.0,0.0
3900.0,0.0,0.0,0.0,-1.3,0.0,0.26,-1.49,-0.2,-0.3,0.0,0.4,0.0,0.0,-1.2,1.57,0.0,0.0
3910.0,0.0,0.0,0.0,-1.3,0.0,0.26,-1.49,-0.2,-0.3,0.0,0.4,0.0,0.0,-1.2,1.57,0.0,0.0
3920.0,0.0,0.0,0.0,-1.3,0.0,0.26,-1.49,-0.2,-0.3,0.0,0.4,0.0,0.0,-1.2,1.57,0.0,0.0
3930.0,0.0,0.0,0.0,-1.3,0.0,0.26,-1.49,-0.2,-0.3,0.0,0.4,0.0,0.0,-1.2,1.57,0.0,0.0
3940.0,0.0,0.0,0.0,-1.3,0.0,0.26,-1.49,-0.2,-0.3,0.0,0.4,0.0,0.0,-1.2,1.57,0.0,0.0
3950.0,0.0,0.0,0.0,-1.3,0.0,0.26,-1.49,-0.2,-0.3,0.0,0.4,0.0,0.0,-1.2,1.57,0.0,0.0
3960.0,0.0,0.0,0.0,-1.3,0.0,0.26,-1.49,-0.2,-0.3,0.0,0.4,0.0,0.0,-1.2,1.57,0.0,0.0
3970.0,0.0,0.0,0.0,-1.3,0.0,0.26,-1.49,-0.2,-0.3,0.0,0.4,0.0,0.0,-1.2,1.57,0.0,0.0
3980.0,0.0,0.0,0.0,-1.3,0.0,0.26,-1.49,-0.2,-0.3,0.0,0.4,0.0,0.0,-1.2,1.57,0.0,0.0
3990.0,0.0,0.0,0.0,-1.3,0.0,0.26,-1.49,-0.2,-0.3,0.0,0.4,0.0,0.0,-1.2,1.57,0.0,0.0
4000.0,0.0,0.0,0.0,-1.3,0.0,0.26,-1.49,-0.2,-0.3,0.0,0.4,0.0,0.0,-1.2,1.57,0.0,0.0
4010.0,0.0,0.0,0.0,-1.2915,0.0,0.2587,-1.48855,-0.20685,-0.2985,0.0,0.4,0.0,0.0,-1.2,1.57,0.0,0.0
4020.0,0.0,0.0,0.0,-1.2830000000000001,0.0,0.2574,-1.4871,-0.2137,-0.297,0.0,0.4,0.0,0.0,-1.2,1.57,0.0,0.0
4030.0,0.0,0.0,0.0,-1.2745,0.0,0.2561,-1.48565,-0.22055000000000002,-0.2955,0.0,0.4,0.0,0.0,-1.2,1.57,0.0,0.0
4040.0,0.0,0.0,0.0,-1.266,0.0,0.2548,-1.4842,-0.22740000000000002,-0.294,0.0,0.4,0.0,0.0,-1.2,1.57,0.0,0.0
4050.0,0.0,0.0,0.0,-1.2575,0.0,0.2535,-1.48275,-0.23425,-0.2925,0.0,0.4,0.0,0.0,-1.2,1.57,0.0,0.0
4060.0,0.0,0.0,0.0,-1.249,0.0,0.2522,-1.4813,-0.2411,-0.291,0.0,0.4,0.0,0.0,-1.2,1.57,0.0,0.0
4070.0,0.0,0.0,0.0,-1.2405,0.0,0.2509,-1.4798499999999999,-0.24795,-0.2895,0.0,0.4,0.0,0.0,-1.2,1.57,0.0,0.0
4080.0,0.0,0.0,0.0,-1.232,0.0,0.24960000000000002,-1.4784,-0.2548,-0.288,0.0,0.4,0.0,0.0,-1.2,1.57,0.0,0.0
4090.0,0.0,0.0,0.0,-1.2235,0.0,0.24830000000000002,-1.47695,-0.26165,-0.2865,0.0,0.4,0.0,0.0,-1.2,1.57,0.0,0.0
4100.0,0.0,0.0,0.0,-1.215,0.0,0.247,-1.4755,-0.2685,-0.285,0.0,0.4,0.0,0.0,-1.2,1.57,0.0,0.0
4110.0,0.0,0.0,0.0,-1.2065000000000001,0.0,0.2457,-1.47405,-0.27535,-0.2835,0.0,0.4,0.0,0.0,-1.2,1.57,0.0,0.0
4120.0,0.0,0.0,0.0,-1.198,0.0,0.2444,-1.4726,-0.2822,-0.282,0.0,0.4,0.0,0.0,-1.2,1.57,0.0,0.0
4130.0,0.0,0.0,0.0,-1.1895,0.0,0.2431,-1.47115,-0.28905000000000003,-0.28049999999999997,0.0,0.4,0.0,0.0,-1.2,1.57,0.0,0.0
4140.0,0.0,0.0,0.0,-1.181,0.0,0.24180000000000001,-1.4697,-0.29590000000000005,-0.27899999999999997,0.0,0.4,0.0,0.0,-1.2,1.57,0.0,0.0
4150.0,0.0,0.0,0.0,-1.1725,0.0,0.2405,-1.46825,-0.30275,-0.27749999999999997,0.0,0.4,0.0,0.0,-1.2,1.57,0.0,0.0
4160.0,0.0,0.0,0.0,-1.1640000000000001,0.0,0.2392,-1.4667999999999999,-0.3096,-0.27599999999999997,0.0,0.4,0.0,0.0,-1.2,1.57,0.0,0.0
4170.0,0.0,0.0,0.0,-1.1555,0.0,0.2379,-1.46535,-0.31645,-0.27449999999999997,0.0,0.4,0.0,0.0,-1.2,1.57,0.0,0.0
4180.0,0.0,0.0,0.0,-1.147,0.0,0.2366,-1.4639,-0.32330000000000003,-0.273,0.0,0.4,0.0,0.0,-1.2,1.57,0.0,0.0
4190.0,0.0,0.0,0.0,-1.1385,0.0,0.2353,-1.46245,-0.33015000000000005,-0.27149999999999996,0.0,0.4,0.0,0.0,-1.2,1.57,0.0,0.0
4200.0,0.0,0.0,0.0,-1.1300000000000001,0.0,0.234,-1.461,-0.337,-0.27,0.0,0.4,0.0,0.0,-1.2,1.57,0.0,0.0
4210.0,0.0,0.0,0.0,-1.1215,0.0,0.23270000000000002,-1.45955,-0.34385,-0.26849999999999996,0.0,0.4,0.0,0.0,-1.2,1.57,0.0,0.0
4220.0,0.0,0.0,0.0,-1.113,0.0,0.2314,-1.4581,-0.3507,-0.267,0.0,0.4,0.0,0.0,-1.2,1.57,0.0,0.0
4230.0,0.0,0.0,0.0,-1.1045,0.0,0.2301,-1.45665,-0.35755000000000003,-0.2655,0.0,0.4,0.0,0.0,-1.2,1.57,0.0,0.0
4240.0,0.0,0.0,0.0,-1.096,0.0,0.2288,-1.4552,-0.36440000000000006,-0.264,0.0,0.4,0.0,0.0,-1.2,1.57,0.0,0.0
4250.0,0.0,0.0,0.0,-1.0875,0.0,0.2275,-1.4537499999999999,-0.37125,-0.2625,0.0,0.4,0.0,0.0,-1.2,1.57,0.0,0.0
4260.0,0.0,0.0,0.0,-1.079,0.0,0.2262,-1.4523,-0.3781,-0.261,0.0,0.4,0.0,0.0,-1.2,1.57,0.0,0.0
4270.0,0.0,0.0,0.0,-1.0705,0.0,0.2249,-1.45085,-0.38495,-0.2595,0.0,0.4,0.0,0.0,-1.2,1.57,0.0,0.0
4280.0,0.0,0.0,0.0,-1.062,0.0,0.22360000000000002,-1.4494,-0.39180000000000004,-0.258,0.0,0.4,0.0,0.0,-1.2,1.57,0.0,0.0
4290.0,0.0,0.0,0.0,-1.0535,0.0,0.2223,-1.44795,-0.39865000000000006,-0.2565,0.0,0.4,0.0,0.0,-1.2,1.57,0.0,0.0
4300.0,0.0,0.0,0.0,-1.045,0.0,0.221,-1.4465,-0.4055,-0.255,0.0,0.4,0.0,0.0,-1.2,1.57,0.0,0.0
4310.0,0.0,0.0,0.0,-1.0365,0.0,0.2197,-1.44505,-0.41235,-0.2535,0.0,0.4,0.0,0.0,-1.2,1.57,0.0,0.0
4320.0,0.0,0.0,0.0,-1.028,0.0,0.2184,-1.4436,-0.4192,-0.252,0.0,0.4,0.0,0.0,-1.2,1.57,0.0,0.0
4330.0,0.0,0.0,0.0,-1.0195,0.0,0.21710000000000002,-1.44215,-0.42605000000000004,-0.2505,0.0,0.4,0.0,0.0,-1.2,1.57,0.0,0.0
4340.0,0.0,0.0,0.0,-1.0110000000000001,0.0,0.2158,-1.4407,-0.43290000000000006,-0.249,0.0,0.4,0.0,0.0,-1.2,1.57,0.0,0.0
4350.0,0.0,0.0,0.0,-1.0025,0.0,0.2145,-1.43925,-0.43975000000000003,-0.2475,0.0,0.4,0.0,0.0,-1.2,1.57,0.0,0.0
4360.0,0.0,0.0,0.0,-0.994,0.0,0.2132,-1.4378,-0.4466,-0.246,0.0,0.4,0.0,0.0,-1.2,1.57,0.0,0.0
4370.0,0.0,0.0,0.0,-0.9855,0.0,0.2119,-1.43635,-0.45345,-0.2445,0.0,0.4,0.0,0.0,-1.2,1.57,0.0,0.0
4380.0,0.0,0.0,0.0,-0.9770000000000001,0.0,0.2106,-1.4349,-0.46030000000000004,-0.243,0.0,0.4,0.0,0.0,-1.2,1.57,0.0,0.0
4390.0,0.0,0.0,0.0,-0.9685,0.0,0.20929999999999999,-1.43345,-0.46715,-0.2415,0.0,0.4,0.0,0.0,-1.2,1.57,0.0,0.0
4400.0,0.0,0.0,0.0,-0.96,0.0,0.20800000000000002,-1.432,-0.47400000000000003,-0.24,0.0,0.4,0.0,0.0,-1.2,1.57,0.0,0.0
4410.0,0.0,0.0,0.0,-0.9515,0.0,0.2067,-1.43055,-0.48085000000000006,-0.2385,0.0,0.4,0.0,0.0,-1.2,1.57,0.0,0.0
4420.0,0.0,0.0,0.0,-0.9430000000000001,0.0,0.2054,-1.4291,-0.4877,-0.237,0.0,0.4,0.0,0.0,-1.2,1.57,0.0,0.0
4430.0,0.0,0.0,0.0,-0.9345,0.0,0.2041,-1.42765,-0.49455000000000005,-0.2355,0.0,0.4,0.0,0.0,-1.2,1.57,0.0,0.0
4440.0,0.0,0.0,0.0,-0.926,0.0,0.2028,-1.4262,-0.5014000000000001,-0.23399999999999999,0.0,0.4,0.0,0.0,-1.2,1.57,0.0,0.0
4450.0,0.0,0.0,0.0,-0.9175,0.0,0.2015,-1.42475,-0.5082500000000001,-0.23249999999999998,0.0,0.4,0.0,0.0,-1.2,1.57,0.0,0.0
4460.0,0.0,0.0,0.0,-0.909,0.0,0.2002,-1.4233,-0.5151000000000001,-0.23099999999999998,0.0,0.4,0.0,0.0,-1.2,1.57,0.0,0.0
4470.0,0.0,0.0,0.0,-0.9005000000000001,0.0,0.1989,-1.42185,-0.52195,-0.22949999999999998,0.0,0.4,0.0,0.0,-1.2,1.57,0.0,0.0
4480.0,0.0,0.0,0.0,-0.892,0.0,0.1976,-1.4203999999999999,-0.5288,-0.22799999999999998,0.0,0.4,0.0,0.0,-1.2,1.57,0.0,0.0
4490.0,0.0,0.0,0.0,-0.8835,0.0,0.1963,-1.41895,-0.53565,-0.22649999999999998,0.0,0.4,0.0,0.0,-1.2,1.57,0.0,0.0
4500.0,0.0,0.0,0.0,-0.875,0.0,0.195,-1.4175,-0.5425,-0.22499999999999998,0.0,0.4,0.0,0.0,-1.2,1.57,0.0,0.0
4510.0,0.0,0.0,0.0,-0.8665,0.0,0.19369999999999998,-1.41605,-0.54935,-0.22349999999999998,0.0,0.4,0.0,0.0,-1.2,1.57,0.0,0.0
4520.0,0.0,0.0,0.0,-0.858,0.0,0.19240000000000002,-1.4146,-0.5562,-0.22199999999999998,0.0,0.4,0.0,0.0,-1.2,1.57,0.0,0.0
4530.0,0.0,0.0,0.0,-0.8495,0.0,0.1911,-1.41315,-0.56305,-0.2205,0.0,0.4,0.0,0.0,-1.2,1.57,0.0,0.0
4540.0,0.0,0.0,0.0,-0.841,0.0,0.1898,-1.4117,-0.5699000000000001,-0.219,0.0,0.4,0.0,0.0,-1.2,1.57,0.0,0.0
4550.0,0.0,0.0,0.0,-0.8325,0.0,0.1885,-1.41025,-0.5767500000000001,-0.2175,0.0,0.4,0.0,0.0,-1.2,1.57,0.0,0.0
4560.0,0.0,0.0,0.0,-0.8240000000000001,0.0,0.1872,-1.4088,-0.5836000000000001,-0.216,0.0,0.4,0.0,0.0,-1.2,1.57,0.0,0.0
4570.0,0.0,0.0,0.0,-0.8155,0.0,0.1859,-1.4073499999999999,-0.59045,-0.2145,0.0,0.4,0.0,0.0,-1.2,1.57,0.0,0.0
4580.0,0.0,0.0,0.0,-0.8069999999999999,0.0,0.1846,-1.4059,-0.5973,-0.213,0.0,0.4,0.0,0.0,-1.2,1.57,0.0,0.0
4590.0,0.0,0.0,0.0,-0.7985,0.0,0.18330000000000002,-1.40445,-0.60415,-0.2115,0.0,0.4,0.0,0.0,-1.2,1.57,0.0,0.0
4600.0,0.0,0.0,0.0,-0.79,0.0,0.182,-1.403,-0.611,-0.21,0.0,0.4,0.0,0.0,-1.2,1.57,0.0,0.0
4610.0,0.0,0.0,0.0,-0.7815,0.0,0.1807,-1.40155,-0.61785,-0.2085,0.0,0.4,0.0,0.0,-1.2,1.57,0.0,0.0
4620.0,0.0,0.0,0.0,-0.773,0.0,0.1794,-1.4001,-0.6247,-0.20700000000000002,0.0,0.4,0.0,0.0,-1.2,1.57,0.0,0.0
4630.0,0.0,0.0,0.0,-0.7645,0.0,0.17809999999999998,-1.39865,-0.6315500000000001,-0.20550000000000002,0.0,0.4,0.0,0.0,-1.2,1.57,0.0,0.0
4640.0,0.0,0.0,0.0,-0.756,0.0,0.1768,-1.3972,-0.6384000000000001,-0.20400000000000001,0.0,0.4,0.0,0.0,-1.2,1.57,0.0,0.0
4650.0,0.0,0.0,0.0,-0.7475,0.0,0.1755,-1.39575,-0.6452500000000001,-0.2025,0.0,0.4,0.0,0.0,-1.2,1.57,0.0,0.0
4660.0,0.0,0.0,0.0,-0.739,0.0,0.1742,-1.3942999999999999,-0.6521000000000001,-0.201,0.0,0.4,0.0,0.0,-1.2,1.57,0.0,0.0
4670.0,0.0,0.0,0.0,-0.7305,0.0,0.1729,-1.39285,-0.65895,-0.1995,0.0,0.4,0.0,0.0,-1.2,1.57,0.0,0.0
4680.0,0.0,0.0,0.0,-0.722,0.0,0.1716,-1.3914,-0.6658000000000001,-0.198,0.0,0.4,0.0,0.0,-1.2,1.57,0.0,0.0
4690.0,0.0,0.0,0.0,-0.7135,0.0,0.1703,-1.38995,-0.6726500000000001,-0.1965,0.0,0.4,0.0,0.0,-1.2,1.57,0.0,0.0
4700.0,0.0,0.0,0.0,-0.705,0.0,0.16899999999999998,-1.3885,-0.6795,-0.195,0.0,0.4,0.0,0.0,-1.2,1.57,0.0,0.0
4710.0,0.0,0.0,0.0,-0.6965,0.0,0.16770000000000002,-1.38705,-0.68635,-0.1935,0.0,0.4,0.0,0.0,-1.2,1.57,0.0,0.0
4720.0,0.0,0.0,0.0,-0.688,0.0,0.1664,-1.3856,-0.6932,-0.192,0.0,0.4,0.0,0.0,-1.2,1.57,0.0,0.0
4730.0,0.0,0.0,0.0,-0.6795,0.0,0.1651,-1.38415,-0.7000500000000001,-0.1905,0.0,0.4,0.0,0.0,-1.2,1.57,0.0,0.0
4740.0,0.0,0.0,0.0,-0.671,0.0,0.1638,-1.3827,-0.7069000000000001,-0.189,0.0,0.4,0.0,0.0,-1.2,1.57,0.0,0.0
4750.0,0.0,0.0,0.0,-0.6625,0.0,0.16249999999999998,-1.3812499999999999,-0.7137500000000001,-0.1875,0.0,0.4,0.0,0.0,-1.2,1.57,0.0,0.0
4760.0,0.0,0.0,0.0,-0.654,0.0,0.1612,-1.3798,-0.7206000000000001,-0.186,0.0,0.4,0.0,0.0,-1.2,1.57,0.0,0.0
4770.0,0.0,0.0,0.0,-0.6455,0.0,0.1599,-1.37835,-0.7274500000000002,-0.1845,0.0,0.4,0.0,0.0,-1.2,1.57,0.0,0.0
4780.0,0.0,0.0,0.0,-0.637,0.0,0.1586,-1.3769,-0.7343,-0.183,0.0,0.4,0.0,0.0,-1.2,1.57,0.0,0.0
4790.0,0.0,0.0,0.0,-0.6285,0.0,0.1573,-1.37545,-0.74115,-0.1815,0.0,0.4,0.0,0.0,-1.2,1.57,0.0,0.0
4800.0,0.0,0.0,0.0,-0.62,0.0,0.156,-1.3739999999999999,-0.748,-0.18,0.0,0.4,0.0,0.0,-1.2,1.57,0.0,0.0
4810.0,0.0,0.0,0.0,-0.6115,0.0,0.1547,-1.37255,-0.75485,-0.1785,0.0,0.4,0.0,0.0,-1.2,1.57,0.0,0.0
4820.0,0.0,0.0,0.0,-0.603,0.0,0.15339999999999998,-1.3711,-0.7617,-0.177,0.0,0.4,0.0,0.0,-1.2,1.57,0.0,0.0
4830.0,0.0,0.0,0.0,-0.5945,0.0,0.1521,-1.36965,-0.7685500000000001,-0.1755,0.0,0.4,0.0,0.0,-1.2,1.57,0.0,0.0
4840.0,0.0,0.0,0.0,-0.586,0.0,0.1508,-1.3681999999999999,-0.7754000000000001,-0.174,0.0,0.4,0.0,0.0,-1.2,1.57,0.0,0.0
4850.0,0.0,0.0,0.0,-0.5775,0.0,0.1495,-1.36675,-0.7822500000000001,-0.1725,0.0,0.4,0.0,0.0,-1.2,1.57,0.0,0.0
4860.0,0.0,0.0,0.0,-0.569,0.0,0.1482,-1.3653,-0.7891000000000001,-0.171,0.0,0.4,0.0,0.0,-1.2,1.57,0.0,0.0
4870.0,0.0,0.0,0.0,-0.5605,0.0,0.14689999999999998,-1.36385,-0.7959500000000002,-0.1695,0.0,0.4,0.0,0.0,-1.2,1.57,0.0,0.0
4880.0,0.0,0.0,0.0,-0.552,0.0,0.1456,-1.3624,-0.8028,-0.168,0.0,0.4,0.0,0.0,-1.2,1.57,0.0,0.0
4890.0,0.0,0.0,0.0,-0.5435,0.0,0.14429999999999998,-1.3609499999999999,-0.80965,-0.1665,0.0,0.4,0.0,0.0,-1.2,1.57,0.0,0.0
4900.0,0.0,0.0,0.0,-0.535,0.0,0.143,-1.3595,-0.8165,-0.165,0.0,0.4,0.0,0.0,-1.2,1.57,0.0,0.0
4910.0,0.0,0.0,0.0,-0.5265,0.0,0.1417,-1.35805,-0.82335,-0.1635,0.0,0.4,0.0,0.0,-1.2,1.57,0.0,0.0
4920.0,0.0,0.0,0.0,-0.518,0.0,0.1404,-1.3566,-0.8302,-0.162,0.0,0.4,0.0,0.0,-1.2,1.57,0.0,0.0
4930.0,0.0,0.0,0.0,-0.5095,0.0,0.1391,-1.35515,-0.8370500000000001,-0.1605,0.0,0.4,0.0,0.0,-1.2,1.57,0.0,0.0
4940.0,0.0,0.0,0.0,-0.501,0.0,0.13779999999999998,-1.3537,-0.8439000000000001,-0.159,0.0,0.4,0.0,0.0,-1.2,1.57,0.0,0.0
4950.0,0.0,0.0,0.0,-0.49249999999999994,0.0,0.1365,-1.35225,-0.8507500000000001,-0.1575,0.0,0.4,0.0,0.0,-1.2,1.57,0.0,0.0
4960.0,0.0,0.0,0.0,-0.484,0.0,0.1352,-1.3508,-0.8576000000000001,-0.156,0.0,0.4,0.0,0.0,-1.2,1.57,0.0,0.0
4970.0,0.0,0.0,0.0,-0.47550000000000003,0.0,0.1339,-1.34935,-0.8644500000000002,-0.1545,0.0,0.4,0.0,0.0,-1.2,1.57,0.0,0.0
4980.0,0.0,0.0,0.0,-0.46699999999999997,0.0,0.1326,-1.3478999999999999,-0.8713,-0.153,0.0,0.4,0.0,0.0,-1.2,1.57,0.0,0.0
4990.0,0.0,0.0,0.0,-0.4585,0.0,0.1313,-1.34645,-0.87815,-0.1515,0.0,0.4,0.0,0.0,-1.2,1.57,0.0,0.0
5000.0,0.0,0.0,0.0,-0.44999999999999996,0.0,0.13,-1.345,-0.885,-0.15,0.0,0.4,0.0,0.0,-1.2,1.57,0.0,0.0
5010.0,0.0,0.0,0.0,-0.4415,0.0,0.12869999999999998,-1.34355,-0.89185,-0.1485,0.0,0.4,0.0,0.0,-1.2,1.57,0.0,0.0
5020.0,0.0,0.0,0.0,-0.43299999999999994,0.0,0.12739999999999999,-1.3420999999999998,-0.8987,-0.147,0.0,0.4,0.0,0.0,-1.2,1.57,0.0,0.0
5030.0,0.0,0.0,0.0,-0.4245,0.0,0.1261,-1.34065,-0.9055500000000001,-0.1455,0.0,0.4,0.0,0.0,-1.2,1.57,0.0,0.0
5040.0,0.0,0.0,0.0,-0.4159999999999999,0.0,0.1248,-1.3392,-0.9124000000000001,-0.144,0.0,0.4,0.0,0.0,-1.2,1.57,0.0,0.0
5050.0,0.0,0.0,0.0,-0.4075,0.0,0.1235,-1.33775,-0.9192500000000001,-0.14250000000000002,0.0,0.4,0.0,0.0,-1.2,1.57,0.0,0.0
5060.0,0.0,0.0,0.0,-0.399,0.0,0.1222,-1.3363,-0.9261000000000001,-0.14100000000000001,0.0,0.4,0.0,0.0,-1.2,1.57,0.0,0.0
5070.0,0.0,0.0,0.0,-0.39049999999999996,0.0,0.12089999999999998,-1.3348499999999999,-0.9329500000000002,-0.1395,0.0,0.4,0.0,0.0,-1.2,1.57,0.0,0.0
5080.0,0.0,0.0,0.0,-0.382,0.0,0.11959999999999998,-1.3334,-0.9398,-0.138,0.0,0.4,0.0,0.0,-1.2,1.57,0.0,0.0
5090.0,0.0,0.0,0.0,-0.37349999999999994,0.0,0.11829999999999999,-1.33195,-0.94665,-0.1365,0.0,0.4,0.0,0.0,-1.2,1.57,0.0,0.0
5100.0,0.0,0.0,0.0,-0.365,0.0,0.11699999999999999,-1.3305,-0.9535,-0.135,0.0,0.4,0.0,0.0,-1.2,1.57,0.0,0.0
5110.0,0.0,0.0,0.0,-0.35649999999999993,0.0,0.1157,-1.32905,-0.96035,-0.1335,0.0,0.4,0.0,0.0,-1.2,1.57,0.0,0.0
5120.0,0.0,0.0,0.0,-0.348,0.0,0.1144,-1.3276,-0.9672000000000001,-0.132,0.0,0.4,0.0,0.0,-1.2,1.57,0.0,0.0
5130.0,0.0,0.0,0.0,-0.3395,0.0,0.11309999999999998,-1.32615,-0.9740500000000001,-0.1305,0.0,0.4,0.0,0.0,-1.2,1.57,0.0,0.0
5140.0,0.0,0.0,0.0,-0.33099999999999996,0.0,0.11179999999999998,-1.3247,-0.9809000000000001,-0.129,0.0,0.4,0.0,0.0,-1.2,1.57,0.0,0.0
5150.0,0.0,0.0,0.0,-0.3225,0.0,0.11049999999999999,-1.32325,-0.9877500000000001,-0.1275,0.0,0.4,0.0,0.0,-1.2,1.57,0.0,0.0
5160.0,0.0,0.0,0.0,-0.31399999999999995,0.0,0.10919999999999999,-1.3217999999999999,-0.9946000000000002,-0.126,0.0,0.4,0.0,0.0,-1.2,1.57,0.0,0.0
5170.0,0.0,0.0,0.0,-0.3055,0.0,0.1079,-1.32035,-1.0014500000000002,-0.1245,0.0,0.4,0.0,0.0,-1.2,1.57,0.0,0.0
5180.0,0.0,0.0,0.0,-0.29699999999999993,0.0,0.1066,-1.3189,-1.0083,-0.123,0.0,0.4,0.0,0.0,-1.2,1.57,0.0,0.0
5190.0,0.0,0.0,0.0,-0.2885,0.0,0.10529999999999998,-1.31745,-1.01515,-0.1215,0.0,0.4,0.0,0.0,-1.2,1.57,0.0,0.0
5200.0,0.0,0.0,0.0,-0.28,0.0,0.10399999999999998,-1.3159999999999998,-1.022,-0.12,0.0,0.4,0.0,0.0,-1.2,1.57,0.0,0.0
5210.0,0.0,0.0,0.0,-0.2715000000000001,0.0,0.10269999999999999,-1.3145499999999999,-1.02885,-0.1185,0.0,0.4,0.0,0.0,-1.2,1.57,0.0,0.0
5220.0,0.0,0.0,0.0,-0.2629999999999999,0.0,0.10139999999999999,-1.3131,-1.0357,-0.11699999999999999,0.0,0.4,0.0,0.0,-1.2,1.57,0.0,0.0
5230.0,0.0,0.0,0.0,-0.25449999999999995,0.0,0.1001,-1.31165,-1.04255,-0.11549999999999999,0.0,0.4,0.0,0.0,-1.2,1.57,0.0,0.0
5240.0,0.0,0.0,0.0,-0.246,0.0,0.0988,-1.3102,-1.0494,-0.11400000000000002,0.0,0.4,0.0,0.0,-1.2,1.57,0.0,0.0
5250.0,0.0,0.0,0.0,-0.23750000000000004,0.0,0.09749999999999998,-1.3087499999999999,-1.0562500000000001,-0.11250000000000002,0.0,0.4,0.0,0.0,-1.2,1.57,0.0,0.0
5260.0,0.0,0.0,0.0,-0.22899999999999987,0.0,0.09619999999999998,-1.3073,-1.0631000000000002,-0.11100000000000002,0.0,0.4,0.0,0.0,-1.2,1.57,0.0,0.0
5270.0,0.0,0.0,0.0,-0.22049999999999992,0.0,0.09489999999999998,-1.30585,-1.0699500000000002,-0.10950000000000001,0.0,0.4,0.0,0.0,-1.2,1.57,0.0,0.0
5280.0,0.0,0.0,0.0,-0.21199999999999997,0.0,0.09359999999999999,-1.3044,-1.0768,-0.10800000000000001,0.0,0.4,0.0,0.0,-1.2,1.57,0.0,0.0
5290.0,0.0,0.0,0.0,-0.20350000000000001,0.0,0.0923,-1.30295,-1.08365,-0.10650000000000001,0.0,0.4,0.0,0.0,-1.2,1.57,0.0,0.0
5300.0,0.0,0.0,0.0,-0.19500000000000006,0.0,0.091,-1.3014999999999999,-1.0905,-0.10500000000000001,0.0,0.4,0.0,0.0,-1.2,1.57,0.0,0.0
5310.0,0.0,0.0,0.0,-0.1864999999999999,0.0,0.0897,-1.30005,-1.09735,-0.10350000000000001,0.0,0.4,0.0,0.0,-1.2,1.57,0.0,0.0
5320.0,0.0,0.0,0.0,-0.17799999999999994,0.0,0.08839999999999998,-1.2986,-1.1042,-0.10200000000000001,0.0,0.4,0.0,0.0,-1.2,1.57,0.0,0.0
5330.0,0.0,0.0,0.0,-0.16949999999999998,0.0,0.08709999999999998,-1.29715,-1.11105,-0.1005,0.0,0.4,0.0,0.0,-1.2,1.57,0.0,0.0
5340.0,0.0,0.0,0.0,-0.16100000000000003,0.0,0.08579999999999999,-1.2957,-1.1179000000000001,-0.099,0.0,0.4,0.0,0.0,-1.2,1.57,0.0,0.0
5350.0,0.0,0.0,0.0,-0.15249999999999986,0.0,0.08449999999999999,-1.29425,-1.1247500000000001,-0.0975,0.0,0.4,0.0,0.0,-1.2,1.57,0.0,0.0
5360.0,0.0,0.0,0.0,-0.1439999999999999,0.0,0.0832,-1.2928,-1.1316000000000002,-0.096,0.0,0.4,0.0,0.0,-1.2,1.57,0.0,0.0
5370.0,0.0,0.0,0.0,-0.13549999999999995,0.0,0.0819,-1.29135,-1.1384500000000002,-0.0945,0.0,0.4,0.0,0.0,-1.2,1.57,0.0,0.0
5380.0,0.0,0.0,0.0,-0.127,0.0,0.08059999999999998,-1.2899,-1.1453000000000002,-0.093,0.0,0.4,0.0,0.0,-1.2,1.57,0.0,0.0
5390.0,0.0,0.0,0.0,-0.11850000000000005,0.0,0.07929999999999998,-1.2884499999999999,-1.15215,-0.0915,0.0,0.4,0.0,0.0,-1.2,1.57,0.0,0.0
5400.0,0.0,0.0,0.0,-0.10999999999999988,0.0,0.07799999999999999,-1.287,-1.159,-0.09,0.0,0.4,0.0,0.0,-1.2,1.57,0.0,0.0
5410.0,0.0,0.0,0.0,-0.10149999999999992,0.0,0.07669999999999999,-1.28555,-1.16585,-0.0885,0.0,0.4,0.0,0.0,-1.2,1.57,0.0,0.0
5420.0,0.0,0.0,0.0,-0.09299999999999997,0.0,0.0754,-1.2841,-1.1727,-0.087,0.0,0.4,0.0,0.0,-1.2,1.57,0.0,0.0
5430.0,0.0,0.0,0.0,-0.08450000000000002,0.0,0.0741,-1.2826499999999998,-1.17955,-0.08550000000000002,0.0,0.4,0.0,0.0,-1.2,1.57,0.0,0.0
5440.0,0.0,0.0,0.0,-0.07599999999999985,0.0,0.07279999999999998,-1.2812,-1.1864000000000001,-0.08400000000000002,0.0,0.4,0.0,0.0,-1.2,1.57,0.0,0.0
5450.0,0.0,0.0,0.0,-0.0674999999999999,0.0,0.07149999999999998,-1.27975,-1.1932500000000001,-0.08250000000000002,0.0,0.4,0.0,0.0,-1.2,1.57,0.0,0.0
5460.0,0.0,0.0,0.0,-0.05899999999999994,0.0,0.07019999999999998,-1.2783,-1.2001,-0.08100000000000002,0.0,0.4,0.0,0.0,-1.2,1.57,0.0,0.0
5470.0,0.0,0.0,0.0,-0.05049999999999999,0.0,0.06889999999999999,-1.27685,-1.20695,-0.07950000000000002,0.0,0.4,0.0,0.0,-1.2,1.57,0.0,0.0
5480.0,0.0,0.0,0.0,-0.04200000000000004,0.0,0.0676,-1.2753999999999999,-1.2138,-0.07800000000000001,0.0,0.4,0.0,0.0,-1.2,1.57,0.0,0.0
5490.0,0.0,0.0,0.0,-0.03349999999999986,0.0,0.0663,-1.27395,-1.22065,-0.07650000000000001,0.0,0.4,0.0,0.0,-1.2,1.57,0.0,0.0
5500.0,0.0,0.0,0.0,-0.02499999999999991,0.0,0.06499999999999997,-1.2725,-1.2275,-0.07500000000000001,0.0,0.4,0.0,0.0,-1.2,1.57,0.0,0.0
5510.0,0.0,0.0,0.0,-0.01649999999999996,0.0,0.06369999999999998,-1.27105,-1.23435,-0.07350000000000001,0.0,0.4,0.0,0.0,-1.2,1.57,0.0,0.0
5520.0,0.0,0.0,0.0,-0.008000000000000007,0.0,0.06239999999999998,-1.2696,-1.2412,-0.07200000000000001,0.0,0.4,0.0,0.0,-1.2,1.57,0.0,0.0
5530.0,0.0,0.0,0.0,0.0004999999999999449,0.0,0.06109999999999999,-1.2681499999999999,-1.24805,-0.07050000000000001,0.0,0.4,0.0,0.0,-1.2,1.57,0.0,0.0
5540.0,0.0,0.0,0.0,0.009000000000000119,0.0,0.05979999999999999,-1.2667,-1.2549000000000001,-0.069,0.0,0.4,0.0,0.0,-1.2,1.57,0.0,0.0
5550.0,0.0,0.0,0.0,0.01750000000000007,0.0,0.058499999999999996,-1.26525,-1.2617500000000001,-0.0675,0.0,0.4,0.0,0.0,-1.2,1.57,0.0,0.0
5560.0,0.0,0.0,0.0,0.026000000000000023,0.0,0.05719999999999997,-1.2638,-1.2686,-0.066,0.0,0.4,0.0,0.0,-1.2,1.57,0.0,0.0
5570.0,0.0,0.0,0.0,0.034499999999999975,0.0,0.05589999999999998,-1.2623499999999999,-1.27545,-0.0645,0.0,0.4,0.0,0.0,-1.2,1.57,0.0,0.0
5580.0,0.0,0.0,0.0,0.04300000000000015,0.0,0.05459999999999998,-1.2609,-1.2823,-0.063,0.0,0.4,0.0,0.0,-1.2,1.57,0.0,0.0
5590.0,0.0,0.0,0.0,0.0515000000000001,0.0,0.053299999999999986,-1.25945,-1.28915,-0.0615,0.0,0.4,0.0,0.0,-1.2,1.57,0.0,0.0
5600.0,0.0,0.0,0.0,0.06000000000000005,0.0,0.05199999999999999,-1.258,-1.296,-0.06,0.0,0.4,0.0,0.0,-1.2,1.57,0.0,0.0
5610.0,0.0,0.0,0.0,0.0685,0.0,0.050699999999999995,-1.2565499999999998,-1.30285,-0.058499999999999996,0.0,0.4,0.0,0.0,-1.2,1.57,0.0,0.0
5620.0,0.0,0.0,0.0,0.07699999999999996,0.0,0.04939999999999997,-1.2550999999999999,-1.3097,-0.05700000000000002,0.0,0.4,0.0,0.0,-1.2,1.57,0.0,0.0
5630.0,0.0,0.0,0.0,0.08550000000000013,0.0,0.048099999999999976,-1.25365,-1.31655,-0.05550000000000002,0.0,0.4,0.0,0.0,-1.2,1.57,0.0,0.0
5640.0,0.0,0.0,0.0,0.09400000000000008,0.0,0.04679999999999998,-1.2522,-1.3234000000000001,-0.05400000000000002,0.0,0.4,0.0,0.0,-1.2,1.57,0.0,0.0
5650.0,0.0,0.0,0.0,0.10250000000000004,0.0,0.045499999999999985,-1.25075,-1.3302500000000002,-0.05250000000000002,0.0,0.4,0.0,0.0,-1.2,1.57,0.0,0.0
5660.0,0.0,0.0,0.0,0.11099999999999999,0.0,0.04419999999999999,-1.2492999999999999,-1.3371,-0.05100000000000002,0.0,0.4,0.0,0.0,-1.2,1.57,0.0,0.0
5670.0,0.0,0.0,0.0,0.11950000000000016,0.0,0.042899999999999994,-1.24785,-1.34395,-0.04949999999999999,0.0,0.4,0.0,0.0,-1.2,1.57,0.0,0.0
5680.0,0.0,0.0,0.0,0.1280000000000001,0.0,0.04159999999999997,-1.2464,-1.3508,-0.04799999999999999,0.0,0.4,0.0,0.0,-1.2,1.57,0.0,0.0
5690.0,0.0,0.0,0.0,0.13650000000000007,0.0,0.040299999999999975,-1.24495,-1.35765,-0.046499999999999986,0.0,0.4,0.0,0.0,-1.2,1.57,0.0,0.0
5700.0,0.0,0.0,0.0,0.14500000000000002,0.0,0.03899999999999998,-1.2435,-1.3645,-0.044999999999999984,0.0,0.4,0.0,0.0,-1.2,1.57,0.0,0.0
5710.0,0.0,0.0,0.0,0.15349999999999997,0.0,0.037699999999999984,-1.2420499999999999,-1.37135,-0.04350000000000004,0.0,0.4,0.0,0.0,-1.2,1.57,0.0,0.0
5720.0,0.0,0.0,0.0,0.16200000000000014,0.0,0.03639999999999999,-1.2406,-1.3782,-0.04200000000000004,0.0,0.4,0.0,0.0,-1.2,1.57,0.0,0.0
5730.0,0.0,0.0,0.0,0.1705000000000001,0.0,0.03509999999999999,-1.23915,-1.3850500000000001,-0.040500000000000036,0.0,0.4,0.0,0.0,-1.2,1.57,0.0,0.0
5740.0,0.0,0.0,0.0,0.17900000000000005,0.0,0.03379999999999997,-1.2377,-1.3919000000000001,-0.039000000000000035,0.0,0.4,0.0,0.0,-1.2,1.57,0.0,0.0
5750.0,0.0,0.0,0.0,0.1875,0.0,0.03249999999999997,-1.23625,-1.3987500000000002,-0.03750000000000003,0.0,0.4,0.0,0.0,-1.2,1.57,0.0,0.0
5760.0,0.0,0.0,0.0,0.19599999999999995,0.0,0.031199999999999978,-1.2348,-1.4056,-0.03600000000000003,0.0,0.4,0.0,0.0,-1.2,1.57,0.0,0.0
5770.0,0.0,0.0,0.0,0.20450000000000013,0.0,0.029899999999999982,-1.23335,-1.41245,-0.03450000000000003,0.0,0.4,0.0,0.0,-1.2,1.57,0.0,0.0
5780.0,0.0,0.0,0.0,0.21300000000000008,0.0,0.028599999999999987,-1.2319,-1.4193,-0.03300000000000003,0.0,0.4,0.0,0.0,-1.2,1.57,0.0,0.0
5790.0,0.0,0.0,0.0,0.22150000000000003,0.0,0.02729999999999999,-1.2304499999999998,-1.42615,-0.03150000000000003,0.0,0.4,0.0,0.0,-1.2,1.57,0.0,0.0
5800.0,0.0,0.0,0.0,0.22999999999999998,0.0,0.025999999999999968,-1.2289999999999999,-1.433,-0.030000000000000027,0.0,0.4,0.0,0.0,-1.2,1.57,0.0,0.0
5810.0,0.0,0.0,0.0,0.23850000000000016,0.0,0.024699999999999972,-1.22755,-1.43985,-0.028500000000000025,0.0,0.4,0.0,0.0,-1.2,1.57,0.0,0.0
5820.0,0.0,0.0,0.0,0.2470000000000001,0.0,0.023399999999999976,-1.2261,-1.4467,-0.027000000000000024,0.0,0.4,0.0,0.0,-1.2,1.57,0.0,0.0
5830.0,0.0,0.0,0.0,0.25550000000000006,0.0,0.02209999999999998,-1.22465,-1.4535500000000001,-0.025500000000000023,0.0,0.4,0.0,0.0,-1.2,1.57,0.0,0.0
5840.0,0.0,0.0,0.0,0.264,0.0,0.020799999999999985,-1.2231999999999998,-1.4604000000000001,-0.02400000000000002,0.0,0.4,0.0,0.0,-1.2,1.57,0.0,0.0
5850.0,0.0,0.0,0.0,0.27249999999999996,0.0,0.01949999999999999,-1.22175,-1.4672500000000002,-0.02250000000000002,0.0,0.4,0.0,0.0,-1.2,1.57,0.0,0.0
5860.0,0.0,0.0,0.0,0.28100000000000014,0.0,0.018199999999999966,-1.2203,-1.4741,-0.02100000000000002,0.0,0.4,0.0,0.0,-1.2,1.57,0.0,0.0
5870.0,0.0,0.0,0.0,0.2895000000000001,0.0,0.01689999999999997,-1.21885,-1.48095,-0.019500000000000017,0.0,0.4,0.0,0.0,-1.2,1.57,0.0,0.0
5880.0,0.0,0.0,0.0,0.29800000000000004,0.0,0.015599999999999975,-1.2174,-1.4878,-0.018000000000000016,0.0,0.4,0.0,0.0,-1.2,1.57,0.0,0.0
5890.0,0.0,0.0,0.0,0.3065,0.0,0.01429999999999998,-1.2159499999999999,-1.49465,-0.016500000000000015,0.0,0.4,0.0,0.0,-1.2,1.57,0.0,0.0
5900.0,0.0,0.0,0.0,0.31500000000000017,0.0,0.012999999999999984,-1.2145,-1.5015,-0.015000000000000013,0.0,0.4,0.0,0.0,-1.2,1.57,0.0,0.0
5910.0,0.0,0.0,0.0,0.3235000000000001,0.0,0.011699999999999988,-1.21305,-1.50835,-0.013500000000000012,0.0,0.4,0.0,0.0,-1.2,1.57,0.0,0.0
5920.0,0.0,0.0,0.0,0.3320000000000001,0.0,0.010399999999999965,-1.2116,-1.5152,-0.01200000000000001,0.0,0.4,0.0,0.0,-1.2,1.57,0.0,0.0
5930.0,0.0,0.0,0.0,0.3405,0.0,0.009099999999999997,-1.21015,-1.5220500000000001,-0.01050000000000001,0.0,0.4,0.0,0.0,-1.2,1.57,0.0,0.0
5940.0,0.0,0.0,0.0,0.349,0.0,0.007799999999999974,-1.2086999999999999,-1.5289000000000001,-0.009000000000000008,0.0,0.4,0.0,0.0,-1.2,1.57,0.0,0.0
5950.0,0.0,0.0,0.0,0.35750000000000015,0.0,0.006500000000000006,-1.20725,-1.5357500000000002,-0.007500000000000007,0.0,0.4,0.0,0.0,-1.2,1.57,0.0,0.0
5960.0,0.0,0.0,0.0,0.3660000000000001,0.0,0.005199999999999982,-1.2058,-1.5426,-0.006000000000000005,0.0,0.4,0.0,0.0,-1.2,1.57,0.0,0.0
5970.0,0.0,0.0,0.0,0.37450000000000006,0.0,0.003899999999999959,-1.2043499999999998,-1.54945,-0.004500000000000004,0.0,0.4,0.0,0.0,-1.2,1.57,0.0,0.0
5980.0,0.0,0.0,0.0,0.383,0.0,0.002599999999999991,-1.2028999999999999,-1.5563,-0.0030000000000000027,0.0,0.4,0.0,0.0,-1.2,1.57,0.0,0.0
5990.0,0.0,0.0,0.0,0.3915000000000002,0.0,0.0012999999999999678,-1.20145,-1.56315,-0.0015000000000000013,0.0,0.4,0.0,0.0,-1.2,1.57,0.0,0.0
6000.0,0.0,0.0,0.0,0.4,0.0,0.0,-1.2,-1.57,0.0,0.0,0.4,0.0,0.0,-1.2,1.57,0.0,0.0
