jplin123/TWIST/assets/upper_body_csv/SM_left_like.csv
timeCNT,planningAngle::waist_yaw_joint,planningAngle::waist_pitch_joint,planningAngle::waist_roll_joint,planningAngle::left_shoulder_pitch_joint,planningAngle::left_shoulder_roll_joint,planningAngle::left_shoulder_yaw_joint,planningAngle::left_elbow_joint,planningAngle::left_wrist_yaw_joint,planningAngle::left_wrist_pitch_joint,planningAngle::left_wrist_roll_joint,planningAngle::right_shoulder_pitch_joint,planningAngle::right_shoulder_roll_joint,planningAngle::right_shoulder_yaw_joint,planningAngle::right_elbow_joint,planningAngle::right_wrist_yaw_joint,planningAngle::right_wrist_pitch_joint,planningAngle::right_wrist_roll_joint
0.0,0.0,0.0,0.0,0.4,0.0,0.0,-1.2,-1.57,0.0,0.0,0.4,0.0,0.0,-1.2,1.57,0.0,0.0
10.0,0.0,0.0,0.0,0.39113333333333333,0.0,0.0,-1.2015333333333333,-1.57,0.0,0.0,0.4,0.0,0.0,-1.2,1.57,0.0,0.0
20.0,0.0,0.0,0.0,0.3822666666666667,0.0,0.0,-1.2030666666666667,-1.57,0.0,0.0,0.4,0.0,0.0,-1.2,1.57,0.0,0.0
30.0,0.0,0.0,0.0,0.3734,0.0,0.0,-1.2046,-1.57,0.0,0.0,0.4,0.0,0.0,-1.2,1.57,0.0,0.0
40.0,0.0,0.0,0.0,0.3645333333333334,0.0,0.0,-1.2061333333333333,-1.57,0.0,0.0,0.4,0.0,0.0,-1.2,1.57,0.0,0.0
50.0,0.0,0.0,0.0,0.3556666666666667,0.0,0.0,-1.2076666666666667,-1.57,0.0,0.0,0.4,0.0,0.0,-1.2,1.57,0.0,0.0
60.0,0.0,0.0,0.0,0.3468,0.0,0.0,-1.2092,-1.57,0.0,0.0,0.4,0.0,0.0,-1.2,1.57,0.0,0.0
70.0,0.0,0.0,0.0,0.33793333333333336,0.0,0.0,-1.2107333333333332,-1.57,0.0,0.0,0.4,0.0,0.0,-1.2,1.57,0.0,0.0
80.0,0.0,0.0,0.0,0.3290666666666667,0.0,0.0,-1.2122666666666666,-1.57,0.0,0.0,0.4,0.0,0.0,-1.2,1.57,0.0,0.0
90.0,0.0,0.0,0.0,0.32020000000000004,0.0,0.0,-1.2138,-1.57,0.0,0.0,0.4,0.0,0.0,-1.2,1.57,0.0,0.0
100.0,0.0,0.0,0.0,0.31133333333333335,0.0,0.0,-1.2153333333333334,-1.57,0.0,0.0,0.4,0.0,0.0,-1.2,1.57,0.0,0.0
110.0,0.0,0.0,0.0,0.30246666666666666,0.0,0.0,-1.2168666666666665,-1.57,0.0,0.0,0.4,0.0,0.0,-1.2,1.57,0.0,0.0
120.0,0.0,0.0,0.0,0.2936,0.0,0.0,-1.2184,-1.57,0.0,0.0,0.4,0.0,0.0,-1.2,1.57,0.0,0.0
130.0,0.0,0.0,0.0,0.28473333333333334,0.0,0.0,-1.2199333333333333,-1.57,0.0,0.0,0.4,0.0,0.0,-1.2,1.57,0.0,0.0
140.0,0.0,0.0,0.0,0.2758666666666667,0.0,0.0,-1.2214666666666667,-1.57,0.0,0.0,0.4,0.0,0.0,-1.2,1.57,0.0,0.0
150.0,0.0,0.0,0.0,0.267,0.0,0.0,-1.2229999999999999,-1.57,0.0,0.0,0.4,0.0,0.0,-1.2,1.57,0.0,0.0
160.0,0.0,0.0,0.0,0.2581333333333333,0.0,0.0,-1.2245333333333333,-1.57,0.0,0.0,0.4,0.0,0.0,-1.2,1.57,0.0,0.0
170.0,0.0,0.0,0.0,0.2492666666666667,0.0,0.0,-1.2260666666666666,-1.57,0.0,0.0,0.4,0.0,0.0,-1.2,1.57,0.0,0.0
180.0,0.0,0.0,0.0,0.24040000000000003,0.0,0.0,-1.2276,-1.57,0.0,0.0,0.4,0.0,0.0,-1.2,1.57,0.0,0.0
190.0,0.0,0.0,0.0,0.23153333333333334,0.0,0.0,-1.2291333333333332,-1.57,0.0,0.0,0.4,0.0,0.0,-1.2,1.57,0.0,0.0
200.0,0.0,0.0,0.0,0.22266666666666668,0.0,0.0,-1.2306666666666666,-1.57,0.0,0.0,0.4,0.0,0.0,-1.2,1.57,0.0,0.0
210.0,0.0,0.0,0.0,0.21380000000000002,0.0,0.0,-1.2322,-1.57,0.0,0.0,0.4,0.0,0.0,-1.2,1.57,0.0,0.0
220.0,0.0,0.0,0.0,0.20493333333333336,0.0,0.0,-1.2337333333333333,-1.57,0.0,0.0,0.4,0.0,0.0,-1.2,1.57,0.0,0.0
230.0,0.0,0.0,0.0,0.1960666666666667,0.0,0.0,-1.2352666666666665,-1.57,0.0,0.0,0.4,0.0,0.0,-1.2,1.57,0.0,0.0
240.0,0.0,0.0,0.0,0.18720000000000003,0.0,0.0,-1.2368,-1.57,0.0,0.0,0.4,0.0,0.0,-1.2,1.57,0.0,0.0
250.0,0.0,0.0,0.0,0.17833333333333334,0.0,0.0,-1.2383333333333333,-1.57,0.0,0.0,0.4,0.0,0.0,-1.2,1.57,0.0,0.0
260.0,0.0,0.0,0.0,0.16946666666666668,0.0,0.0,-1.2398666666666667,-1.57,0.0,0.0,0.4,0.0,0.0,-1.2,1.57,0.0,0.0
270.0,0.0,0.0,0.0,0.16060000000000002,0.0,0.0,-1.2414,-1.57,0.0,0.0,0.4,0.0,0.0,-1.2,1.57,0.0,0.0
280.0,0.0,0.0,0.0,0.15173333333333336,0.0,0.0,-1.2429333333333332,-1.57,0.0,0.0,0.4,0.0,0.0,-1.2,1.57,0.0,0.0
290.0,0.0,0.0,0.0,0.1428666666666667,0.0,0.0,-1.2444666666666666,-1.57,0.0,0.0,0.4,0.0,0.0,-1.2,1.57,0.0,0.0
300.0,0.0,0.0,0.0,0.134,0.0,0.0,-1.246,-1.57,0.0,0.0,0.4,0.0,0.0,-1.2,1.57,0.0,0.0
310.0,0.0,0.0,0.0,0.12513333333333337,0.0,0.0,-1.2475333333333334,-1.57,0.0,0.0,0.4,0.0,0.0,-1.2,1.57,0.0,0.0
320.0,0.0,0.0,0.0,0.11626666666666668,0.0,0.0,-1.2490666666666665,-1.57,0.0,0.0,0.4,0.0,0.0,-1.2,1.57,0.0,0.0
330.0,0.0,0.0,0.0,0.1074,0.0,0.0,-1.2506,-1.57,0.0,0.0,0.4,0.0,0.0,-1.2,1.57,0.0,0.0
340.0,0.0,0.0,0.0,0.09853333333333336,0.0,0.0,-1.2521333333333333,-1.57,0.0,0.0,0.4,0.0,0.0,-1.2,1.57,0.0,0.0
350.0,0.0,0.0,0.0,0.08966666666666667,0.0,0.0,-1.2536666666666667,-1.57,0.0,0.0,0.4,0.0,0.0,-1.2,1.57,0.0,0.0
360.0,0.0,0.0,0.0,0.08080000000000004,0.0,0.0,-1.2551999999999999,-1.57,0.0,0.0,0.4,0.0,0.0,-1.2,1.57,0.0,0.0
370.0,0.0,0.0,0.0,0.07193333333333335,0.0,0.0,-1.2567333333333333,-1.57,0.0,0.0,0.4,0.0,0.0,-1.2,1.57,0.0,0.0
380.0,0.0,0.0,0.0,0.06306666666666666,0.0,0.0,-1.2582666666666666,-1.57,0.0,0.0,0.4,0.0,0.0,-1.2,1.57,0.0,0.0
390.0,0.0,0.0,0.0,0.054200000000000026,0.0,0.0,-1.2598,-1.57,0.0,0.0,0.4,0.0,0.0,-1.2,1.57,0.0,0.0
400.0,0.0,0.0,0.0,0.04533333333333334,0.0,0.0,-1.2613333333333332,-1.57,0.0,0.0,0.4,0.0,0.0,-1.2,1.57,0.0,0.0
410.0,0.0,0.0,0.0,0.0364666666666667,0.0,0.0,-1.2628666666666666,-1.57,0.0,0.0,0.4,0.0,0.0,-1.2,1.57,0.0,0.0
420.0,0.0,0.0,0.0,0.027600000000000013,0.0,0.0,-1.2644,-1.57,0.0,0.0,0.4,0.0,0.0,-1.2,1.57,0.0,0.0
430.0,0.0,0.0,0.0,0.018733333333333324,0.0,0.0,-1.2659333333333334,-1.57,0.0,0.0,0.4,0.0,0.0,-1.2,1.57,0.0,0.0
440.0,0.0,0.0,0.0,0.00986666666666669,0.0,0.0,-1.2674666666666665,-1.57,0.0,0.0,0.4,0.0,0.0,-1.2,1.57,0.0,0.0
450.0,0.0,0.0,0.0,0.0010000000000000009,0.0,0.0,-1.269,-1.57,0.0,0.0,0.4,0.0,0.0,-1.2,1.57,0.0,0.0
460.0,0.0,0.0,0.0,-0.007866666666666633,0.0,0.0,-1.2705333333333333,-1.57,0.0,0.0,0.4,0.0,0.0,-1.2,1.57,0.0,0.0
470.0,0.0,0.0,0.0,-0.016733333333333322,0.0,0.0,-1.2720666666666667,-1.57,0.0,0.0,0.4,0.0,0.0,-1.2,1.57,0.0,0.0
480.0,0.0,0.0,0.0,-0.025599999999999956,0.0,0.0,-1.2735999999999998,-1.57,0.0,0.0,0.4,0.0,0.0,-1.2,1.57,0.0,0.0
490.0,0.0,0.0,0.0,-0.034466666666666645,0.0,0.0,-1.2751333333333332,-1.57,0.0,0.0,0.4,0.0,0.0,-1.2,1.57,0.0,0.0
500.0,0.0,0.0,0.0,-0.043333333333333335,0.0,0.0,-1.2766666666666666,-1.57,0.0,0.0,0.4,0.0,0.0,-1.2,1.57,0.0,0.0
510.0,0.0,0.0,0.0,-0.05219999999999997,0.0,0.0,-1.2782,-1.57,0.0,0.0,0.4,0.0,0.0,-1.2,1.57,0.0,0.0
520.0,0.0,0.0,0.0,-0.06106666666666666,0.0,0.0,-1.2797333333333332,-1.57,0.0,0.0,0.4,0.0,0.0,-1.2,1.57,0.0,0.0
530.0,0.0,0.0,0.0,-0.06993333333333329,0.0,0.0,-1.2812666666666666,-1.57,0.0,0.0,0.4,0.0,0.0,-1.2,1.57,0.0,0.0
540.0,0.0,0.0,0.0,-0.07879999999999998,0.0,0.0,-1.2828,-1.57,0.0,0.0,0.4,0.0,0.0,-1.2,1.57,0.0,0.0
550.0,0.0,0.0,0.0,-0.08766666666666667,0.0,0.0,-1.2843333333333333,-1.57,0.0,0.0,0.4,0.0,0.0,-1.2,1.57,0.0,0.0
560.0,0.0,0.0,0.0,-0.0965333333333333,0.0,0.0,-1.2858666666666667,-1.57,0.0,0.0,0.4,0.0,0.0,-1.2,1.57,0.0,0.0
570.0,0.0,0.0,0.0,-0.10539999999999994,0.0,0.0,-1.2873999999999999,-1.57,0.0,0.0,0.4,0.0,0.0,-1.2,1.57,0.0,0.0
580.0,0.0,0.0,0.0,-0.11426666666666663,0.0,0.0,-1.2889333333333333,-1.57,0.0,0.0,0.4,0.0,0.0,-1.2,1.57,0.0,0.0
590.0,0.0,0.0,0.0,-0.12313333333333332,0.0,0.0,-1.2904666666666667,-1.57,0.0,0.0,0.4,0.0,0.0,-1.2,1.57,0.0,0.0
600.0,0.0,0.0,0.0,-0.132,0.0,0.0,-1.292,-1.57,0.0,0.0,0.4,0.0,0.0,-1.2,1.57,0.0,0.0
610.0,0.0,0.0,0.0,-0.1408666666666667,0.0,0.0,-1.2935333333333332,-1.57,0.0,0.0,0.4,0.0,0.0,-1.2,1.57,0.0,0.0
620.0,0.0,0.0,0.0,-0.14973333333333327,0.0,0.0,-1.2950666666666666,-1.57,0.0,0.0,0.4,0.0,0.0,-1.2,1.57,0.0,0.0
630.0,0.0,0.0,0.0,-0.15859999999999996,0.0,0.0,-1.2966,-1.57,0.0,0.0,0.4,0.0,0.0,-1.2,1.57,0.0,0.0
640.0,0.0,0.0,0.0,-0.16746666666666665,0.0,0.0,-1.2981333333333334,-1.57,0.0,0.0,0.4,0.0,0.0,-1.2,1.57,0.0,0.0
650.0,0.0,0.0,0.0,-0.17633333333333334,0.0,0.0,-1.2996666666666665,-1.57,0.0,0.0,0.4,0.0,0.0,-1.2,1.57,0.0,0.0
660.0,0.0,0.0,0.0,-0.18520000000000003,0.0,0.0,-1.3012,-1.57,0.0,0.0,0.4,0.0,0.0,-1.2,1.57,0.0,0.0
670.0,0.0,0.0,0.0,-0.1940666666666666,0.0,0.0,-1.3027333333333333,-1.57,0.0,0.0,0.4,0.0,0.0,-1.2,1.57,0.0,0.0
680.0,0.0,0.0,0.0,-0.2029333333333333,0.0,0.0,-1.3042666666666667,-1.57,0.0,0.0,0.4,0.0,0.0,-1.2,1.57,0.0,0.0
690.0,0.0,0.0,0.0,-0.2118,0.0,0.0,-1.3057999999999998,-1.57,0.0,0.0,0.4,0.0,0.0,-1.2,1.57,0.0,0.0
700.0,0.0,0.0,0.0,-0.22066666666666668,0.0,0.0,-1.3073333333333332,-1.57,0.0,0.0,0.4,0.0,0.0,-1.2,1.57,0.0,0.0
710.0,0.0,0.0,0.0,-0.22953333333333337,0.0,0.0,-1.3088666666666666,-1.57,0.0,0.0,0.4,0.0,0.0,-1.2,1.57,0.0,0.0
720.0,0.0,0.0,0.0,-0.23839999999999995,0.0,0.0,-1.3104,-1.57,0.0,0.0,0.4,0.0,0.0,-1.2,1.57,0.0,0.0
730.0,0.0,0.0,0.0,-0.24726666666666663,0.0,0.0,-1.3119333333333332,-1.57,0.0,0.0,0.4,0.0,0.0,-1.2,1.57,0.0,0.0
740.0,0.0,0.0,0.0,-0.2561333333333333,0.0,0.0,-1.3134666666666666,-1.57,0.0,0.0,0.4,0.0,0.0,-1.2,1.57,0.0,0.0
750.0,0.0,0.0,0.0,-0.265,0.0,0.0,-1.315,-1.57,0.0,0.0,0.4,0.0,0.0,-1.2,1.57,0.0,0.0
760.0,0.0,0.0,0.0,-0.2738666666666667,0.0,0.0,-1.3165333333333333,-1.57,0.0,0.0,0.4,0.0,0.0,-1.2,1.57,0.0,0.0
770.0,0.0,0.0,0.0,-0.2827333333333333,0.0,0.0,-1.3180666666666667,-1.57,0.0,0.0,0.4,0.0,0.0,-1.2,1.57,0.0,0.0
780.0,0.0,0.0,0.0,-0.29159999999999997,0.0,0.0,-1.3195999999999999,-1.57,0.0,0.0,0.4,0.0,0.0,-1.2,1.57,0.0,0.0
790.0,0.0,0.0,0.0,-0.30046666666666666,0.0,0.0,-1.3211333333333333,-1.57,0.0,0.0,0.4,0.0,0.0,-1.2,1.57,0.0,0.0
800.0,0.0,0.0,0.0,-0.30933333333333335,0.0,0.0,-1.3226666666666667,-1.57,0.0,0.0,0.4,0.0,0.0,-1.2,1.57,0.0,0.0
810.0,0.0,0.0,0.0,-0.31820000000000004,0.0,0.0,-1.3241999999999998,-1.57,0.0,0.0,0.4,0.0,0.0,-1.2,1.57,0.0,0.0
820.0,0.0,0.0,0.0,-0.3270666666666666,0.0,0.0,-1.3257333333333332,-1.57,0.0,0.0,0.4,0.0,0.0,-1.2,1.57,0.0,0.0
830.0,0.0,0.0,0.0,-0.3359333333333333,0.0,0.0,-1.3272666666666666,-1.57,0.0,0.0,0.4,0.0,0.0,-1.2,1.57,0.0,0.0
840.0,0.0,0.0,0.0,-0.3448,0.0,0.0,-1.3288,-1.57,0.0,0.0,0.4,0.0,0.0,-1.2,1.57,0.0,0.0
850.0,0.0,0.0,0.0,-0.3536666666666667,0.0,0.0,-1.3303333333333334,-1.57,0.0,0.0,0.4,0.0,0.0,-1.2,1.57,0.0,0.0
860.0,0.0,0.0,0.0,-0.3625333333333334,0.0,0.0,-1.3318666666666665,-1.57,0.0,0.0,0.4,0.0,0.0,-1.2,1.57,0.0,0.0
870.0,0.0,0.0,0.0,-0.37139999999999995,0.0,0.0,-1.3334,-1.57,0.0,0.0,0.4,0.0,0.0,-1.2,1.57,0.0,0.0
880.0,0.0,0.0,0.0,-0.38026666666666664,0.0,0.0,-1.3349333333333333,-1.57,0.0,0.0,0.4,0.0,0.0,-1.2,1.57,0.0,0.0
890.0,0.0,0.0,0.0,-0.38913333333333333,0.0,0.0,-1.3364666666666667,-1.57,0.0,0.0,0.4,0.0,0.0,-1.2,1.57,0.0,0.0
900.0,0.0,0.0,0.0,-0.398,0.0,0.0,-1.3379999999999999,-1.57,0.0,0.0,0.4,0.0,0.0,-1.2,1.57,0.0,0.0
910.0,0.0,0.0,0.0,-0.4068666666666667,0.0,0.0,-1.3395333333333332,-1.57,0.0,0.0,0.4,0.0,0.0,-1.2,1.57,0.0,0.0
920.0,0.0,0.0,0.0,-0.4157333333333333,0.0,0.0,-1.3410666666666666,-1.57,0.0,0.0,0.4,0.0,0.0,-1.2,1.57,0.0,0.0
930.0,0.0,0.0,0.0,-0.4246,0.0,0.0,-1.3426,-1.57,0.0,0.0,0.4,0.0,0.0,-1.2,1.57,0.0,0.0
940.0,0.0,0.0,0.0,-0.43346666666666667,0.0,0.0,-1.3441333333333332,-1.57,0.0,0.0,0.4,0.0,0.0,-1.2,1.57,0.0,0.0
950.0,0.0,0.0,0.0,-0.44233333333333336,0.0,0.0,-1.3456666666666666,-1.57,0.0,0.0,0.4,0.0,0.0,-1.2,1.57,0.0,0.0
960.0,0.0,0.0,0.0,-0.45119999999999993,0.0,0.0,-1.3472,-1.57,0.0,0.0,0.4,0.0,0.0,-1.2,1.57,0.0,0.0
970.0,0.0,0.0,0.0,-0.4600666666666666,0.0,0.0,-1.3487333333333333,-1.57,0.0,0.0,0.4,0.0,0.0,-1.2,1.57,0.0,0.0
980.0,0.0,0.0,0.0,-0.4689333333333333,0.0,0.0,-1.3502666666666665,-1.57,0.0,0.0,0.4,0.0,0.0,-1.2,1.57,0.0,0.0
990.0,0.0,0.0,0.0,-0.4778,0.0,0.0,-1.3518,-1.57,0.0,0.0,0.4,0.0,0.0,-1.2,1.57,0.0,0.0
1000.0,0.0,0.0,0.0,-0.4866666666666667,0.0,0.0,-1.3533333333333333,-1.57,0.0,0.0,0.4,0.0,0.0,-1.2,1.57,0.0,0.0
1010.0,0.0,0.0,0.0,-0.49553333333333327,0.0,0.0,-1.3548666666666667,-1.57,0.0,0.0,0.4,0.0,0.0,-1.2,1.57,0.0,0.0
1020.0,0.0,0.0,0.0,-0.5044,0.0,0.0,-1.3563999999999998,-1.57,0.0,0.0,0.4,0.0,0.0,-1.2,1.57,0.0,0.0
1030.0,0.0,0.0,0.0,-0.5132666666666666,0.0,0.0,-1.3579333333333332,-1.57,0.0,0.0,0.4,0.0,0.0,-1.2,1.57,0.0,0.0
1040.0,0.0,0.0,0.0,-0.5221333333333333,0.0,0.0,-1.3594666666666666,-1.57,0.0,0.0,0.4,0.0,0.0,-1.2,1.57,0.0,0.0
1050.0,0.0,0.0,0.0,-0.531,0.0,0.0,-1.361,-1.57,0.0,0.0,0.4,0.0,0.0,-1.2,1.57,0.0,0.0
1060.0,0.0,0.0,0.0,-0.5398666666666666,0.0,0.0,-1.3625333333333334,-1.57,0.0,0.0,0.4,0.0,0.0,-1.2,1.57,0.0,0.0
1070.0,0.0,0.0,0.0,-0.5487333333333333,0.0,0.0,-1.3640666666666665,-1.57,0.0,0.0,0.4,0.0,0.0,-1.2,1.57,0.0,0.0
1080.0,0.0,0.0,0.0,-0.5576,0.0,0.0,-1.3656,-1.57,0.0,0.0,0.4,0.0,0.0,-1.2,1.57,0.0,0.0
1090.0,0.0,0.0,0.0,-0.5664666666666667,0.0,0.0,-1.3671333333333333,-1.57,0.0,0.0,0.4,0.0,0.0,-1.2,1.57,0.0,0.0
1100.0,0.0,0.0,0.0,-0.5753333333333334,0.0,0.0,-1.3686666666666665,-1.57,0.0,0.0,0.4,0.0,0.0,-1.2,1.57,0.0,0.0
1110.0,0.0,0.0,0.0,-0.5841999999999999,0.0,0.0,-1.3701999999999999,-1.57,0.0,0.0,0.4,0.0,0.0,-1.2,1.57,0.0,0.0
1120.0,0.0,0.0,0.0,-0.5930666666666666,0.0,0.0,-1.3717333333333332,-1.57,0.0,0.0,0.4,0.0,0.0,-1.2,1.57,0.0,0.0
1130.0,0.0,0.0,0.0,-0.6019333333333333,0.0,0.0,-1.3732666666666666,-1.57,0.0,0.0,0.4,0.0,0.0,-1.2,1.57,0.0,0.0
1140.0,0.0,0.0,0.0,-0.6107999999999999,0.0,0.0,-1.3748,-1.57,0.0,0.0,0.4,0.0,0.0,-1.2,1.57,0.0,0.0
1150.0,0.0,0.0,0.0,-0.6196666666666667,0.0,0.0,-1.3763333333333332,-1.57,0.0,0.0,0.4,0.0,0.0,-1.2,1.57,0.0,0.0
1160.0,0.0,0.0,0.0,-0.6285333333333333,0.0,0.0,-1.3778666666666666,-1.57,0.0,0.0,0.4,0.0,0.0,-1.2,1.57,0.0,0.0
1170.0,0.0,0.0,0.0,-0.6374000000000001,0.0,0.0,-1.3794,-1.57,0.0,0.0,0.4,0.0,0.0,-1.2,1.57,0.0,0.0
1180.0,0.0,0.0,0.0,-0.6462666666666667,0.0,0.0,-1.3809333333333333,-1.57,0.0,0.0,0.4,0.0,0.0,-1.2,1.57,0.0,0.0
1190.0,0.0,0.0,0.0,-0.6551333333333332,0.0,0.0,-1.3824666666666665,-1.57,0.0,0.0,0.4,0.0,0.0,-1.2,1.57,0.0,0.0
1200.0,0.0,0.0,0.0,-0.664,0.0,0.0,-1.384,-1.57,0.0,0.0,0.4,0.0,0.0,-1.2,1.57,0.0,0.0
1210.0,0.0,0.0,0.0,-0.6728666666666666,0.0,0.0,-1.3855333333333333,-1.57,0.0,0.0,0.4,0.0,0.0,-1.2,1.57,0.0,0.0
1220.0,0.0,0.0,0.0,-0.6817333333333334,0.0,0.0,-1.3870666666666667,-1.57,0.0,0.0,0.4,0.0,0.0,-1.2,1.57,0.0,0.0
1230.0,0.0,0.0,0.0,-0.6906,0.0,0.0,-1.3885999999999998,-1.57,0.0,0.0,0.4,0.0,0.0,-1.2,1.57,0.0,0.0
1240.0,0.0,0.0,0.0,-0.6994666666666666,0.0,0.0,-1.3901333333333332,-1.57,0.0,0.0,0.4,0.0,0.0,-1.2,1.57,0.0,0.0
1250.0,0.0,0.0,0.0,-0.7083333333333334,0.0,0.0,-1.3916666666666666,-1.57,0.0,0.0,0.4,0.0,0.0,-1.2,1.57,0.0,0.0
1260.0,0.0,0.0,0.0,-0.7172,0.0,0.0,-1.3932,-1.57,0.0,0.0,0.4,0.0,0.0,-1.2,1.57,0.0,0.0
1270.0,0.0,0.0,0.0,-0.7260666666666667,0.0,0.0,-1.3947333333333334,-1.57,0.0,0.0,0.4,0.0,0.0,-1.2,1.57,0.0,0.0
1280.0,0.0,0.0,0.0,-0.7349333333333333,0.0,0.0,-1.3962666666666665,-1.57,0.0,0.0,0.4,0.0,0.0,-1.2,1.57,0.0,0.0
1290.0,0.0,0.0,0.0,-0.7437999999999999,0.0,0.0,-1.3978,-1.57,0.0,0.0,0.4,0.0,0.0,-1.2,1.57,0.0,0.0
1300.0,0.0,0.0,0.0,-0.7526666666666667,0.0,0.0,-1.3993333333333333,-1.57,0.0,0.0,0.4,0.0,0.0,-1.2,1.57,0.0,0.0
1310.0,0.0,0.0,0.0,-0.7615333333333333,0.0,0.0,-1.4008666666666665,-1.57,0.0,0.0,0.4,0.0,0.0,-1.2,1.57,0.0,0.0
1320.0,0.0,0.0,0.0,-0.7704000000000001,0.0,0.0,-1.4023999999999999,-1.57,0.0,0.0,0.4,0.0,0.0,-1.2,1.57,0.0,0.0
1330.0,0.0,0.0,0.0,-0.7792666666666667,0.0,0.0,-1.4039333333333333,-1.57,0.0,0.0,0.4,0.0,0.0,-1.2,1.57,0.0,0.0
1340.0,0.0,0.0,0.0,-0.7881333333333332,0.0,0.0,-1.4054666666666666,-1.57,0.0,0.0,0.4,0.0,0.0,-1.2,1.57,0.0,0.0
1350.0,0.0,0.0,0.0,-0.797,0.0,0.0,-1.407,-1.57,0.0,0.0,0.4,0.0,0.0,-1.2,1.57,0.0,0.0
1360.0,0.0,0.0,0.0,-0.8058666666666666,0.0,0.0,-1.4085333333333332,-1.57,0.0,0.0,0.4,0.0,0.0,-1.2,1.57,0.0,0.0
1370.0,0.0,0.0,0.0,-0.8147333333333334,0.0,0.0,-1.4100666666666666,-1.57,0.0,0.0,0.4,0.0,0.0,-1.2,1.57,0.0,0.0
1380.0,0.0,0.0,0.0,-0.8236,0.0,0.0,-1.4116,-1.57,0.0,0.0,0.4,0.0,0.0,-1.2,1.57,0.0,0.0
1390.0,0.0,0.0,0.0,-0.8324666666666666,0.0,0.0,-1.4131333333333334,-1.57,0.0,0.0,0.4,0.0,0.0,-1.2,1.57,0.0,0.0
1400.0,0.0,0.0,0.0,-0.8413333333333334,0.0,0.0,-1.4146666666666665,-1.57,0.0,0.0,0.4,0.0,0.0,-1.2,1.57,0.0,0.0
1410.0,0.0,0.0,0.0,-0.8502,0.0,0.0,-1.4162,-1.57,0.0,0.0,0.4,0.0,0.0,-1.2,1.57,0.0,0.0
1420.0,0.0,0.0,0.0,-0.8590666666666668,0.0,0.0,-1.4177333333333333,-1.57,0.0,0.0,0.4,0.0,0.0,-1.2,1.57,0.0,0.0
1430.0,0.0,0.0,0.0,-0.8679333333333333,0.0,0.0,-1.4192666666666667,-1.57,0.0,0.0,0.4,0.0,0.0,-1.2,1.57,0.0,0.0
1440.0,0.0,0.0,0.0,-0.8767999999999999,0.0,0.0,-1.4207999999999998,-1.57,0.0,0.0,0.4,0.0,0.0,-1.2,1.57,0.0,0.0
1450.0,0.0,0.0,0.0,-0.8856666666666667,0.0,0.0,-1.4223333333333332,-1.57,0.0,0.0,0.4,0.0,0.0,-1.2,1.57,0.0,0.0
1460.0,0.0,0.0,0.0,-0.8945333333333333,0.0,0.0,-1.4238666666666666,-1.57,0.0,0.0,0.4,0.0,0.0,-1.2,1.57,0.0,0.0
1470.0,0.0,0.0,0.0,-0.9034000000000001,0.0,0.0,-1.4254,-1.57,0.0,0.0,0.4,0.0,0.0,-1.2,1.57,0.0,0.0
1480.0,0.0,0.0,0.0,-0.9122666666666667,0.0,0.0,-1.4269333333333332,-1.57,0.0,0.0,0.4,0.0,0.0,-1.2,1.57,0.0,0.0
1490.0,0.0,0.0,0.0,-0.9211333333333332,0.0,0.0,-1.4284666666666666,-1.57,0.0,0.0,0.4,0.0,0.0,-1.2,1.57,0.0,0.0
1500.0,0.0,0.0,0.0,-0.93,0.0,0.0,-1.43,-1.57,0.0,0.0,0.4,0.0,0.0,-1.2,1.57,0.0,0.0
1510.0,0.0,0.0,0.0,-0.9418000000000001,0.0,0.0,-1.409,-1.57,0.0,0.0,0.4,0.0,0.0,-1.2,1.57,0.0,0.0
1520.0,0.0,0.0,0.0,-0.9536,0.0,0.0,-1.388,-1.57,0.0,0.0,0.4,0.0,0.0,-1.2,1.57,0.0,0.0
1530.0,0.0,0.0,0.0,-0.9654,0.0,0.0,-1.367,-1.57,0.0,0.0,0.4,0.0,0.0,-1.2,1.57,0.0,0.0
1540.0,0.0,0.0,0.0,-0.9772000000000001,0.0,0.0,-1.3459999999999999,-1.57,0.0,0.0,0.4,0.0,0.0,-1.2,1.57,0.0,0.0
1550.0,0.0,0.0,0.0,-0.989,0.0,0.0,-1.325,-1.57,0.0,0.0,0.4,0.0,0.0,-1.2,1.57,0.0,0.0
1560.0,0.0,0.0,0.0,-1.0008000000000001,0.0,0.0,-1.304,-1.57,0.0,0.0,0.4,0.0,0.0,-1.2,1.57,0.0,0.0
1570.0,0.0,0.0,0.0,-1.0126,0.0,0.0,-1.283,-1.57,0.0,0.0,0.4,0.0,0.0,-1.2,1.57,0.0,0.0
1580.0,0.0,0.0,0.0,-1.0244,0.0,0.0,-1.262,-1.57,0.0,0.0,0.4,0.0,0.0,-1.2,1.57,0.0,0.0
1590.0,0.0,0.0,0.0,-1.0362,0.0,0.0,-1.241,-1.57,0.0,0.0,0.4,0.0,0.0,-1.2,1.57,0.0,0.0
1600.0,0.0,0.0,0.0,-1.048,0.0,0.0,-1.22,-1.57,0.0,0.0,0.4,0.0,0.0,-1.2,1.57,0.0,0.0
1610.0,0.0,0.0,0.0,-1.0598,0.0,0.0,-1.199,-1.57,0.0,0.0,0.4,0.0,0.0,-1.2,1.57,0.0,0.0
1620.0,0.0,0.0,0.0,-1.0716,0.0,0.0,-1.178,-1.57,0.0,0.0,0.4,0.0,0.0,-1.2,1.57,0.0,0.0
1630.0,0.0,0.0,0.0,-1.0834000000000001,0.0,0.0,-1.157,-1.57,0.0,0.0,0.4,0.0,0.0,-1.2,1.57,0.0,0.0
1640.0,0.0,0.0,0.0,-1.0952,0.0,0.0,-1.1360000000000001,-1.57,0.0,0.0,0.4,0.0,0.0,-1.2,1.57,0.0,0.0
1650.0,0.0,0.0,0.0,-1.107,0.0,0.0,-1.115,-1.57,0.0,0.0,0.4,0.0,0.0,-1.2,1.57,0.0,0.0
1660.0,0.0,0.0,0.0,-1.1188,0.0,0.0,-1.094,-1.57,0.0,0.0,0.4,0.0,0.0,-1.2,1.57,0.0,0.0
1670.0,0.0,0.0,0.0,-1.1306,0.0,0.0,-1.073,-1.57,0.0,0.0,0.4,0.0,0.0,-1.2,1.57,0.0,0.0
1680.0,0.0,0.0,0.0,-1.1424,0.0,0.0,-1.052,-1.57,0.0,0.0,0.4,0.0,0.0,-1.2,1.57,0.0,0.0
1690.0,0.0,0.0,0.0,-1.1542000000000001,0.0,0.0,-1.0310000000000001,-1.57,0.0,0.0,0.4,0.0,0.0,-1.2,1.57,0.0,0.0
1700.0,0.0,0.0,0.0,-1.166,0.0,0.0,-1.01,-1.57,0.0,0.0,0.4,0.0,0.0,-1.2,1.57,0.0,0.0
1710.0,0.0,0.0,0.0,-1.1778,0.0,0.0,-0.9890000000000001,-1.57,0.0,0.0,0.4,0.0,0.0,-1.2,1.57,0.0,0.0
1720.0,0.0,0.0,0.0,-1.1896,0.0,0.0,-0.9680000000000001,-1.57,0.0,0.0,0.4,0.0,0.0,-1.2,1.57,0.0,0.0
1730.0,0.0,0.0,0.0,-1.2014,0.0,0.0,-0.9470000000000001,-1.57,0.0,0.0,0.4,0.0,0.0,-1.2,1.57,0.0,0.0
1740.0,0.0,0.0,0.0,-1.2132,0.0,0.0,-0.926,-1.57,0.0,0.0,0.4,0.0,0.0,-1.2,1.57,0.0,0.0
1750.0,0.0,0.0,0.0,-1.225,0.0,0.0,-0.905,-1.57,0.0,0.0,0.4,0.0,0.0,-1.2,1.57,0.0,0.0
1760.0,0.0,0.0,0.0,-1.2368000000000001,0.0,0.0,-0.8840000000000001,-1.57,0.0,0.0,0.4,0.0,0.0,-1.2,1.57,0.0,0.0
1770.0,0.0,0.0,0.0,-1.2486,0.0,0.0,-0.8630000000000001,-1.57,0.0,0.0,0.4,0.0,0.0,-1.2,1.57,0.0,0.0
1780.0,0.0,0.0,0.0,-1.2604,0.0,0.0,-0.8420000000000001,-1.57,0.0,0.0,0.4,0.0,0.0,-1.2,1.57,0.0,0.0
1790.0,0.0,0.0,0.0,-1.2722,0.0,0.0,-0.8210000000000001,-1.57,0.0,0.0,0.4,0.0,0.0,-1.2,1.57,0.0,0.0
1800.0,0.0,0.0,0.0,-1.284,0.0,0.0,-0.8000000000000002,-1.57,0.0,0.0,0.4,0.0,0.0,-1.2,1.57,0.0,0.0
1810.0,0.0,0.0,0.0,-1.2958,0.0,0.0,-0.7790000000000001,-1.57,0.0,0.0,0.4,0.0,0.0,-1.2,1.57,0.0,0.0
1820.0,0.0,0.0,0.0,-1.3075999999999999,0.0,0.0,-0.7580000000000001,-1.57,0.0,0.0,0.4,0.0,0.0,-1.2,1.57,0.0,0.0
1830.0,0.0,0.0,0.0,-1.3194,0.0,0.0,-0.7370000000000001,-1.57,0.0,0.0,0.4,0.0,0.0,-1.2,1.57,0.0,0.0
1840.0,0.0,0.0,0.0,-1.3312,0.0,0.0,-0.7160000000000001,-1.57,0.0,0.0,0.4,0.0,0.0,-1.2,1.57,0.0,0.0
1850.0,0.0,0.0,0.0,-1.343,0.0,0.0,-0.6950000000000002,-1.57,0.0,0.0,0.4,0.0,0.0,-1.2,1.57,0.0,0.0
1860.0,0.0,0.0,0.0,-1.3548,0.0,0.0,-0.6740000000000002,-1.57,0.0,0.0,0.4,0.0,0.0,-1.2,1.57,0.0,0.0
1870.0,0.0,0.0,0.0,-1.3666,0.0,0.0,-0.6530000000000001,-1.57,0.0,0.0,0.4,0.0,0.0,-1.2,1.57,0.0,0.0
1880.0,0.0,0.0,0.0,-1.3784,0.0,0.0,-0.6320000000000001,-1.57,0.0,0.0,0.4,0.0,0.0,-1.2,1.57,0.0,0.0
1890.0,0.0,0.0,0.0,-1.3902,0.0,0.0,-0.6110000000000002,-1.57,0.0,0.0,0.4,0.0,0.0,-1.2,1.57,0.0,0.0
1900.0,0.0,0.0,0.0,-1.402,0.0,0.0,-0.5900000000000002,-1.57,0.0,0.0,0.4,0.0,0.0,-1.2,1.57,0.0,0.0
1910.0,0.0,0.0,0.0,-1.4138,0.0,0.0,-0.5690000000000002,-1.57,0.0,0.0,0.4,0.0,0.0,-1.2,1.57,0.0,0.0
1920.0,0.0,0.0,0.0,-1.4256,0.0,0.0,-0.5480000000000002,-1.57,0.0,0.0,0.4,0.0,0.0,-1.2,1.57,0.0,0.0
1930.0,0.0,0.0,0.0,-1.4374,0.0,0.0,-0.5270000000000001,-1.57,0.0,0.0,0.4,0.0,0.0,-1.2,1.57,0.0,0.0
1940.0,0.0,0.0,0.0,-1.4491999999999998,0.0,0.0,-0.5060000000000002,-1.57,0.0,0.0,0.4,0.0,0.0,-1.2,1.57,0.0,0.0
1950.0,0.0,0.0,0.0,-1.4609999999999999,0.0,0.0,-0.4850000000000002,-1.57,0.0,0.0,0.4,0.0,0.0,-1.2,1.57,0.0,0.0
1960.0,0.0,0.0,0.0,-1.4727999999999999,0.0,0.0,-0.4640000000000002,-1.57,0.0,0.0,0.4,0.0,0.0,-1.2,1.57,0.0,0.0
1970.0,0.0,0.0,0.0,-1.4846,0.0,0.0,-0.44300000000000017,-1.57,0.0,0.0,0.4,0.0,0.0,-1.2,1.57,0.0,0.0
1980.0,0.0,0.0,0.0,-1.4964,0.0,0.0,-0.42200000000000015,-1.57,0.0,0.0,0.4,0.0,0.0,-1.2,1.57,0.0,0.0
1990.0,0.0,0.0,0.0,-1.5082,0.0,0.0,-0.40100000000000025,-1.57,0.0,0.0,0.4,0.0,0.0,-1.2,1.57,0.0,0.0
2000.0,0.0,0.0,0.0,-1.52,0.0,0.0,-0.38,-1.57,0.0,0.0,0.4,0.0,0.0,-1.2,1.57,0.0,0.0
2010.0,0.0,0.0,0.0,-1.52,0.0,0.0,-0.38,-1.57,0.0,0.0,0.4,0.0,0.0,-1.2,1.57,0.0,0.0
2020.0,0.0,0.0,0.0,-1.52,0.0,0.0,-0.38,-1.57,0.0,0.0,0.4,0.0,0.0,-1.2,1.57,0.0,0.0
2030.0,0.0,0.0,0.0,-1.52,0.0,0.0,-0.38,-1.57,0.0,0.0,0.4,0.0,0.0,-1.2,1.57,0.0,0.0
2040.0,0.0,0.0,0.0,-1.52,0.0,0.0,-0.38,-1.57,0.0,0.0,0.4,0.0,0.0,-1.2,1.57,0.0,0.0
2050.0,0.0,0.0,0.0,-1.52,0.0,0.0,-0.38,-1.57,0.0,0.0,0.4,0.0,0.0,-1.2,1.57,0.0,0.0
2060.0,0.0,0.0,0.0,-1.52,0.0,0.0,-0.38,-1.57,0.0,0.0,0.4,0.0,0.0,-1.2,1.57,0.0,0.0
2070.0,0.0,0.0,0.0,-1.52,0.0,0.0,-0.38,-1.57,0.0,0.0,0.4,0.0,0.0,-1.2,1.57,0.0,0.0
2080.0,0.0,0.0,0.0,-1.52,0.0,0.0,-0.38,-1.57,0.0,0.0,0.4,0.0,0.0,-1.2,1.57,0.0,0.0
2090.0,0.0,0.0,0.0,-1.52,0.0,0.0,-0.38,-1.57,0.0,0.0,0.4,0.0,0.0,-1.2,1.57,0.0,0.0
2100.0,0.0,0.0,0.0,-1.52,0.0,0.0,-0.38,-1.57,0.0,0.0,0.4,0.0,0.0,-1.2,1.57,0.0,0.0
2110.0,0.0,0.0,0.0,-1.52,0.0,0.0,-0.38,-1.57,0.0,0.0,0.4,0.0,0.0,-1.2,1.57,0.0,0.0
2120.0,0.0,0.0,0.0,-1.52,0.0,0.0,-0.38,-1.57,0.0,0.0,0.4,0.0,0.0,-1.2,1.57,0.0,0.0
2130.0,0.0,0.0,0.0,-1.52,0.0,0.0,-0.38,-1.57,0.0,0.0,0.4,0.0,0.0,-1.2,1.57,0.0,0.0
2140.0,0.0,0.0,0.0,-1.52,0.0,0.0,-0.38,-1.57,0.0,0.0,0.4,0.0,0.0,-1.2,1.57,0.0,0.0
2150.0,0.0,0.0,0.0,-1.52,0.0,0.0,-0.38,-1.57,0.0,0.0,0.4,0.0,0.0,-1.2,1.57,0.0,0.0
2160.0,0.0,0.0,0.0,-1.52,0.0,0.0,-0.38,-1.57,0.0,0.0,0.4,0.0,0.0,-1.2,1.57,0.0,0.0
2170.0,0.0,0.0,0.0,-1.52,0.0,0.0,-0.38,-1.57,0.0,0.0,0.4,0.0,0.0,-1.2,1.57,0.0,0.0
2180.0,0.0,0.0,0.0,-1.52,0.0,0.0,-0.38,-1.57,0.0,0.0,0.4,0.0,0.0,-1.2,1.57,0.0,0.0
2190.0,0.0,0.0,0.0,-1.52,0.0,0.0,-0.38,-1.57,0.0,0.0,0.4,0.0,0.0,-1.2,1.57,0.0,0.0
2200.0,0.0,0.0,0.0,-1.52,0.0,0.0,-0.38,-1.57,0.0,0.0,0.4,0.0,0.0,-1.2,1.57,0.0,0.0
2210.0,0.0,0.0,0.0,-1.52,0.0,0.0,-0.38,-1.57,0.0,0.0,0.4,0.0,0.0,-1.2,1.57,0.0,0.0
2220.0,0.0,0.0,0.0,-1.52,0.0,0.0,-0.38,-1.57,0.0,0.0,0.4,0.0,0.0,-1.2,1.57,0.0,0.0
2230.0,0.0,0.0,0.0,-1.52,0.0,0.0,-0.38,-1.57,0.0,0.0,0.4,0.0,0.0,-1.2,1.57,0.0,0.0
2240.0,0.0,0.0,0.0,-1.52,0.0,0.0,-0.38,-1.57,0.0,0.0,0.4,0.0,0.0,-1.2,1.57,0.0,0.0
2250.0,0.0,0.0,0.0,-1.52,0.0,0.0,-0.38,-1.57,0.0,0.0,0.4,0.0,0.0,-1.2,1.57,0.0,0.0
2260.0,0.0,0.0,0.0,-1.52,0.0,0.0,-0.38,-1.57,0.0,0.0,0.4,0.0,0.0,-1.2,1.57,0.0,0.0
2270.0,0.0,0.0,0.0,-1.52,0.0,0.0,-0.38,-1.57,0.0,0.0,0.4,0.0,0.0,-1.2,1.57,0.0,0.0
2280.0,0.0,0.0,0.0,-1.52,0.0,0.0,-0.38,-1.57,0.0,0.0,0.4,0.0,0.0,-1.2,1.57,0.0,0.0
2290.0,0.0,0.0,0.0,-1.52,0.0,0.0,-0.38,-1.57,0.0,0.0,0.4,0.0,0.0,-1.2,1.57,0.0,0.0
2300.0,0.0,0.0,0.0,-1.52,0.0,0.0,-0.38,-1.57,0.0,0.0,0.4,0.0,0.0,-1.2,1.57,0.0,0.0
2310.0,0.0,0.0,0.0,-1.52,0.0,0.0,-0.38,-1.57,0.0,0.0,0.4,0.0,0.0,-1.2,1.57,0.0,0.0
2320.0,0.0,0.0,0.0,-1.52,0.0,0.0,-0.38,-1.57,0.0,0.0,0.4,0.0,0.0,-1.2,1.57,0.0,0.0
2330.0,0.0,0.0,0.0,-1.52,0.0,0.0,-0.38,-1.57,0.0,0.0,0.4,0.0,0.0,-1.2,1.57,0.0,0.0
2340.0,0.0,0.0,0.0,-1.52,0.0,0.0,-0.38,-1.57,0.0,0.0,0.4,0.0,0.0,-1.2,1.57,0.0,0.0
2350.0,0.0,0.0,0.0,-1.52,0.0,0.0,-0.38,-1.57,0.0,0.0,0.4,0.0,0.0,-1.2,1.57,0.0,0.0
2360.0,0.0,0.0,0.0,-1.52,0.0,0.0,-0.38,-1.57,0.0,0.0,0.4,0.0,0.0,-1.2,1.57,0.0,0.0
2370.0,0.0,0.0,0.0,-1.52,0.0,0.0,-0.38,-1.57,0.0,0.0,0.4,0.0,0.0,-1.2,1.57,0.0,0.0
2380.0,0.0,0.0,0.0,-1.52,0.0,0.0,-0.38,-1.57,0.0,0.0,0.4,0.0,0.0,-1.2,1.57,0.0,0.0
2390.0,0.0,0.0,0.0,-1.52,0.0,0.0,-0.38,-1.57,0.0,0.0,0.4,0.0,0.0,-1.2,1.57,0.0,0.0
2400.0,0.0,0.0,0.0,-1.52,0.0,0.0,-0.38,-1.57,0.0,0.0,0.4,0.0,0.0,-1.2,1.57,0.0,0.0
2410.0,0.0,0.0,0.0,-1.52,0.0,0.0,-0.38,-1.57,0.0,0.0,0.4,0.0,0.0,-1.2,1.57,0.0,0.0
2420.0,0.0,0.0,0.0,-1.52,0.0,0.0,-0.38,-1.57,0.0,0.0,0.4,0.0,0.0,-1.2,1.57,0.0,0.0
2430.0,0.0,0.0,0.0,-1.52,0.0,0.0,-0.38,-1.57,0.0,0.0,0.4,0.0,0.0,-1.2,1.57,0.0,0.0
2440.0,0.0,0.0,0.0,-1.52,0.0,0.0,-0.38,-1.57,0.0,0.0,0.4,0.0,0.0,-1.2,1.57,0.0,0.0
2450.0,0.0,0.0,0.0,-1.52,0.0,0.0,-0.38,-1.57,0.0,0.0,0.4,0.0,0.0,-1.2,1.57,0.0,0.0
2460.0,0.0,0.0,0.0,-1.52,0.0,0.0,-0.38,-1.57,0.0,0.0,0.4,0.0,0.0,-1.2,1.57,0.0,0.0
2470.0,0.0,0.0,0.0,-1.52,0.0,0.0,-0.38,-1.57,0.0,0.0,0.4,0.0,0.0,-1.2,1.57,0.0,0.0
2480.0,0.0,0.0,0.0,-1.52,0.0,0.0,-0.38,-1.57,0.0,0.0,0.4,0.0,0.0,-1.2,1.57,0.0,0.0
2490.0,0.0,0.0,0.0,-1.52,0.0,0.0,-0.38,-1.57,0.0,0.0,0.4,0.0,0.0,-1.2,1.57,0.0,0.0
2500.0,0.0,0.0,0.0,-1.52,0.0,0.0,-0.38,-1.57,0.0,0.0,0.4,0.0,0.0,-1.2,1.57,0.0,0.0
2510.0,0.0,0.0,0.0,-1.52,0.0,0.0,-0.38,-1.57,0.0,0.0,0.4,0.0,0.0,-1.2,1.57,0.0,0.0
2520.0,0.0,0.0,0.0,-1.52,0.0,0.0,-0.38,-1.57,0.0,0.0,0.4,0.0,0.0,-1.2,1.57,0.0,0.0
2530.0,0.0,0.0,0.0,-1.52,0.0,0.0,-0.38,-1.57,0.0,0.0,0.4,0.0,0.0,-1.2,1.57,0.0,0.0
2540.0,0.0,0.0,0.0,-1.52,0.0,0.0,-0.38,-1.57,0.0,0.0,0.4,0.0,0.0,-1.2,1.57,0.0,0.0
2550.0,0.0,0.0,0.0,-1.52,0.0,0.0,-0.38,-1.57,0.0,0.0,0.4,0.0,0.0,-1.2,1.57,0.0,0.0
2560.0,0.0,0.0,0.0,-1.52,0.0,0.0,-0.38,-1.57,0.0,0.0,0.4,0.0,0.0,-1.2,1.57,0.0,0.0
2570.0,0.0,0.0,0.0,-1.52,0.0,0.0,-0.38,-1.57,0.0,0.0,0.4,0.0,0.0,-1.2,1.57,0.0,0.0
2580.0,0.0,0.0,0.0,-1.52,0.0,0.0,-0.38,-1.57,0.0,0.0,0.4,0.0,0.0,-1.2,1.57,0.0,0.0
2590.0,0.0,0.0,0.0,-1.52,0.0,0.0,-0.38,-1.57,0.0,0.0,0.4,0.0,0.0,-1.2,1.57,0.0,0.0
2600.0,0.0,0.0,0.0,-1.52,0.0,0.0,-0.38,-1.57,0.0,0.0,0.4,0.0,0.0,-1.2,1.57,0.0,0.0
2610.0,0.0,0.0,0.0,-1.52,0.0,0.0,-0.38,-1.57,0.0,0.0,0.4,0.0,0.0,-1.2,1.57,0.0,0.0
2620.0,0.0,0.0,0.0,-1.52,0.0,0.0,-0.38,-1.57,0.0,0.0,0.4,0.0,0.0,-1.2,1.57,0.0,0.0
2630.0,0.0,0.0,0.0,-1.52,0.0,0.0,-0.38,-1.57,0.0,0.0,0.4,0.0,0.0,-1.2,1.57,0.0,0.0
2640.0,0.0,0.0,0.0,-1.52,0.0,0.0,-0.38,-1.57,0.0,0.0,0.4,0.0,0.0,-1.2,1.57,0.0,0.0
2650.0,0.0,0.0,0.0,-1.52,0.0,0.0,-0.38,-1.57,0.0,0.0,0.4,0.0,0.0,-1.2,1.57,0.0,0.0
2660.0,0.0,0.0,0.0,-1.52,0.0,0.0,-0.38,-1.57,0.0,0.0,0.4,0.0,0.0,-1.2,1.57,0.0,0.0
2670.0,0.0,0.0,0.0,-1.52,0.0,0.0,-0.38,-1.57,0.0,0.0,0.4,0.0,0.0,-1.2,1.57,0.0,0.0
2680.0,0.0,0.0,0.0,-1.52,0.0,0.0,-0.38,-1.57,0.0,0.0,0.4,0.0,0.0,-1.2,1.57,0.0,0.0
2690.0,0.0,0.0,0.0,-1.52,0.0,0.0,-0.38,-1.57,0.0,0.0,0.4,0.0,0.0,-1.2,1.57,0.0,0.0
2700.0,0.0,0.0,0.0,-1.52,0.0,0.0,-0.38,-1.57,0.0,0.0,0.4,0.0,0.0,-1.2,1.57,0.0,0.0
2710.0,0.0,0.0,0.0,-1.52,0.0,0.0,-0.38,-1.57,0.0,0.0,0.4,0.0,0.0,-1.2,1.57,0.0,0.0
2720.0,0.0,0.0,0.0,-1.52,0.0,0.0,-0.38,-1.57,0.0,0.0,0.4,0.0,0.0,-1.2,1.57,0.0,0.0
2730.0,0.0,0.0,0.0,-1.52,0.0,0.0,-0.38,-1.57,0.0,0.0,0.4,0.0,0.0,-1.2,1.57,0.0,0.0
2740.0,0.0,0.0,0.0,-1.52,0.0,0.0,-0.38,-1.57,0.0,0.0,0.4,0.0,0.0,-1.2,1.57,0.0,0.0
2750.0,0.0,0.0,0.0,-1.52,0.0,0.0,-0.38,-1.57,0.0,0.0,0.4,0.0,0.0,-1.2,1.57,0.0,0.0
2760.0,0.0,0.0,0.0,-1.52,0.0,0.0,-0.38,-1.57,0.0,0.0,0.4,0.0,0.0,-1.2,1.57,0.0,0.0
2770.0,0.0,0.0,0.0,-1.52,0.0,0.0,-0.38,-1.57,0.0,0.0,0.4,0.0,0.0,-1.2,1.57,0.0,0.0
2780.0,0.0,0.0,0.0,-1.52,0.0,0.0,-0.38,-1.57,0.0,0.0,0.4,0.0,0.0,-1.2,1.57,0.0,0.0
2790.0,0.0,0.0,0.0,-1.52,0.0,0.0,-0.38,-1.57,0.0,0.0,0.4,0.0,0.0,-1.2,1.57,0.0,0.0
2800.0,0.0,0.0,0.0,-1.52,0.0,0.0,-0.38,-1.57,0.0,0.0,0.4,0.0,0.0,-1.2,1.57,0.0,0.0
2810.0,0.0,0.0,0.0,-1.52,0.0,0.0,-0.38,-1.57,0.0,0.0,0.4,0.0,0.0,-1.2,1.57,0.0,0.0
2820.0,0.0,0.0,0.0,-1.52,0.0,0.0,-0.38,-1.57,0.0,0.0,0.4,0.0,0.0,-1.2,1.57,0.0,0.0
2830.0,0.0,0.0,0.0,-1.52,0.0,0.0,-0.38,-1.57,0.0,0.0,0.4,0.0,0.0,-1.2,1.57,0.0,0.0
2840.0,0.0,0.0,0.0,-1.52,0.0,0.0,-0.38,-1.57,0.0,0.0,0.4,0.0,0.0,-1.2,1.57,0.0,0.0
2850.0,0.0,0.0,0.0,-1.52,0.0,0.0,-0.38,-1.57,0.0,0.0,0.4,0.0,0.0,-1.2,1.57,0.0,0.0
2860.0,0.0,0.0,0.0,-1.52,0.0,0.0,-0.38,-1.57,0.0,0.0,0.4,0.0,0.0,-1.2,1.57,0.0,0.0
2870.0,0.0,0.0,0.0,-1.52,0.0,0.0,-0.38,-1.57,0.0,0.0,0.4,0.0,0.0,-1.2,1.57,0.0,0.0
2880.0,0.0,0.0,0.0,-1.52,0.0,0.0,-0.38,-1.57,0.0,0.0,0.4,0.0,0.0,-1.2,1.57,0.0,0.0
2890.0,0.0,0.0,0.0,-1.52,0.0,0.0,-0.38,-1.57,0.0,0.0,0.4,0.0,0.0,-1.2,1.57,0.0,0.0
2900.0,0.0,0.0,0.0,-1.52,0.0,0.0,-0.38,-1.57,0.0,0.0,0.4,0.0,0.0,-1.2,1.57,0.0,0.0
2910.0,0.0,0.0,0.0,-1.52,0.0,0.0,-0.38,-1.57,0.0,0.0,0.4,0.0,0.0,-1.2,1.57,0.0,0.0
2920.0,0.0,0.0,0.0,-1.52,0.0,0.0,-0.38,-1.57,0.0,0.0,0.4,0.0,0.0,-1.2,1.57,0.0,0.0
2930.0,0.0,0.0,0.0,-1.52,0.0,0.0,-0.38,-1.57,0.0,0.0,0.4,0.0,0.0,-1.2,1.57,0.0,0.0
2940.0,0.0,0.0,0.0,-1.52,0.0,0.0,-0.38,-1.57,0.0,0.0,0.4,0.0,0.0,-1.2,1.57,0.0,0.0
2950.0,0.0,0.0,0.0,-1.52,0.0,0.0,-0.38,-1.57,0.0,0.0,0.4,0.0,0.0,-1.2,1.57,0.0,0.0
2960.0,0.0,0.0,0.0,-1.52,0.0,0.0,-0.38,-1.57,0.0,0.0,0.4,0.0,0.0,-1.2,1.57,0.0,0.0
2970.0,0.0,0.0,0.0,-1.52,0.0,0.0,-0.38,-1.57,0.0,0.0,0.4,0.0,0.0,-1.2,1.57,0.0,0.0
2980.0,0.0,0.0,0.0,-1.52,0.0,0.0,-0.38,-1.57,0.0,0.0,0.4,0.0,0.0,-1.2,1.57,0.0,0.0
2990.0,0.0,0.0,0.0,-1.52,0.0,0.0,-0.38,-1.57,0.0,0.0,0.4,0.0,0.0,-1.2,1.57,0.0,0.0
3000.0,0.0,0.0,0.0,-1.52,0.0,0.0,-0.38,-1.57,0.0,0.0,0.4,0.0,0.0,-1.2,1.57,0.0,0.0
3010.0,0.0,0.0,0.0,-1.52,0.0,0.0,-0.38,-1.57,0.0,0.0,0.4,0.0,0.0,-1.2,1.57,0.0,0.0
3020.0,0.0,0.0,0.0,-1.52,0.0,0.0,-0.38,-1.57,0.0,0.0,0.4,0.0,0.0,-1.2,1.57,0.0,0.0
3030.0,0.0,0.0,0.0,-1.52,0.0,0.0,-0.38,-1.57,0.0,0.0,0.4,0.0,0.0,-1.2,1.57,0.0,0.0
3040.0,0.0,0.0,0.0,-1.52,0.0,0.0,-0.38,-1.57,0.0,0.0,0.4,0.0,0.0,-1.2,1.57,0.0,0.0
3050.0,0.0,0.0,0.0,-1.52,0.0,0.0,-0.38,-1.57,0.0,0.0,0.4,0.0,0.0,-1.2,1.57,0.0,0.0
3060.0,0.0,0.0,0.0,-1.52,0.0,0.0,-0.38,-1.57,0.0,0.0,0.4,0.0,0.0,-1.2,1.57,0.0,0.0
3070.0,0.0,0.0,0.0,-1.52,0.0,0.0,-0.38,-1.57,0.0,0.0,0.4,0.0,0.0,-1.2,1.57,0.0,0.0
3080.0,0.0,0.0,0.0,-1.52,0.0,0.0,-0.38,-1.57,0.0,0.0,0.4,0.0,0.0,-1.2,1.57,0.0,0.0
3090.0,0.0,0.0,0.0,-1.52,0.0,0.0,-0.38,-1.57,0.0,0.0,0.4,0.0,0.0,-1.2,1.57,0.0,0.0
3100.0,0.0,0.0,0.0,-1.52,0.0,0.0,-0.38,-1.57,0.0,0.0,0.4,0.0,0.0,-1.2,1.57,0.0,0.0
3110.0,0.0,0.0,0.0,-1.52,0.0,0.0,-0.38,-1.57,0.0,0.0,0.4,0.0,0.0,-1.2,1.57,0.0,0.0
3120.0,0.0,0.0,0.0,-1.52,0.0,0.0,-0.38,-1.57,0.0,0.0,0.4,0.0,0.0,-1.2,1.57,0.0,0.0
3130.0,0.0,0.0,0.0,-1.52,0.0,0.0,-0.38,-1.57,0.0,0.0,0.4,0.0,0.0,-1.2,1.57,0.0,0.0
3140.0,0.0,0.0,0.0,-1.52,0.0,0.0,-0.38,-1.57,0.0,0.0,0.4,0.0,0.0,-1.2,1.57,0.0,0.0
3150.0,0.0,0.0,0.0,-1.52,0.0,0.0,-0.38,-1.57,0.0,0.0,0.4,0.0,0.0,-1.2,1.57,0.0,0.0
3160.0,0.0,0.0,0.0,-1.52,0.0,0.0,-0.38,-1.57,0.0,0.0,0.4,0.0,0.0,-1.2,1.57,0.0,0.0
3170.0,0.0,0.0,0.0,-1.52,0.0,0.0,-0.38,-1.57,0.0,0.0,0.4,0.0,0.0,-1.2,1.57,0.0,0.0
3180.0,0.0,0.0,0.0,-1.52,0.0,0.0,-0.38,-1.57,0.0,0.0,0.4,0.0,0.0,-1.2,1.57,0.0,0.0
3190.0,0.0,0.0,0.0,-1.52,0.0,0.0,-0.38,-1.57,0.0,0.0,0.4,0.0,0.0,-1.2,1.57,0.0,0.0
3200.0,0.0,0.0,0.0,-1.52,0.0,0.0,-0.38,-1.57,0.0,0.0,0.4,0.0,0.0,-1.2,1.57,0.0,0.0
3210.0,0.0,0.0,0.0,-1.52,0.0,0.0,-0.38,-1.57,0.0,0.0,0.4,0.0,0.0,-1.2,1.57,0.0,0.0
3220.0,0.0,0.0,0.0,-1.52,0.0,0.0,-0.38,-1.57,0.0,0.0,0.4,0.0,0.0,-1.2,1.57,0.0,0.0
3230.0,0.0,0.0,0.0,-1.52,0.0,0.0,-0.38,-1.57,0.0,0.0,0.4,0.0,0.0,-1.2,1.57,0.0,0.0
3240.0,0.0,0.0,0.0,-1.52,0.0,0.0,-0.38,-1.57,0.0,0.0,0.4,0.0,0.0,-1.2,1.57,0.0,0.0
3250.0,0.0,0.0,0.0,-1.52,0.0,0.0,-0.38,-1.57,0.0,0.0,0.4,0.0,0.0,-1.2,1.57,0.0,0.0
3260.0,0.0,0.0,0.0,-1.52,0.0,0.0,-0.38,-1.57,0.0,0.0,0.4,0.0,0.0,-1.2,1.57,0.0,0.0
3270.0,0.0,0.0,0.0,-1.52,0.0,0.0,-0.38,-1.57,0.0,0.0,0.4,0.0,0.0,-1.2,1.57,0.0,0.0
3280.0,0.0,0.0,0.0,-1.52,0.0,0.0,-0.38,-1.57,0.0,0.0,0.4,0.0,0.0,-1.2,1.57,0.0,0.0
3290.0,0.0,0.0,0.0,-1.52,0.0,0.0,-0.38,-1.57,0.0,0.0,0.4,0.0,0.0,-1.2,1.57,0.0,0.0
3300.0,0.0,0.0,0.0,-1.52,0.0,0.0,-0.38,-1.57,0.0,0.0,0.4,0.0,0.0,-1.2,1.57,0.0,0.0
3310.0,0.0,0.0,0.0,-1.52,0.0,0.0,-0.38,-1.57,0.0,0.0,0.4,0.0,0.0,-1.2,1.57,0.0,0.0
3320.0,0.0,0.0,0.0,-1.52,0.0,0.0,-0.38,-1.57,0.0,0.0,0.4,0.0,0.0,-1.2,1.57,0.0,0.0
3330.0,0.0,0.0,0.0,-1.52,0.0,0.0,-0.38,-1.57,0.0,0.0,0.4,0.0,0.0,-1.2,1.57,0.0,0.0
3340.0,0.0,0.0,0.0,-1.52,0.0,0.0,-0.38,-1.57,0.0,0.0,0.4,0.0,0.0,-1.2,1.57,0.0,0.0
3350.0,0.0,0.0,0.0,-1.52,0.0,0.0,-0.38,-1.57,0.0,0.0,0.4,0.0,0.0,-1.2,1.57,0.0,0.0
3360.0,0.0,0.0,0.0,-1.52,0.0,0.0,-0.38,-1.57,0.0,0.0,0.4,0.0,0.0,-1.2,1.57,0.0,0.0
3370.0,0.0,0.0,0.0,-1.52,0.0,0.0,-0.38,-1.57,0.0,0.0,0.4,0.0,0.0,-1.2,1.57,0.0,0.0
3380.0,0.0,0.0,0.0,-1.52,0.0,0.0,-0.38,-1.57,0.0,0.0,0.4,0.0,0.0,-1.2,1.57,0.0,0.0
3390.0,0.0,0.0,0.0,-1.52,0.0,0.0,-0.38,-1.57,0.0,0.0,0.4,0.0,0.0,-1.2,1.57,0.0,0.0
3400.0,0.0,0.0,0.0,-1.52,0.0,0.0,-0.38,-1.57,0.0,0.0,0.4,0.0,0.0,-1.2,1.57,0.0,0.0
3410.0,0.0,0.0,0.0,-1.52,0.0,0.0,-0.38,-1.57,0.0,0.0,0.4,0.0,0.0,-1.2,1.57,0.0,0.0
3420.0,0.0,0.0,0.0,-1.52,0.0,0.0,-0.38,-1.57,0.0,0.0,0.4,0.0,0.0,-1.2,1.57,0.0,0.0
3430.0,0.0,0.0,0.0,-1.52,0.0,0.0,-0.38,-1.57,0.0,0.0,0.4,0.0,0.0,-1.2,1.57,0.0,0.0
3440.0,0.0,0.0,0.0,-1.52,0.0,0.0,-0.38,-1.57,0.0,0.0,0.4,0.0,0.0,-1.2,1.57,0.0,0.0
3450.0,0.0,0.0,0.0,-1.52,0.0,0.0,-0.38,-1.57,0.0,0.0,0.4,0.0,0.0,-1.2,1.57,0.0,0.0
3460.0,0.0,0.0,0.0,-1.52,0.0,0.0,-0.38,-1.57,0.0,0.0,0.4,0.0,0.0,-1.2,1.57,0.0,0.0
3470.0,0.0,0.0,0.0,-1.52,0.0,0.0,-0.38,-1.57,0.0,0.0,0.4,0.0,0.0,-1.2,1.57,0.0,0.0
3480.0,0.0,0.0,0.0,-1.52,0.0,0.0,-0.38,-1.57,0.0,0.0,0.4,0.0,0.0,-1.2,1.57,0.0,0.0
3490.0,0.0,0.0,0.0,-1.52,0.0,0.0,-0.38,-1.57,0.0,0.0,0.4,0.0,0.0,-1.2,1.57,0.0,0.0
3500.0,0.0,0.0,0.0,-1.52,0.0,0.0,-0.38,-1.57,0.0,0.0,0.4,0.0,0.0,-1.2,1.57,0.0,0.0
3510.0,0.0,0.0,0.0,-1.52,0.0,0.0,-0.38,-1.57,0.0,0.0,0.4,0.0,0.0,-1.2,1.57,0.0,0.0
3520.0,0.0,0.0,0.0,-1.52,0.0,0.0,-0.38,-1.57,0.0,0.0,0.4,0.0,0.0,-1.2,1.57,0.0,0.0
3530.0,0.0,0.0,0.0,-1.52,0.0,0.0,-0.38,-1.57,0.0,0.0,0.4,0.0,0.0,-1.2,1.57,0.0,0.0
3540.0,0.0,0.0,0.0,-1.52,0.0,0.0,-0.38,-1.57,0.0,0.0,0.4,0.0,0.0,-1.2,1.57,0.0,0.0
3550.0,0.0,0.0,0.0,-1.52,0.0,0.0,-0.38,-1.57,0.0,0.0,0.4,0.0,0.0,-1.2,1.57,0.0,0.0
3560.0,0.0,0.0,0.0,-1.52,0.0,0.0,-0.38,-1.57,0.0,0.0,0.4,0.0,0.0,-1.2,1.57,0.0,0.0
3570.0,0.0,0.0,0.0,-1.52,0.0,0.0,-0.38,-1.57,0.0,0.0,0.4,0.0,0.0,-1.2,1.57,0.0,0.0
3580.0,0.0,0.0,0.0,-1.52,0.0,0.0,-0.38,-1.57,0.0,0.0,0.4,0.0,0.0,-1.2,1.57,0.0,0.0
3590.0,0.0,0.0,0.0,-1.52,0.0,0.0,-0.38,-1.57,0.0,0.0,0.4,0.0,0.0,-1.2,1.57,0.0,0.0
3600.0,0.0,0.0,0.0,-1.52,0.0,0.0,-0.38,-1.57,0.0,0.0,0.4,0.0,0.0,-1.2,1.57,0.0,0.0
3610.0,0.0,0.0,0.0,-1.52,0.0,0.0,-0.38,-1.57,0.0,0.0,0.4,0.0,0.0,-1.2,1.57,0.0,0.0
3620.0,0.0,0.0,0.0,-1.52,0.0,0.0,-0.38,-1.57,0.0,0.0,0.4,0.0,0.0,-1.2,1.57,0.0,0.0
3630.0,0.0,0.0,0.0,-1.52,0.0,0.0,-0.38,-1.57,0.0,0.0,0.4,0.0,0.0,-1.2,1.57,0.0,0.0
3640.0,0.0,0.0,0.0,-1.52,0.0,0.0,-0.38,-1.57,0.0,0.0,0.4,0.0,0.0,-1.2,1.57,0.0,0.0
3650.0,0.0,0.0,0.0,-1.52,0.0,0.0,-0.38,-1.57,0.0,0.0,0.4,0.0,0.0,-1.2,1.57,0.0,0.0
3660.0,0.0,0.0,0.0,-1.52,0.0,0.0,-0.38,-1.57,0.0,0.0,0.4,0.0,0.0,-1.2,1.57,0.0,0.0
3670.0,0.0,0.0,0.0,-1.52,0.0,0.0,-0.38,-1.57,0.0,0.0,0.4,0.0,0.0,-1.2,1.57,0.0,0.0
3680.0,0.0,0.0,0.0,-1.52,0.0,0.0,-0.38,-1.57,0.0,0.0,0.4,0.0,0.0,-1.2,1.57,0.0,0.0
3690.0,0.0,0.0,0.0,-1.52,0.0,0.0,-0.38,-1.57,0.0,0.0,0.4,0.0,0.0,-1.2,1.57,0.0,0.0
3700.0,0.0,0.0,0.0,-1.52,0.0,0.0,-0.38,-1.57,0.0,0.0,0.4,0.0,0.0,-1.2,1.57,0.0,0.0
3710.0,0.0,0.0,0.0,-1.52,0.0,0.0,-0.38,-1.57,0.0,0.0,0.4,0.0,0.0,-1.2,1.57,0.0,0.0
3720.0,0.0,0.0,0.0,-1.52,0.0,0.0,-0.38,-1.57,0.0,0.0,0.4,0.0,0.0,-1.2,1.57,0.0,0.0
3730.0,0.0,0.0,0.0,-1.52,0.0,0.0,-0.38,-1.57,0.0,0.0,0.4,0.0,0.0,-1.2,1.57,0.0,0.0
3740.0,0.0,0.0,0.0,-1.52,0.0,0.0,-0.38,-1.57,0.0,0.0,0.4,0.0,0.0,-1.2,1.57,0.0,0.0
3750.0,0.0,0.0,0.0,-1.52,0.0,0.0,-0.38,-1.57,0.0,0.0,0.4,0.0,0.0,-1.2,1.57,0.0,0.0
3760.0,0.0,0.0,0.0,-1.52,0.0,0.0,-0.38,-1.57,0.0,0.0,0.4,0.0,0.0,-1.2,1.57,0.0,0.0
3770.0,0.0,0.0,0.0,-1.52,0.0,0.0,-0.38,-1.57,0.0,0.0,0.4,0.0,0.0,-1.2,1.57,0.0,0.0
3780.0,0.0,0.0,0.0,-1.52,0.0,0.0,-0.38,-1.57,0.0,0.0,0.4,0.0,0.0,-1.2,1.57,0.0,0.0
3790.0,0.0,0.0,0.0,-1.52,0.0,0.0,-0.38,-1.57,0.0,0.0,0.4,0.0,0.0,-1.2,1.57,0.0,0.0
3800.0,0.0,0.0,0.0,-1.52,0.0,0.0,-0.38,-1.57,0.0,0.0,0.4,0.0,0.0,-1.2,1.57,0.0,0.0
3810.0,0.0,0.0,0.0,-1.52,0.0,0.0,-0.38,-1.57,0.0,0.0,0.4,0.0,0.0,-1.2,1.57,0.0,0.0
3820.0,0.0,0.0,0.0,-1.52,0.0,0.0,-0.38,-1.57,0.0,0.0,0.4,0.0,0.0,-1.2,1.57,0.0,0.0
3830.0,0.0,0.0,0.0,-1.52,0.0,0.0,-0.38,-1.57,0.0,0.0,0.4,0.0,0.0,-1.2,1.57,0.0,0.0
3840.0,0.0,0.0,0.0,-1.52,0.0,0.0,-0.38,-1.57,0.0,0.0,0.4,0.0,0.0,-1.2,1.57,0.0,0.0
3850.0,0.0,0.0,0.0,-1.52,0.0,0.0,-0.38,-1.57,0.0,0.0,0.4,0.0,0.0,-1.2,1.57,0.0,0.0
3860.0,0.0,0.0,0.0,-1.52,0.0,0.0,-0.38,-1.57,0.0,0.0,0.4,0.0,0.0,-1.2,1.57,0.0,0.0
3870.0,0.0,0.0,0.0,-1.52,0.0,0.0,-0.38,-1.57,0.0,0.0,0.4,0.0,0.0,-1.2,1.57,0.0,0.0
3880.0,0.0,0.0,0.0,-1.52,0.0,0.0,-0.38,-1.57,0.0,0.0,0.4,0.0,0.0,-1.2,1.57,0.0,0.0
3890.0,0.0,0.0,0.0,-1.52,0.0,0.0,-0.38,-1.57,0.0,0.0,0.4,0.0,0.0,-1.2,1.57,0.0,0.0
3900.0,0.0,0.0,0.0,-1.52,0.0,0.0,-0.38,-1.57,0.0,0.0,0.4,0.0,0.0,-1.2,1.57,0.0,0.0
3910.0,0.0,0.0,0.0,-1.52,0.0,0.0,-0.38,-1.57,0.0,0.0,0.4,0.0,0.0,-1.2,1.57,0.0,0.0
3920.0,0.0,0.0,0.0,-1.52,0.0,0.0,-0.38,-1.57,0.0,0.0,0.4,0.0,0.0,-1.2,1.57,0.0,0.0
3930.0,0.0,0.0,0.0,-1.52,0.0,0.0,-0.38,-1.57,0.0,0.0,0.4,0.0,0.0,-1.2,1.57,0.0,0.0
3940.0,0.0,0.0,0.0,-1.52,0.0,0.0,-0.38,-1.57,0.0,0.0,0.4,0.0,0.0,-1.2,1.57,0.0,0.0
3950.0,0.0,0.0,0.0,-1.52,0.0,0.0,-0.38,-1.57,0.0,0.0,0.4,0.0,0.0,-1.2,1.57,0.0,0.0
3960.0,0.0,0.0,0.0,-1.52,0.0,0.0,-0.38,-1.57,0.0,0.0,0.4,0.0,0.0,-1.2,1.57,0.0,0.0
3970.0,0.0,0.0,0.0,-1.52,0.0,0.0,-0.38,-1.57,0.0,0.0,0.4,0.0,0.0,-1.2,1.57,0.0,0.0
3980.0,0.0,0.0,0.0,-1.52,0.0,0.0,-0.38,-1.57,0.0,0.0,0.4,0.0,0.0,-1.2,1.57,0.0,0.0
3990.0,0.0,0.0,0.0,-1.52,0.0,0.0,-0.38,-1.57,0.0,0.0,0.4,0.0,0.0,-1.2,1.57,0.0,0.0
4000.0,0.0,0.0,0.0,-1.52,0.0,0.0,-0.38,-1.57,0.0,0.0,0.4,0.0,0.0,-1.2,1.57,0.0,0.0
4010.0,0.0,0.0,0.0,-1.5072,0.0,0.0,-0.3854666666666667,-1.57,0.0,0.0,0.4,0.0,0.0,-1.2,1.57,0.0,0.0
4020.0,0.0,0.0,0.0,-1.4944,0.0,0.0,-0.39093333333333335,-1.57,0.0,0.0,0.4,0.0,0.0,-1.2,1.57,0.0,0.0
4030.0,0.0,0.0,0.0,-1.4816,0.0,0.0,-0.3964,-1.57,0.0,0.0,0.4,0.0,0.0,-1.2,1.57,0.0,0.0
4040.0,0.0,0.0,0.0,-1.4688,0.0,0.0,-0.40186666666666665,-1.57,0.0,0.0,0.4,0.0,0.0,-1.2,1.57,0.0,0.0
4050.0,0.0,0.0,0.0,-1.456,0.0,0.0,-0.4073333333333333,-1.57,0.0,0.0,0.4,0.0,0.0,-1.2,1.57,0.0,0.0
4060.0,0.0,0.0,0.0,-1.4432,0.0,0.0,-0.4128,-1.57,0.0,0.0,0.4,0.0,0.0,-1.2,1.57,0.0,0.0
4070.0,0.0,0.0,0.0,-1.4304000000000001,0.0,0.0,-0.4182666666666667,-1.57,0.0,0.0,0.4,0.0,0.0,-1.2,1.57,0.0,0.0
4080.0,0.0,0.0,0.0,-1.4176,0.0,0.0,-0.42373333333333335,-1.57,0.0,0.0,0.4,0.0,0.0,-1.2,1.57,0.0,0.0
4090.0,0.0,0.0,0.0,-1.4048,0.0,0.0,-0.4292,-1.57,0.0,0.0,0.4,0.0,0.0,-1.2,1.57,0.0,0.0
4100.0,0.0,0.0,0.0,-1.392,0.0,0.0,-0.43466666666666665,-1.57,0.0,0.0,0.4,0.0,0.0,-1.2,1.57,0.0,0.0
4110.0,0.0,0.0,0.0,-1.3792,0.0,0.0,-0.4401333333333333,-1.57,0.0,0.0,0.4,0.0,0.0,-1.2,1.57,0.0,0.0
4120.0,0.0,0.0,0.0,-1.3664,0.0,0.0,-0.4456,-1.57,0.0,0.0,0.4,0.0,0.0,-1.2,1.57,0.0,0.0
4130.0,0.0,0.0,0.0,-1.3536000000000001,0.0,0.0,-0.45106666666666667,-1.57,0.0,0.0,0.4,0.0,0.0,-1.2,1.57,0.0,0.0
4140.0,0.0,0.0,0.0,-1.3408,0.0,0.0,-0.45653333333333335,-1.57,0.0,0.0,0.4,0.0,0.0,-1.2,1.57,0.0,0.0
4150.0,0.0,0.0,0.0,-1.328,0.0,0.0,-0.462,-1.57,0.0,0.0,0.4,0.0,0.0,-1.2,1.57,0.0,0.0
4160.0,0.0,0.0,0.0,-1.3152,0.0,0.0,-0.4674666666666667,-1.57,0.0,0.0,0.4,0.0,0.0,-1.2,1.57,0.0,0.0
4170.0,0.0,0.0,0.0,-1.3024,0.0,0.0,-0.4729333333333333,-1.57,0.0,0.0,0.4,0.0,0.0,-1.2,1.57,0.0,0.0
4180.0,0.0,0.0,0.0,-1.2896,0.0,0.0,-0.4784,-1.57,0.0,0.0,0.4,0.0,0.0,-1.2,1.57,0.0,0.0
4190.0,0.0,0.0,0.0,-1.2768000000000002,0.0,0.0,-0.48386666666666667,-1.57,0.0,0.0,0.4,0.0,0.0,-1.2,1.57,0.0,0.0
4200.0,0.0,0.0,0.0,-1.264,0.0,0.0,-0.48933333333333334,-1.57,0.0,0.0,0.4,0.0,0.0,-1.2,1.57,0.0,0.0
4210.0,0.0,0.0,0.0,-1.2512,0.0,0.0,-0.4948,-1.57,0.0,0.0,0.4,0.0,0.0,-1.2,1.57,0.0,0.0
4220.0,0.0,0.0,0.0,-1.2384,0.0,0.0,-0.5002666666666666,-1.57,0.0,0.0,0.4,0.0,0.0,-1.2,1.57,0.0,0.0
4230.0,0.0,0.0,0.0,-1.2256,0.0,0.0,-0.5057333333333334,-1.57,0.0,0.0,0.4,0.0,0.0,-1.2,1.57,0.0,0.0
4240.0,0.0,0.0,0.0,-1.2128,0.0,0.0,-0.5112,-1.57,0.0,0.0,0.4,0.0,0.0,-1.2,1.57,0.0,0.0
4250.0,0.0,0.0,0.0,-1.2000000000000002,0.0,0.0,-0.5166666666666666,-1.57,0.0,0.0,0.4,0.0,0.0,-1.2,1.57,0.0,0.0
4260.0,0.0,0.0,0.0,-1.1872,0.0,0.0,-0.5221333333333333,-1.57,0.0,0.0,0.4,0.0,0.0,-1.2,1.57,0.0,0.0
4270.0,0.0,0.0,0.0,-1.1744,0.0,0.0,-0.5276000000000001,-1.57,0.0,0.0,0.4,0.0,0.0,-1.2,1.57,0.0,0.0
4280.0,0.0,0.0,0.0,-1.1616,0.0,0.0,-0.5330666666666667,-1.57,0.0,0.0,0.4,0.0,0.0,-1.2,1.57,0.0,0.0
4290.0,0.0,0.0,0.0,-1.1488,0.0,0.0,-0.5385333333333333,-1.57,0.0,0.0,0.4,0.0,0.0,-1.2,1.57,0.0,0.0
4300.0,0.0,0.0,0.0,-1.1360000000000001,0.0,0.0,-0.544,-1.57,0.0,0.0,0.4,0.0,0.0,-1.2,1.57,0.0,0.0
4310.0,0.0,0.0,0.0,-1.1232,0.0,0.0,-0.5494666666666667,-1.57,0.0,0.0,0.4,0.0,0.0,-1.2,1.57,0.0,0.0
4320.0,0.0,0.0,0.0,-1.1104,0.0,0.0,-0.5549333333333333,-1.57,0.0,0.0,0.4,0.0,0.0,-1.2,1.57,0.0,0.0
4330.0,0.0,0.0,0.0,-1.0976000000000001,0.0,0.0,-0.5604,-1.57,0.0,0.0,0.4,0.0,0.0,-1.2,1.57,0.0,0.0
4340.0,0.0,0.0,0.0,-1.0848,0.0,0.0,-0.5658666666666666,-1.57,0.0,0.0,0.4,0.0,0.0,-1.2,1.57,0.0,0.0
4350.0,0.0,0.0,0.0,-1.072,0.0,0.0,-0.5713333333333334,-1.57,0.0,0.0,0.4,0.0,0.0,-1.2,1.57,0.0,0.0
4360.0,0.0,0.0,0.0,-1.0592000000000001,0.0,0.0,-0.5768,-1.57,0.0,0.0,0.4,0.0,0.0,-1.2,1.57,0.0,0.0
4370.0,0.0,0.0,0.0,-1.0464,0.0,0.0,-0.5822666666666667,-1.57,0.0,0.0,0.4,0.0,0.0,-1.2,1.57,0.0,0.0
4380.0,0.0,0.0,0.0,-1.0336,0.0,0.0,-0.5877333333333333,-1.57,0.0,0.0,0.4,0.0,0.0,-1.2,1.57,0.0,0.0
4390.0,0.0,0.0,0.0,-1.0208,0.0,0.0,-0.5932,-1.57,0.0,0.0,0.4,0.0,0.0,-1.2,1.57,0.0,0.0
4400.0,0.0,0.0,0.0,-1.008,0.0,0.0,-0.5986666666666667,-1.57,0.0,0.0,0.4,0.0,0.0,-1.2,1.57,0.0,0.0
4410.0,0.0,0.0,0.0,-0.9952000000000001,0.0,0.0,-0.6041333333333333,-1.57,0.0,0.0,0.4,0.0,0.0,-1.2,1.57,0.0,0.0
4420.0,0.0,0.0,0.0,-0.9824,0.0,0.0,-0.6096,-1.57,0.0,0.0,0.4,0.0,0.0,-1.2,1.57,0.0,0.0
4430.0,0.0,0.0,0.0,-0.9696,0.0,0.0,-0.6150666666666667,-1.57,0.0,0.0,0.4,0.0,0.0,-1.2,1.57,0.0,0.0
4440.0,0.0,0.0,0.0,-0.9568000000000001,0.0,0.0,-0.6205333333333334,-1.57,0.0,0.0,0.4,0.0,0.0,-1.2,1.57,0.0,0.0
4450.0,0.0,0.0,0.0,-0.9440000000000001,0.0,0.0,-0.626,-1.57,0.0,0.0,0.4,0.0,0.0,-1.2,1.57,0.0,0.0
4460.0,0.0,0.0,0.0,-0.9312,0.0,0.0,-0.6314666666666666,-1.57,0.0,0.0,0.4,0.0,0.0,-1.2,1.57,0.0,0.0
4470.0,0.0,0.0,0.0,-0.9184000000000001,0.0,0.0,-0.6369333333333334,-1.57,0.0,0.0,0.4,0.0,0.0,-1.2,1.57,0.0,0.0
4480.0,0.0,0.0,0.0,-0.9056000000000001,0.0,0.0,-0.6424,-1.57,0.0,0.0,0.4,0.0,0.0,-1.2,1.57,0.0,0.0
4490.0,0.0,0.0,0.0,-0.8928,0.0,0.0,-0.6478666666666666,-1.57,0.0,0.0,0.4,0.0,0.0,-1.2,1.57,0.0,0.0
4500.0,0.0,0.0,0.0,-0.8800000000000001,0.0,0.0,-0.6533333333333333,-1.57,0.0,0.0,0.4,0.0,0.0,-1.2,1.57,0.0,0.0
4510.0,0.0,0.0,0.0,-0.8672000000000001,0.0,0.0,-0.6588,-1.57,0.0,0.0,0.4,0.0,0.0,-1.2,1.57,0.0,0.0
4520.0,0.0,0.0,0.0,-0.8544,0.0,0.0,-0.6642666666666667,-1.57,0.0,0.0,0.4,0.0,0.0,-1.2,1.57,0.0,0.0
4530.0,0.0,0.0,0.0,-0.8416000000000001,0.0,0.0,-0.6697333333333333,-1.57,0.0,0.0,0.4,0.0,0.0,-1.2,1.57,0.0,0.0
4540.0,0.0,0.0,0.0,-0.8288000000000001,0.0,0.0,-0.6752,-1.57,0.0,0.0,0.4,0.0,0.0,-1.2,1.57,0.0,0.0
4550.0,0.0,0.0,0.0,-0.8160000000000001,0.0,0.0,-0.6806666666666666,-1.57,0.0,0.0,0.4,0.0,0.0,-1.2,1.57,0.0,0.0
4560.0,0.0,0.0,0.0,-0.8032000000000001,0.0,0.0,-0.6861333333333333,-1.57,0.0,0.0,0.4,0.0,0.0,-1.2,1.57,0.0,0.0
4570.0,0.0,0.0,0.0,-0.7904000000000001,0.0,0.0,-0.6916,-1.57,0.0,0.0,0.4,0.0,0.0,-1.2,1.57,0.0,0.0
4580.0,0.0,0.0,0.0,-0.7776000000000001,0.0,0.0,-0.6970666666666667,-1.57,0.0,0.0,0.4,0.0,0.0,-1.2,1.57,0.0,0.0
4590.0,0.0,0.0,0.0,-0.7648,0.0,0.0,-0.7025333333333333,-1.57,0.0,0.0,0.4,0.0,0.0,-1.2,1.57,0.0,0.0
4600.0,0.0,0.0,0.0,-0.7520000000000001,0.0,0.0,-0.708,-1.57,0.0,0.0,0.4,0.0,0.0,-1.2,1.57,0.0,0.0
4610.0,0.0,0.0,0.0,-0.7392000000000001,0.0,0.0,-0.7134666666666667,-1.57,0.0,0.0,0.4,0.0,0.0,-1.2,1.57,0.0,0.0
4620.0,0.0,0.0,0.0,-0.7264,0.0,0.0,-0.7189333333333333,-1.57,0.0,0.0,0.4,0.0,0.0,-1.2,1.57,0.0,0.0
4630.0,0.0,0.0,0.0,-0.7136000000000001,0.0,0.0,-0.7243999999999999,-1.57,0.0,0.0,0.4,0.0,0.0,-1.2,1.57,0.0,0.0
4640.0,0.0,0.0,0.0,-0.7008000000000001,0.0,0.0,-0.7298666666666667,-1.57,0.0,0.0,0.4,0.0,0.0,-1.2,1.57,0.0,0.0
4650.0,0.0,0.0,0.0,-0.6880000000000001,0.0,0.0,-0.7353333333333334,-1.57,0.0,0.0,0.4,0.0,0.0,-1.2,1.57,0.0,0.0
4660.0,0.0,0.0,0.0,-0.6752000000000001,0.0,0.0,-0.7408,-1.57,0.0,0.0,0.4,0.0,0.0,-1.2,1.57,0.0,0.0
4670.0,0.0,0.0,0.0,-0.6624000000000001,0.0,0.0,-0.7462666666666666,-1.57,0.0,0.0,0.4,0.0,0.0,-1.2,1.57,0.0,0.0
4680.0,0.0,0.0,0.0,-0.6496000000000001,0.0,0.0,-0.7517333333333334,-1.57,0.0,0.0,0.4,0.0,0.0,-1.2,1.57,0.0,0.0
4690.0,0.0,0.0,0.0,-0.6368000000000001,0.0,0.0,-0.7572,-1.57,0.0,0.0,0.4,0.0,0.0,-1.2,1.57,0.0,0.0
4700.0,0.0,0.0,0.0,-0.6240000000000001,0.0,0.0,-0.7626666666666666,-1.57,0.0,0.0,0.4,0.0,0.0,-1.2,1.57,0.0,0.0
4710.0,0.0,0.0,0.0,-0.6112000000000001,0.0,0.0,-0.7681333333333333,-1.57,0.0,0.0,0.4,0.0,0.0,-1.2,1.57,0.0,0.0
4720.0,0.0,0.0,0.0,-0.5984,0.0,0.0,-0.7736000000000001,-1.57,0.0,0.0,0.4,0.0,0.0,-1.2,1.57,0.0,0.0
4730.0,0.0,0.0,0.0,-0.5856000000000001,0.0,0.0,-0.7790666666666667,-1.57,0.0,0.0,0.4,0.0,0.0,-1.2,1.57,0.0,0.0
4740.0,0.0,0.0,0.0,-0.5728000000000001,0.0,0.0,-0.7845333333333333,-1.57,0.0,0.0,0.4,0.0,0.0,-1.2,1.57,0.0,0.0
4750.0,0.0,0.0,0.0,-0.56,0.0,0.0,-0.79,-1.57,0.0,0.0,0.4,0.0,0.0,-1.2,1.57,0.0,0.0
4760.0,0.0,0.0,0.0,-0.5472000000000001,0.0,0.0,-0.7954666666666667,-1.57,0.0,0.0,0.4,0.0,0.0,-1.2,1.57,0.0,0.0
4770.0,0.0,0.0,0.0,-0.5344000000000001,0.0,0.0,-0.8009333333333333,-1.57,0.0,0.0,0.4,0.0,0.0,-1.2,1.57,0.0,0.0
4780.0,0.0,0.0,0.0,-0.5216000000000001,0.0,0.0,-0.8064,-1.57,0.0,0.0,0.4,0.0,0.0,-1.2,1.57,0.0,0.0
4790.0,0.0,0.0,0.0,-0.5088000000000001,0.0,0.0,-0.8118666666666667,-1.57,0.0,0.0,0.4,0.0,0.0,-1.2,1.57,0.0,0.0
4800.0,0.0,0.0,0.0,-0.496,0.0,0.0,-0.8173333333333334,-1.57,0.0,0.0,0.4,0.0,0.0,-1.2,1.57,0.0,0.0
4810.0,0.0,0.0,0.0,-0.4832000000000001,0.0,0.0,-0.8228,-1.57,0.0,0.0,0.4,0.0,0.0,-1.2,1.57,0.0,0.0
4820.0,0.0,0.0,0.0,-0.47040000000000015,0.0,0.0,-0.8282666666666667,-1.57,0.0,0.0,0.4,0.0,0.0,-1.2,1.57,0.0,0.0
4830.0,0.0,0.0,0.0,-0.4576,0.0,0.0,-0.8337333333333333,-1.57,0.0,0.0,0.4,0.0,0.0,-1.2,1.57,0.0,0.0
4840.0,0.0,0.0,0.0,-0.4448000000000001,0.0,0.0,-0.8392,-1.57,0.0,0.0,0.4,0.0,0.0,-1.2,1.57,0.0,0.0
4850.0,0.0,0.0,0.0,-0.43200000000000016,0.0,0.0,-0.8446666666666667,-1.57,0.0,0.0,0.4,0.0,0.0,-1.2,1.57,0.0,0.0
4860.0,0.0,0.0,0.0,-0.4192,0.0,0.0,-0.8501333333333334,-1.57,0.0,0.0,0.4,0.0,0.0,-1.2,1.57,0.0,0.0
4870.0,0.0,0.0,0.0,-0.4064000000000001,0.0,0.0,-0.8555999999999999,-1.57,0.0,0.0,0.4,0.0,0.0,-1.2,1.57,0.0,0.0
4880.0,0.0,0.0,0.0,-0.39360000000000017,0.0,0.0,-0.8610666666666666,-1.57,0.0,0.0,0.4,0.0,0.0,-1.2,1.57,0.0,0.0
4890.0,0.0,0.0,0.0,-0.3808,0.0,0.0,-0.8665333333333334,-1.57,0.0,0.0,0.4,0.0,0.0,-1.2,1.57,0.0,0.0
4900.0,0.0,0.0,0.0,-0.3680000000000001,0.0,0.0,-0.872,-1.57,0.0,0.0,0.4,0.0,0.0,-1.2,1.57,0.0,0.0
4910.0,0.0,0.0,0.0,-0.3552000000000002,0.0,0.0,-0.8774666666666666,-1.57,0.0,0.0,0.4,0.0,0.0,-1.2,1.57,0.0,0.0
4920.0,0.0,0.0,0.0,-0.34240000000000004,0.0,0.0,-0.8829333333333333,-1.57,0.0,0.0,0.4,0.0,0.0,-1.2,1.57,0.0,0.0
4930.0,0.0,0.0,0.0,-0.3296000000000001,0.0,0.0,-0.8884,-1.57,0.0,0.0,0.4,0.0,0.0,-1.2,1.57,0.0,0.0
4940.0,0.0,0.0,0.0,-0.3168000000000002,0.0,0.0,-0.8938666666666667,-1.57,0.0,0.0,0.4,0.0,0.0,-1.2,1.57,0.0,0.0
4950.0,0.0,0.0,0.0,-0.30400000000000005,0.0,0.0,-0.8993333333333333,-1.57,0.0,0.0,0.4,0.0,0.0,-1.2,1.57,0.0,0.0
4960.0,0.0,0.0,0.0,-0.2912000000000001,0.0,0.0,-0.9047999999999999,-1.57,0.0,0.0,0.4,0.0,0.0,-1.2,1.57,0.0,0.0
4970.0,0.0,0.0,0.0,-0.2784000000000002,0.0,0.0,-0.9102666666666667,-1.57,0.0,0.0,0.4,0.0,0.0,-1.2,1.57,0.0,0.0
4980.0,0.0,0.0,0.0,-0.26560000000000006,0.0,0.0,-0.9157333333333333,-1.57,0.0,0.0,0.4,0.0,0.0,-1.2,1.57,0.0,0.0
4990.0,0.0,0.0,0.0,-0.25280000000000014,0.0,0.0,-0.9212,-1.57,0.0,0.0,0.4,0.0,0.0,-1.2,1.57,0.0,0.0
5000.0,0.0,0.0,0.0,-0.2400000000000002,0.0,0.0,-0.9266666666666666,-1.57,0.0,0.0,0.4,0.0,0.0,-1.2,1.57,0.0,0.0
5010.0,0.0,0.0,0.0,-0.22720000000000007,0.0,0.0,-0.9321333333333334,-1.57,0.0,0.0,0.4,0.0,0.0,-1.2,1.57,0.0,0.0
5020.0,0.0,0.0,0.0,-0.21440000000000015,0.0,0.0,-0.9376,-1.57,0.0,0.0,0.4,0.0,0.0,-1.2,1.57,0.0,0.0
5030.0,0.0,0.0,0.0,-0.20160000000000022,0.0,0.0,-0.9430666666666666,-1.57,0.0,0.0,0.4,0.0,0.0,-1.2,1.57,0.0,0.0
5040.0,0.0,0.0,0.0,-0.18880000000000008,0.0,0.0,-0.9485333333333333,-1.57,0.0,0.0,0.4,0.0,0.0,-1.2,1.57,0.0,0.0
5050.0,0.0,0.0,0.0,-0.17600000000000016,0.0,0.0,-0.954,-1.57,0.0,0.0,0.4,0.0,0.0,-1.2,1.57,0.0,0.0
5060.0,0.0,0.0,0.0,-0.16320000000000023,0.0,0.0,-0.9594666666666667,-1.57,0.0,0.0,0.4,0.0,0.0,-1.2,1.57,0.0,0.0
5070.0,0.0,0.0,0.0,-0.1504000000000001,0.0,0.0,-0.9649333333333333,-1.57,0.0,0.0,0.4,0.0,0.0,-1.2,1.57,0.0,0.0
5080.0,0.0,0.0,0.0,-0.13760000000000017,0.0,0.0,-0.9704,-1.57,0.0,0.0,0.4,0.0,0.0,-1.2,1.57,0.0,0.0
5090.0,0.0,0.0,0.0,-0.12480000000000024,0.0,0.0,-0.9758666666666667,-1.57,0.0,0.0,0.4,0.0,0.0,-1.2,1.57,0.0,0.0
5100.0,0.0,0.0,0.0,-0.1120000000000001,0.0,0.0,-0.9813333333333333,-1.57,0.0,0.0,0.4,0.0,0.0,-1.2,1.57,0.0,0.0
5110.0,0.0,0.0,0.0,-0.09920000000000018,0.0,0.0,-0.9868,-1.57,0.0,0.0,0.4,0.0,0.0,-1.2,1.57,0.0,0.0
5120.0,0.0,0.0,0.0,-0.08640000000000025,0.0,0.0,-0.9922666666666666,-1.57,0.0,0.0,0.4,0.0,0.0,-1.2,1.57,0.0,0.0
5130.0,0.0,0.0,0.0,-0.07360000000000011,0.0,0.0,-0.9977333333333334,-1.57,0.0,0.0,0.4,0.0,0.0,-1.2,1.57,0.0,0.0
5140.0,0.0,0.0,0.0,-0.06080000000000019,0.0,0.0,-1.0032,-1.57,0.0,0.0,0.4,0.0,0.0,-1.2,1.57,0.0,0.0
5150.0,0.0,0.0,0.0,-0.04800000000000004,0.0,0.0,-1.0086666666666666,-1.57,0.0,0.0,0.4,0.0,0.0,-1.2,1.57,0.0,0.0
5160.0,0.0,0.0,0.0,-0.03520000000000012,0.0,0.0,-1.0141333333333333,-1.57,0.0,0.0,0.4,0.0,0.0,-1.2,1.57,0.0,0.0
5170.0,0.0,0.0,0.0,-0.022400000000000198,0.0,0.0,-1.0196,-1.57,0.0,0.0,0.4,0.0,0.0,-1.2,1.57,0.0,0.0
5180.0,0.0,0.0,0.0,-0.009600000000000053,0.0,0.0,-1.0250666666666666,-1.57,0.0,0.0,0.4,0.0,0.0,-1.2,1.57,0.0,0.0
5190.0,0.0,0.0,0.0,0.0031999999999998696,0.0,0.0,-1.0305333333333333,-1.57,0.0,0.0,0.4,0.0,0.0,-1.2,1.57,0.0,0.0
5200.0,0.0,0.0,0.0,0.015999999999999792,0.0,0.0,-1.036,-1.57,0.0,0.0,0.4,0.0,0.0,-1.2,1.57,0.0,0.0
5210.0,0.0,0.0,0.0,0.028799999999999937,0.0,0.0,-1.0414666666666665,-1.57,0.0,0.0,0.4,0.0,0.0,-1.2,1.57,0.0,0.0
5220.0,0.0,0.0,0.0,0.04159999999999986,0.0,0.0,-1.0469333333333333,-1.57,0.0,0.0,0.4,0.0,0.0,-1.2,1.57,0.0,0.0
5230.0,0.0,0.0,0.0,0.05439999999999978,0.0,0.0,-1.0524,-1.57,0.0,0.0,0.4,0.0,0.0,-1.2,1.57,0.0,0.0
5240.0,0.0,0.0,0.0,0.06719999999999993,0.0,0.0,-1.0578666666666665,-1.57,0.0,0.0,0.4,0.0,0.0,-1.2,1.57,0.0,0.0
5250.0,0.0,0.0,0.0,0.07999999999999985,0.0,0.0,-1.0633333333333335,-1.57,0.0,0.0,0.4,0.0,0.0,-1.2,1.57,0.0,0.0
5260.0,0.0,0.0,0.0,0.09279999999999977,0.0,0.0,-1.0688,-1.57,0.0,0.0,0.4,0.0,0.0,-1.2,1.57,0.0,0.0
5270.0,0.0,0.0,0.0,0.10559999999999992,0.0,0.0,-1.0742666666666667,-1.57,0.0,0.0,0.4,0.0,0.0,-1.2,1.57,0.0,0.0
5280.0,0.0,0.0,0.0,0.11839999999999984,0.0,0.0,-1.0797333333333334,-1.57,0.0,0.0,0.4,0.0,0.0,-1.2,1.57,0.0,0.0
5290.0,0.0,0.0,0.0,0.13119999999999976,0.0,0.0,-1.0852,-1.57,0.0,0.0,0.4,0.0,0.0,-1.2,1.57,0.0,0.0
5300.0,0.0,0.0,0.0,0.1439999999999999,0.0,0.0,-1.0906666666666667,-1.57,0.0,0.0,0.4,0.0,0.0,-1.2,1.57,0.0,0.0
5310.0,0.0,0.0,0.0,0.15679999999999983,0.0,0.0,-1.0961333333333334,-1.57,0.0,0.0,0.4,0.0,0.0,-1.2,1.57,0.0,0.0
5320.0,0.0,0.0,0.0,0.16959999999999975,0.0,0.0,-1.1016,-1.57,0.0,0.0,0.4,0.0,0.0,-1.2,1.57,0.0,0.0
5330.0,0.0,0.0,0.0,0.1823999999999999,0.0,0.0,-1.1070666666666666,-1.57,0.0,0.0,0.4,0.0,0.0,-1.2,1.57,0.0,0.0
5340.0,0.0,0.0,0.0,0.19519999999999982,0.0,0.0,-1.1125333333333334,-1.57,0.0,0.0,0.4,0.0,0.0,-1.2,1.57,0.0,0.0
5350.0,0.0,0.0,0.0,0.20799999999999974,0.0,0.0,-1.1179999999999999,-1.57,0.0,0.0,0.4,0.0,0.0,-1.2,1.57,0.0,0.0
5360.0,0.0,0.0,0.0,0.22079999999999989,0.0,0.0,-1.1234666666666666,-1.57,0.0,0.0,0.4,0.0,0.0,-1.2,1.57,0.0,0.0
5370.0,0.0,0.0,0.0,0.2335999999999998,0.0,0.0,-1.1289333333333333,-1.57,0.0,0.0,0.4,0.0,0.0,-1.2,1.57,0.0,0.0
5380.0,0.0,0.0,0.0,0.24639999999999973,0.0,0.0,-1.1343999999999999,-1.57,0.0,0.0,0.4,0.0,0.0,-1.2,1.57,0.0,0.0
5390.0,0.0,0.0,0.0,0.2591999999999999,0.0,0.0,-1.1398666666666668,-1.57,0.0,0.0,0.4,0.0,0.0,-1.2,1.57,0.0,0.0
5400.0,0.0,0.0,0.0,0.2719999999999998,0.0,0.0,-1.1453333333333333,-1.57,0.0,0.0,0.4,0.0,0.0,-1.2,1.57,0.0,0.0
5410.0,0.0,0.0,0.0,0.2847999999999997,0.0,0.0,-1.1507999999999998,-1.57,0.0,0.0,0.4,0.0,0.0,-1.2,1.57,0.0,0.0
5420.0,0.0,0.0,0.0,0.29759999999999986,0.0,0.0,-1.1562666666666668,-1.57,0.0,0.0,0.4,0.0,0.0,-1.2,1.57,0.0,0.0
5430.0,0.0,0.0,0.0,0.3103999999999998,0.0,0.0,-1.1617333333333333,-1.57,0.0,0.0,0.4,0.0,0.0,-1.2,1.57,0.0,0.0
5440.0,0.0,0.0,0.0,0.32319999999999993,0.0,0.0,-1.1672,-1.57,0.0,0.0,0.4,0.0,0.0,-1.2,1.57,0.0,0.0
5450.0,0.0,0.0,0.0,0.33599999999999985,0.0,0.0,-1.1726666666666667,-1.57,0.0,0.0,0.4,0.0,0.0,-1.2,1.57,0.0,0.0
5460.0,0.0,0.0,0.0,0.3487999999999998,0.0,0.0,-1.1781333333333333,-1.57,0.0,0.0,0.4,0.0,0.0,-1.2,1.57,0.0,0.0
5470.0,0.0,0.0,0.0,0.3615999999999999,0.0,0.0,-1.1836,-1.57,0.0,0.0,0.4,0.0,0.0,-1.2,1.57,0.0,0.0
5480.0,0.0,0.0,0.0,0.37439999999999984,0.0,0.0,-1.1890666666666667,-1.57,0.0,0.0,0.4,0.0,0.0,-1.2,1.57,0.0,0.0
5490.0,0.0,0.0,0.0,0.38719999999999977,0.0,0.0,-1.1945333333333332,-1.57,0.0,0.0,0.4,0.0,0.0,-1.2,1.57,0.0,0.0
5500.0,0.0,0.0,0.0,0.4,0.0,0.0,-1.2,-1.57,0.0,0.0,0.4,0.0,0.0,-1.2,1.57,0.0,0.0
