jplin123/TWIST/assets/upper_body_csv/SM_raise_right_hand.csv
timeCNT,planningAngle::waist_yaw_joint,planningAngle::waist_pitch_joint,planningAngle::waist_roll_joint,planningAngle::left_shoulder_pitch_joint,planningAngle::left_shoulder_roll_joint,planningAngle::left_shoulder_yaw_joint,planningAngle::left_elbow_joint,planningAngle::left_wrist_yaw_joint,planningAngle::left_wrist_pitch_joint,planningAngle::left_wrist_roll_joint,planningAngle::right_shoulder_pitch_joint,planningAngle::right_shoulder_roll_joint,planningAngle::right_shoulder_yaw_joint,planningAngle::right_elbow_joint,planningAngle::right_wrist_yaw_joint,planningAngle::right_wrist_pitch_joint,planningAngle::right_wrist_roll_joint
0.0,0.0,0.0,0.0,0.4,0.0,0.0,-1.2,-1.57,0.0,0.0,0.4,0.0,0.0,-1.2,1.57,0.0,0.0
10.0,0.0,0.0,0.0,0.4,0.0,0.0,-1.2,-1.57,0.0,0.0,0.3802666666666667,0.0,0.0,-1.1964,1.5582,0.0,0.0
20.0,0.0,0.0,0.0,0.4,0.0,0.0,-1.2,-1.57,0.0,0.0,0.3605333333333334,0.0,0.0,-1.1927999999999999,1.5464,0.0,0.0
30.0,0.0,0.0,0.0,0.4,0.0,0.0,-1.2,-1.57,0.0,0.0,0.3408,0.0,0.0,-1.1892,1.5346,0.0,0.0
40.0,0.0,0.0,0.0,0.4,0.0,0.0,-1.2,-1.57,0.0,0.0,0.32106666666666667,0.0,0.0,-1.1856,1.5228000000000002,0.0,0.0
50.0,0.0,0.0,0.0,0.4,0.0,0.0,-1.2,-1.57,0.0,0.0,0.30133333333333334,0.0,0.0,-1.182,1.5110000000000001,0.0,0.0
60.0,0.0,0.0,0.0,0.4,0.0,0.0,-1.2,-1.57,0.0,0.0,0.2816,0.0,0.0,-1.1784,1.4992,0.0,0.0
70.0,0.0,0.0,0.0,0.4,0.0,0.0,-1.2,-1.57,0.0,0.0,0.2618666666666667,0.0,0.0,-1.1748,1.4874,0.0,0.0
80.0,0.0,0.0,0.0,0.4,0.0,0.0,-1.2,-1.57,0.0,0.0,0.24213333333333334,0.0,0.0,-1.1712,1.4756,0.0,0.0
90.0,0.0,0.0,0.0,0.4,0.0,0.0,-1.2,-1.57,0.0,0.0,0.22240000000000001,0.0,0.0,-1.1676,1.4638,0.0,0.0
100.0,0.0,0.0,0.0,0.4,0.0,0.0,-1.2,-1.57,0.0,0.0,0.2026666666666667,0.0,0.0,-1.164,1.452,0.0,0.0
110.0,0.0,0.0,0.0,0.4,0.0,0.0,-1.2,-1.57,0.0,0.0,0.18293333333333334,0.0,0.0,-1.1603999999999999,1.4402000000000001,0.0,0.0
120.0,0.0,0.0,0.0,0.4,0.0,0.0,-1.2,-1.57,0.0,0.0,0.1632,0.0,0.0,-1.1568,1.4284000000000001,0.0,0.0
130.0,0.0,0.0,0.0,0.4,0.0,0.0,-1.2,-1.57,0.0,0.0,0.1434666666666667,0.0,0.0,-1.1532,1.4166,0.0,0.0
140.0,0.0,0.0,0.0,0.4,0.0,0.0,-1.2,-1.57,0.0,0.0,0.12373333333333336,0.0,0.0,-1.1496,1.4048,0.0,0.0
150.0,0.0,0.0,0.0,0.4,0.0,0.0,-1.2,-1.57,0.0,0.0,0.10399999999999998,0.0,0.0,-1.146,1.393,0.0,0.0
160.0,0.0,0.0,0.0,0.4,0.0,0.0,-1.2,-1.57,0.0,0.0,0.08426666666666666,0.0,0.0,-1.1423999999999999,1.3812,0.0,0.0
170.0,0.0,0.0,0.0,0.4,0.0,0.0,-1.2,-1.57,0.0,0.0,0.06453333333333333,0.0,0.0,-1.1388,1.3694000000000002,0.0,0.0
180.0,0.0,0.0,0.0,0.4,0.0,0.0,-1.2,-1.57,0.0,0.0,0.044800000000000006,0.0,0.0,-1.1352,1.3576000000000001,0.0,0.0
190.0,0.0,0.0,0.0,0.4,0.0,0.0,-1.2,-1.57,0.0,0.0,0.02506666666666668,0.0,0.0,-1.1316,1.3458,0.0,0.0
200.0,0.0,0.0,0.0,0.4,0.0,0.0,-1.2,-1.57,0.0,0.0,0.005333333333333357,0.0,0.0,-1.128,1.334,0.0,0.0
210.0,0.0,0.0,0.0,0.4,0.0,0.0,-1.2,-1.57,0.0,0.0,-0.014400000000000024,0.0,0.0,-1.1244,1.3222,0.0,0.0
220.0,0.0,0.0,0.0,0.4,0.0,0.0,-1.2,-1.57,0.0,0.0,-0.03413333333333335,0.0,0.0,-1.1208,1.3104,0.0,0.0
230.0,0.0,0.0,0.0,0.4,0.0,0.0,-1.2,-1.57,0.0,0.0,-0.053866666666666674,0.0,0.0,-1.1172,1.2986,0.0,0.0
240.0,0.0,0.0,0.0,0.4,0.0,0.0,-1.2,-1.57,0.0,0.0,-0.0736,0.0,0.0,-1.1136,1.2868,0.0,0.0
250.0,0.0,0.0,0.0,0.4,0.0,0.0,-1.2,-1.57,0.0,0.0,-0.09333333333333332,0.0,0.0,-1.1099999999999999,1.275,0.0,0.0
260.0,0.0,0.0,0.0,0.4,0.0,0.0,-1.2,-1.57,0.0,0.0,-0.11306666666666665,0.0,0.0,-1.1064,1.2632,0.0,0.0
270.0,0.0,0.0,0.0,0.4,0.0,0.0,-1.2,-1.57,0.0,0.0,-0.13280000000000003,0.0,0.0,-1.1028,1.2514,0.0,0.0
280.0,0.0,0.0,0.0,0.4,0.0,0.0,-1.2,-1.57,0.0,0.0,-0.1525333333333333,0.0,0.0,-1.0992,1.2396,0.0,0.0
290.0,0.0,0.0,0.0,0.4,0.0,0.0,-1.2,-1.57,0.0,0.0,-0.17226666666666668,0.0,0.0,-1.0956,1.2278,0.0,0.0
300.0,0.0,0.0,0.0,0.4,0.0,0.0,-1.2,-1.57,0.0,0.0,-0.19200000000000006,0.0,0.0,-1.092,1.216,0.0,0.0
310.0,0.0,0.0,0.0,0.4,0.0,0.0,-1.2,-1.57,0.0,0.0,-0.21173333333333333,0.0,0.0,-1.0884,1.2042000000000002,0.0,0.0
320.0,0.0,0.0,0.0,0.4,0.0,0.0,-1.2,-1.57,0.0,0.0,-0.2314666666666667,0.0,0.0,-1.0848,1.1924000000000001,0.0,0.0
330.0,0.0,0.0,0.0,0.4,0.0,0.0,-1.2,-1.57,0.0,0.0,-0.2512,0.0,0.0,-1.0812,1.1806,0.0,0.0
340.0,0.0,0.0,0.0,0.4,0.0,0.0,-1.2,-1.57,0.0,0.0,-0.27093333333333336,0.0,0.0,-1.0776,1.1688,0.0,0.0
350.0,0.0,0.0,0.0,0.4,0.0,0.0,-1.2,-1.57,0.0,0.0,-0.29066666666666674,0.0,0.0,-1.0739999999999998,1.157,0.0,0.0
360.0,0.0,0.0,0.0,0.4,0.0,0.0,-1.2,-1.57,0.0,0.0,-0.3104,0.0,0.0,-1.0704,1.1452,0.0,0.0
370.0,0.0,0.0,0.0,0.4,0.0,0.0,-1.2,-1.57,0.0,0.0,-0.3301333333333334,0.0,0.0,-1.0668,1.1334,0.0,0.0
380.0,0.0,0.0,0.0,0.4,0.0,0.0,-1.2,-1.57,0.0,0.0,-0.34986666666666666,0.0,0.0,-1.0632,1.1216,0.0,0.0
390.0,0.0,0.0,0.0,0.4,0.0,0.0,-1.2,-1.57,0.0,0.0,-0.36960000000000004,0.0,0.0,-1.0595999999999999,1.1098000000000001,0.0,0.0
400.0,0.0,0.0,0.0,0.4,0.0,0.0,-1.2,-1.57,0.0,0.0,-0.3893333333333333,0.0,0.0,-1.056,1.098,0.0,0.0
410.0,0.0,0.0,0.0,0.4,0.0,0.0,-1.2,-1.57,0.0,0.0,-0.4090666666666667,0.0,0.0,-1.0524,1.0862,0.0,0.0
420.0,0.0,0.0,0.0,0.4,0.0,0.0,-1.2,-1.57,0.0,0.0,-0.42880000000000007,0.0,0.0,-1.0488,1.0744,0.0,0.0
430.0,0.0,0.0,0.0,0.4,0.0,0.0,-1.2,-1.57,0.0,0.0,-0.44853333333333334,0.0,0.0,-1.0452,1.0626,0.0,0.0
440.0,0.0,0.0,0.0,0.4,0.0,0.0,-1.2,-1.57,0.0,0.0,-0.4682666666666667,0.0,0.0,-1.0415999999999999,1.0508000000000002,0.0,0.0
450.0,0.0,0.0,0.0,0.4,0.0,0.0,-1.2,-1.57,0.0,0.0,-0.488,0.0,0.0,-1.038,1.0390000000000001,0.0,0.0
460.0,0.0,0.0,0.0,0.4,0.0,0.0,-1.2,-1.57,0.0,0.0,-0.5077333333333334,0.0,0.0,-1.0344,1.0272000000000001,0.0,0.0
470.0,0.0,0.0,0.0,0.4,0.0,0.0,-1.2,-1.57,0.0,0.0,-0.5274666666666668,0.0,0.0,-1.0308,1.0154,0.0,0.0
480.0,0.0,0.0,0.0,0.4,0.0,0.0,-1.2,-1.57,0.0,0.0,-0.5472,0.0,0.0,-1.0272,1.0036,0.0,0.0
490.0,0.0,0.0,0.0,0.4,0.0,0.0,-1.2,-1.57,0.0,0.0,-0.5669333333333334,0.0,0.0,-1.0236,0.9918,0.0,0.0
500.0,0.0,0.0,0.0,0.4,0.0,0.0,-1.2,-1.57,0.0,0.0,-0.5866666666666667,0.0,0.0,-1.02,0.98,0.0,0.0
510.0,0.0,0.0,0.0,0.4,0.0,0.0,-1.2,-1.57,0.0,0.0,-0.6063999999999999,0.0,0.0,-1.0164,0.9682000000000001,0.0,0.0
520.0,0.0,0.0,0.0,0.4,0.0,0.0,-1.2,-1.57,0.0,0.0,-0.6261333333333333,0.0,0.0,-1.0128,0.9564,0.0,0.0
530.0,0.0,0.0,0.0,0.4,0.0,0.0,-1.2,-1.57,0.0,0.0,-0.6458666666666667,0.0,0.0,-1.0091999999999999,0.9446,0.0,0.0
540.0,0.0,0.0,0.0,0.4,0.0,0.0,-1.2,-1.57,0.0,0.0,-0.6656000000000001,0.0,0.0,-1.0056,0.9328000000000001,0.0,0.0
550.0,0.0,0.0,0.0,0.4,0.0,0.0,-1.2,-1.57,0.0,0.0,-0.6853333333333335,0.0,0.0,-1.002,0.921,0.0,0.0
560.0,0.0,0.0,0.0,0.4,0.0,0.0,-1.2,-1.57,0.0,0.0,-0.7050666666666666,0.0,0.0,-0.9984,0.9092,0.0,0.0
570.0,0.0,0.0,0.0,0.4,0.0,0.0,-1.2,-1.57,0.0,0.0,-0.7248,0.0,0.0,-0.9947999999999999,0.8974,0.0,0.0
580.0,0.0,0.0,0.0,0.4,0.0,0.0,-1.2,-1.57,0.0,0.0,-0.7445333333333334,0.0,0.0,-0.9912,0.8856,0.0,0.0
590.0,0.0,0.0,0.0,0.4,0.0,0.0,-1.2,-1.57,0.0,0.0,-0.7642666666666668,0.0,0.0,-0.9876,0.8738,0.0,0.0
600.0,0.0,0.0,0.0,0.4,0.0,0.0,-1.2,-1.57,0.0,0.0,-0.7840000000000001,0.0,0.0,-0.984,0.862,0.0,0.0
610.0,0.0,0.0,0.0,0.4,0.0,0.0,-1.2,-1.57,0.0,0.0,-0.8037333333333333,0.0,0.0,-0.9803999999999999,0.8502000000000001,0.0,0.0
620.0,0.0,0.0,0.0,0.4,0.0,0.0,-1.2,-1.57,0.0,0.0,-0.8234666666666667,0.0,0.0,-0.9768,0.8384,0.0,0.0
630.0,0.0,0.0,0.0,0.4,0.0,0.0,-1.2,-1.57,0.0,0.0,-0.8432000000000001,0.0,0.0,-0.9732,0.8266,0.0,0.0
640.0,0.0,0.0,0.0,0.4,0.0,0.0,-1.2,-1.57,0.0,0.0,-0.8629333333333334,0.0,0.0,-0.9696,0.8148,0.0,0.0
650.0,0.0,0.0,0.0,0.4,0.0,0.0,-1.2,-1.57,0.0,0.0,-0.8826666666666668,0.0,0.0,-0.966,0.803,0.0,0.0
660.0,0.0,0.0,0.0,0.4,0.0,0.0,-1.2,-1.57,0.0,0.0,-0.9024,0.0,0.0,-0.9623999999999999,0.7912,0.0,0.0
670.0,0.0,0.0,0.0,0.4,0.0,0.0,-1.2,-1.57,0.0,0.0,-0.9221333333333334,0.0,0.0,-0.9588,0.7794,0.0,0.0
680.0,0.0,0.0,0.0,0.4,0.0,0.0,-1.2,-1.57,0.0,0.0,-0.9418666666666667,0.0,0.0,-0.9551999999999999,0.7676000000000001,0.0,0.0
690.0,0.0,0.0,0.0,0.4,0.0,0.0,-1.2,-1.57,0.0,0.0,-0.9616000000000001,0.0,0.0,-0.9516,0.7558,0.0,0.0
700.0,0.0,0.0,0.0,0.4,0.0,0.0,-1.2,-1.57,0.0,0.0,-0.9813333333333335,0.0,0.0,-0.948,0.744,0.0,0.0
710.0,0.0,0.0,0.0,0.4,0.0,0.0,-1.2,-1.57,0.0,0.0,-1.0010666666666665,0.0,0.0,-0.9443999999999999,0.7322000000000001,0.0,0.0
720.0,0.0,0.0,0.0,0.4,0.0,0.0,-1.2,-1.57,0.0,0.0,-1.0208,0.0,0.0,-0.9408,0.7204,0.0,0.0
730.0,0.0,0.0,0.0,0.4,0.0,0.0,-1.2,-1.57,0.0,0.0,-1.0405333333333333,0.0,0.0,-0.9372,0.7086,0.0,0.0
740.0,0.0,0.0,0.0,0.4,0.0,0.0,-1.2,-1.57,0.0,0.0,-1.0602666666666667,0.0,0.0,-0.9336,0.6968,0.0,0.0
750.0,0.0,0.0,0.0,0.4,0.0,0.0,-1.2,-1.57,0.0,0.0,-1.08,0.0,0.0,-0.9299999999999999,0.685,0.0,0.0
760.0,0.0,0.0,0.0,0.4,0.0,0.0,-1.2,-1.57,0.0,0.0,-1.0997333333333335,0.0,0.0,-0.9264,0.6732,0.0,0.0
770.0,0.0,0.0,0.0,0.4,0.0,0.0,-1.2,-1.57,0.0,0.0,-1.1194666666666668,0.0,0.0,-0.9228,0.6614,0.0,0.0
780.0,0.0,0.0,0.0,0.4,0.0,0.0,-1.2,-1.57,0.0,0.0,-1.1392000000000002,0.0,0.0,-0.9192,0.6496000000000001,0.0,0.0
790.0,0.0,0.0,0.0,0.4,0.0,0.0,-1.2,-1.57,0.0,0.0,-1.1589333333333336,0.0,0.0,-0.9156,0.6378,0.0,0.0
800.0,0.0,0.0,0.0,0.4,0.0,0.0,-1.2,-1.57,0.0,0.0,-1.1786666666666665,0.0,0.0,-0.9119999999999999,0.626,0.0,0.0
810.0,0.0,0.0,0.0,0.4,0.0,0.0,-1.2,-1.57,0.0,0.0,-1.1984,0.0,0.0,-0.9084,0.6142,0.0,0.0
820.0,0.0,0.0,0.0,0.4,0.0,0.0,-1.2,-1.57,0.0,0.0,-1.2181333333333333,0.0,0.0,-0.9048,0.6024,0.0,0.0
830.0,0.0,0.0,0.0,0.4,0.0,0.0,-1.2,-1.57,0.0,0.0,-1.2378666666666667,0.0,0.0,-0.9012,0.5906,0.0,0.0
840.0,0.0,0.0,0.0,0.4,0.0,0.0,-1.2,-1.57,0.0,0.0,-1.2576,0.0,0.0,-0.8976,0.5788,0.0,0.0
850.0,0.0,0.0,0.0,0.4,0.0,0.0,-1.2,-1.57,0.0,0.0,-1.2773333333333334,0.0,0.0,-0.8939999999999999,0.567,0.0,0.0
860.0,0.0,0.0,0.0,0.4,0.0,0.0,-1.2,-1.57,0.0,0.0,-1.2970666666666668,0.0,0.0,-0.8904,0.5551999999999999,0.0,0.0
870.0,0.0,0.0,0.0,0.4,0.0,0.0,-1.2,-1.57,0.0,0.0,-1.3168000000000002,0.0,0.0,-0.8868,0.5434000000000001,0.0,0.0
880.0,0.0,0.0,0.0,0.4,0.0,0.0,-1.2,-1.57,0.0,0.0,-1.3365333333333336,0.0,0.0,-0.8832,0.5316000000000001,0.0,0.0
890.0,0.0,0.0,0.0,0.4,0.0,0.0,-1.2,-1.57,0.0,0.0,-1.356266666666667,0.0,0.0,-0.8795999999999999,0.5198,0.0,0.0
900.0,0.0,0.0,0.0,0.4,0.0,0.0,-1.2,-1.57,0.0,0.0,-1.376,0.0,0.0,-0.876,0.508,0.0,0.0
910.0,0.0,0.0,0.0,0.4,0.0,0.0,-1.2,-1.57,0.0,0.0,-1.3957333333333333,0.0,0.0,-0.8724000000000001,0.4962,0.0,0.0
920.0,0.0,0.0,0.0,0.4,0.0,0.0,-1.2,-1.57,0.0,0.0,-1.4154666666666667,0.0,0.0,-0.8688,0.48439999999999994,0.0,0.0
930.0,0.0,0.0,0.0,0.4,0.0,0.0,-1.2,-1.57,0.0,0.0,-1.4352,0.0,0.0,-0.8652,0.4725999999999999,0.0,0.0
940.0,0.0,0.0,0.0,0.4,0.0,0.0,-1.2,-1.57,0.0,0.0,-1.4549333333333334,0.0,0.0,-0.8615999999999999,0.4608000000000001,0.0,0.0
950.0,0.0,0.0,0.0,0.4,0.0,0.0,-1.2,-1.57,0.0,0.0,-1.4746666666666668,0.0,0.0,-0.858,0.44900000000000007,0.0,0.0
960.0,0.0,0.0,0.0,0.4,0.0,0.0,-1.2,-1.57,0.0,0.0,-1.4944000000000002,0.0,0.0,-0.8544,0.43720000000000003,0.0,0.0
970.0,0.0,0.0,0.0,0.4,0.0,0.0,-1.2,-1.57,0.0,0.0,-1.5141333333333336,0.0,0.0,-0.8508,0.4254,0.0,0.0
980.0,0.0,0.0,0.0,0.4,0.0,0.0,-1.2,-1.57,0.0,0.0,-1.533866666666667,0.0,0.0,-0.8472,0.41359999999999997,0.0,0.0
990.0,0.0,0.0,0.0,0.4,0.0,0.0,-1.2,-1.57,0.0,0.0,-1.5536000000000003,0.0,0.0,-0.8435999999999999,0.40179999999999993,0.0,0.0
1000.0,0.0,0.0,0.0,0.4,0.0,0.0,-1.2,-1.57,0.0,0.0,-1.5733333333333333,0.0,0.0,-0.84,0.3899999999999999,0.0,0.0
1010.0,0.0,0.0,0.0,0.4,0.0,0.0,-1.2,-1.57,0.0,0.0,-1.5930666666666666,0.0,0.0,-0.8364,0.3782000000000001,0.0,0.0
1020.0,0.0,0.0,0.0,0.4,0.0,0.0,-1.2,-1.57,0.0,0.0,-1.6128,0.0,0.0,-0.8328,0.36640000000000006,0.0,0.0
1030.0,0.0,0.0,0.0,0.4,0.0,0.0,-1.2,-1.57,0.0,0.0,-1.6325333333333334,0.0,0.0,-0.8291999999999999,0.3546,0.0,0.0
1040.0,0.0,0.0,0.0,0.4,0.0,0.0,-1.2,-1.57,0.0,0.0,-1.6522666666666668,0.0,0.0,-0.8256,0.3428,0.0,0.0
1050.0,0.0,0.0,0.0,0.4,0.0,0.0,-1.2,-1.57,0.0,0.0,-1.6720000000000002,0.0,0.0,-0.8220000000000001,0.33099999999999996,0.0,0.0
1060.0,0.0,0.0,0.0,0.4,0.0,0.0,-1.2,-1.57,0.0,0.0,-1.6917333333333335,0.0,0.0,-0.8184,0.31919999999999993,0.0,0.0
1070.0,0.0,0.0,0.0,0.4,0.0,0.0,-1.2,-1.57,0.0,0.0,-1.711466666666667,0.0,0.0,-0.8148,0.3073999999999999,0.0,0.0
1080.0,0.0,0.0,0.0,0.4,0.0,0.0,-1.2,-1.57,0.0,0.0,-1.7312000000000003,0.0,0.0,-0.8111999999999999,0.2956000000000001,0.0,0.0
1090.0,0.0,0.0,0.0,0.4,0.0,0.0,-1.2,-1.57,0.0,0.0,-1.7509333333333337,0.0,0.0,-0.8076,0.28380000000000005,0.0,0.0
1100.0,0.0,0.0,0.0,0.4,0.0,0.0,-1.2,-1.57,0.0,0.0,-1.770666666666667,0.0,0.0,-0.804,0.272,0.0,0.0
1110.0,0.0,0.0,0.0,0.4,0.0,0.0,-1.2,-1.57,0.0,0.0,-1.7904000000000004,0.0,0.0,-0.8004,0.2602,0.0,0.0
1120.0,0.0,0.0,0.0,0.4,0.0,0.0,-1.2,-1.57,0.0,0.0,-1.8101333333333334,0.0,0.0,-0.7968,0.24839999999999995,0.0,0.0
1130.0,0.0,0.0,0.0,0.4,0.0,0.0,-1.2,-1.57,0.0,0.0,-1.8298666666666668,0.0,0.0,-0.7932,0.23659999999999992,0.0,0.0
1140.0,0.0,0.0,0.0,0.4,0.0,0.0,-1.2,-1.57,0.0,0.0,-1.8496000000000001,0.0,0.0,-0.7896,0.2247999999999999,0.0,0.0
1150.0,0.0,0.0,0.0,0.4,0.0,0.0,-1.2,-1.57,0.0,0.0,-1.8693333333333335,0.0,0.0,-0.786,0.21300000000000008,0.0,0.0
1160.0,0.0,0.0,0.0,0.4,0.0,0.0,-1.2,-1.57,0.0,0.0,-1.889066666666667,0.0,0.0,-0.7824,0.20120000000000005,0.0,0.0
1170.0,0.0,0.0,0.0,0.4,0.0,0.0,-1.2,-1.57,0.0,0.0,-1.9088000000000003,0.0,0.0,-0.7787999999999999,0.1894,0.0,0.0
1180.0,0.0,0.0,0.0,0.4,0.0,0.0,-1.2,-1.57,0.0,0.0,-1.9285333333333337,0.0,0.0,-0.7752,0.17759999999999998,0.0,0.0
1190.0,0.0,0.0,0.0,0.4,0.0,0.0,-1.2,-1.57,0.0,0.0,-1.948266666666667,0.0,0.0,-0.7716000000000001,0.16579999999999995,0.0,0.0
1200.0,0.0,0.0,0.0,0.4,0.0,0.0,-1.2,-1.57,0.0,0.0,-1.9680000000000004,0.0,0.0,-0.768,0.15399999999999991,0.0,0.0
1210.0,0.0,0.0,0.0,0.4,0.0,0.0,-1.2,-1.57,0.0,0.0,-1.9877333333333334,0.0,0.0,-0.7644,0.14219999999999988,0.0,0.0
1220.0,0.0,0.0,0.0,0.4,0.0,0.0,-1.2,-1.57,0.0,0.0,-2.0074666666666667,0.0,0.0,-0.7607999999999999,0.13040000000000007,0.0,0.0
1230.0,0.0,0.0,0.0,0.4,0.0,0.0,-1.2,-1.57,0.0,0.0,-2.0272,0.0,0.0,-0.7572,0.11860000000000004,0.0,0.0
1240.0,0.0,0.0,0.0,0.4,0.0,0.0,-1.2,-1.57,0.0,0.0,-2.0469333333333335,0.0,0.0,-0.7536,0.1068,0.0,0.0
1250.0,0.0,0.0,0.0,0.4,0.0,0.0,-1.2,-1.57,0.0,0.0,-2.066666666666667,0.0,0.0,-0.75,0.09499999999999997,0.0,0.0
1260.0,0.0,0.0,0.0,0.4,0.0,0.0,-1.2,-1.57,0.0,0.0,-2.0864000000000003,0.0,0.0,-0.7464,0.08319999999999994,0.0,0.0
1270.0,0.0,0.0,0.0,0.4,0.0,0.0,-1.2,-1.57,0.0,0.0,-2.1061333333333336,0.0,0.0,-0.7428,0.07139999999999991,0.0,0.0
1280.0,0.0,0.0,0.0,0.4,0.0,0.0,-1.2,-1.57,0.0,0.0,-2.125866666666667,0.0,0.0,-0.7392,0.059599999999999875,0.0,0.0
1290.0,0.0,0.0,0.0,0.4,0.0,0.0,-1.2,-1.57,0.0,0.0,-2.1456000000000004,0.0,0.0,-0.7356,0.047800000000000065,0.0,0.0
1300.0,0.0,0.0,0.0,0.4,0.0,0.0,-1.2,-1.57,0.0,0.0,-2.1653333333333338,0.0,0.0,-0.732,0.03600000000000003,0.0,0.0
1310.0,0.0,0.0,0.0,0.4,0.0,0.0,-1.2,-1.57,0.0,0.0,-2.1850666666666667,0.0,0.0,-0.7283999999999999,0.0242,0.0,0.0
1320.0,0.0,0.0,0.0,0.4,0.0,0.0,-1.2,-1.57,0.0,0.0,-2.2048,0.0,0.0,-0.7248,0.012399999999999967,0.0,0.0
1330.0,0.0,0.0,0.0,0.4,0.0,0.0,-1.2,-1.57,0.0,0.0,-2.2245333333333335,0.0,0.0,-0.7212000000000001,0.0005999999999999339,0.0,0.0
1340.0,0.0,0.0,0.0,0.4,0.0,0.0,-1.2,-1.57,0.0,0.0,-2.244266666666667,0.0,0.0,-0.7176,-0.011200000000000099,0.0,0.0
1350.0,0.0,0.0,0.0,0.4,0.0,0.0,-1.2,-1.57,0.0,0.0,-2.2640000000000002,0.0,0.0,-0.714,-0.02299999999999991,0.0,0.0
1360.0,0.0,0.0,0.0,0.4,0.0,0.0,-1.2,-1.57,0.0,0.0,-2.2837333333333336,0.0,0.0,-0.7103999999999999,-0.03479999999999994,0.0,0.0
1370.0,0.0,0.0,0.0,0.4,0.0,0.0,-1.2,-1.57,0.0,0.0,-2.303466666666667,0.0,0.0,-0.7068,-0.046599999999999975,0.0,0.0
1380.0,0.0,0.0,0.0,0.4,0.0,0.0,-1.2,-1.57,0.0,0.0,-2.3232000000000004,0.0,0.0,-0.7032,-0.05840000000000001,0.0,0.0
1390.0,0.0,0.0,0.0,0.4,0.0,0.0,-1.2,-1.57,0.0,0.0,-2.3429333333333338,0.0,0.0,-0.6996,-0.07020000000000004,0.0,0.0
1400.0,0.0,0.0,0.0,0.4,0.0,0.0,-1.2,-1.57,0.0,0.0,-2.362666666666667,0.0,0.0,-0.696,-0.08200000000000007,0.0,0.0
1410.0,0.0,0.0,0.0,0.4,0.0,0.0,-1.2,-1.57,0.0,0.0,-2.3824,0.0,0.0,-0.6924,-0.0938000000000001,0.0,0.0
1420.0,0.0,0.0,0.0,0.4,0.0,0.0,-1.2,-1.57,0.0,0.0,-2.4021333333333335,0.0,0.0,-0.6888,-0.10559999999999992,0.0,0.0
1430.0,0.0,0.0,0.0,0.4,0.0,0.0,-1.2,-1.57,0.0,0.0,-2.421866666666667,0.0,0.0,-0.6852,-0.11739999999999995,0.0,0.0
1440.0,0.0,0.0,0.0,0.4,0.0,0.0,-1.2,-1.57,0.0,0.0,-2.4416,0.0,0.0,-0.6816,-0.12919999999999998,0.0,0.0
1450.0,0.0,0.0,0.0,0.4,0.0,0.0,-1.2,-1.57,0.0,0.0,-2.4613333333333336,0.0,0.0,-0.678,-0.14100000000000001,0.0,0.0
1460.0,0.0,0.0,0.0,0.4,0.0,0.0,-1.2,-1.57,0.0,0.0,-2.481066666666667,0.0,0.0,-0.6744,-0.15280000000000005,0.0,0.0
1470.0,0.0,0.0,0.0,0.4,0.0,0.0,-1.2,-1.57,0.0,0.0,-2.5008000000000004,0.0,0.0,-0.6708,-0.16460000000000008,0.0,0.0
1480.0,0.0,0.0,0.0,0.4,0.0,0.0,-1.2,-1.57,0.0,0.0,-2.5205333333333337,0.0,0.0,-0.6672,-0.1764000000000001,0.0,0.0
1490.0,0.0,0.0,0.0,0.4,0.0,0.0,-1.2,-1.57,0.0,0.0,-2.540266666666667,0.0,0.0,-0.6636,-0.18819999999999992,0.0,0.0
1500.0,0.0,0.0,0.0,0.4,0.0,0.0,-1.2,-1.57,0.0,0.0,-2.56,0.0,0.0,-0.66,-0.2,0.0,0.0
1510.0,0.0,0.0,0.0,0.4,0.0,0.0,-1.2,-1.57,0.0,0.0,-2.56,0.0,0.0,-0.66,-0.2,0.0,0.0
1520.0,0.0,0.0,0.0,0.4,0.0,0.0,-1.2,-1.57,0.0,0.0,-2.56,0.0,0.0,-0.66,-0.2,0.0,0.0
1530.0,0.0,0.0,0.0,0.4,0.0,0.0,-1.2,-1.57,0.0,0.0,-2.56,0.0,0.0,-0.66,-0.2,0.0,0.0
1540.0,0.0,0.0,0.0,0.4,0.0,0.0,-1.2,-1.57,0.0,0.0,-2.56,0.0,0.0,-0.66,-0.2,0.0,0.0
1550.0,0.0,0.0,0.0,0.4,0.0,0.0,-1.2,-1.57,0.0,0.0,-2.56,0.0,0.0,-0.66,-0.2,0.0,0.0
1560.0,0.0,0.0,0.0,0.4,0.0,0.0,-1.2,-1.57,0.0,0.0,-2.56,0.0,0.0,-0.66,-0.2,0.0,0.0
1570.0,0.0,0.0,0.0,0.4,0.0,0.0,-1.2,-1.57,0.0,0.0,-2.56,0.0,0.0,-0.66,-0.2,0.0,0.0
1580.0,0.0,0.0,0.0,0.4,0.0,0.0,-1.2,-1.57,0.0,0.0,-2.56,0.0,0.0,-0.66,-0.2,0.0,0.0
1590.0,0.0,0.0,0.0,0.4,0.0,0.0,-1.2,-1.57,0.0,0.0,-2.56,0.0,0.0,-0.66,-0.2,0.0,0.0
1600.0,0.0,0.0,0.0,0.4,0.0,0.0,-1.2,-1.57,0.0,0.0,-2.56,0.0,0.0,-0.66,-0.2,0.0,0.0
1610.0,0.0,0.0,0.0,0.4,0.0,0.0,-1.2,-1.57,0.0,0.0,-2.56,0.0,0.0,-0.66,-0.2,0.0,0.0
1620.0,0.0,0.0,0.0,0.4,0.0,0.0,-1.2,-1.57,0.0,0.0,-2.56,0.0,0.0,-0.66,-0.2,0.0,0.0
1630.0,0.0,0.0,0.0,0.4,0.0,0.0,-1.2,-1.57,0.0,0.0,-2.56,0.0,0.0,-0.66,-0.2,0.0,0.0
1640.0,0.0,0.0,0.0,0.4,0.0,0.0,-1.2,-1.57,0.0,0.0,-2.56,0.0,0.0,-0.66,-0.2,0.0,0.0
1650.0,0.0,0.0,0.0,0.4,0.0,0.0,-1.2,-1.57,0.0,0.0,-2.56,0.0,0.0,-0.66,-0.2,0.0,0.0
1660.0,0.0,0.0,0.0,0.4,0.0,0.0,-1.2,-1.57,0.0,0.0,-2.56,0.0,0.0,-0.66,-0.2,0.0,0.0
1670.0,0.0,0.0,0.0,0.4,0.0,0.0,-1.2,-1.57,0.0,0.0,-2.56,0.0,0.0,-0.66,-0.2,0.0,0.0
1680.0,0.0,0.0,0.0,0.4,0.0,0.0,-1.2,-1.57,0.0,0.0,-2.56,0.0,0.0,-0.66,-0.2,0.0,0.0
1690.0,0.0,0.0,0.0,0.4,0.0,0.0,-1.2,-1.57,0.0,0.0,-2.56,0.0,0.0,-0.66,-0.2,0.0,0.0
1700.0,0.0,0.0,0.0,0.4,0.0,0.0,-1.2,-1.57,0.0,0.0,-2.56,0.0,0.0,-0.66,-0.2,0.0,0.0
1710.0,0.0,0.0,0.0,0.4,0.0,0.0,-1.2,-1.57,0.0,0.0,-2.56,0.0,0.0,-0.66,-0.2,0.0,0.0
1720.0,0.0,0.0,0.0,0.4,0.0,0.0,-1.2,-1.57,0.0,0.0,-2.56,0.0,0.0,-0.66,-0.2,0.0,0.0
1730.0,0.0,0.0,0.0,0.4,0.0,0.0,-1.2,-1.57,0.0,0.0,-2.56,0.0,0.0,-0.66,-0.2,0.0,0.0
1740.0,0.0,0.0,0.0,0.4,0.0,0.0,-1.2,-1.57,0.0,0.0,-2.56,0.0,0.0,-0.66,-0.2,0.0,0.0
1750.0,0.0,0.0,0.0,0.4,0.0,0.0,-1.2,-1.57,0.0,0.0,-2.56,0.0,0.0,-0.66,-0.2,0.0,0.0
1760.0,0.0,0.0,0.0,0.4,0.0,0.0,-1.2,-1.57,0.0,0.0,-2.56,0.0,0.0,-0.66,-0.2,0.0,0.0
1770.0,0.0,0.0,0.0,0.4,0.0,0.0,-1.2,-1.57,0.0,0.0,-2.56,0.0,0.0,-0.66,-0.2,0.0,0.0
1780.0,0.0,0.0,0.0,0.4,0.0,0.0,-1.2,-1.57,0.0,0.0,-2.56,0.0,0.0,-0.66,-0.2,0.0,0.0
1790.0,0.0,0.0,0.0,0.4,0.0,0.0,-1.2,-1.57,0.0,0.0,-2.56,0.0,0.0,-0.66,-0.2,0.0,0.0
1800.0,0.0,0.0,0.0,0.4,0.0,0.0,-1.2,-1.57,0.0,0.0,-2.56,0.0,0.0,-0.66,-0.2,0.0,0.0
1810.0,0.0,0.0,0.0,0.4,0.0,0.0,-1.2,-1.57,0.0,0.0,-2.56,0.0,0.0,-0.66,-0.2,0.0,0.0
1820.0,0.0,0.0,0.0,0.4,0.0,0.0,-1.2,-1.57,0.0,0.0,-2.56,0.0,0.0,-0.66,-0.2,0.0,0.0
1830.0,0.0,0.0,0.0,0.4,0.0,0.0,-1.2,-1.57,0.0,0.0,-2.56,0.0,0.0,-0.66,-0.2,0.0,0.0
1840.0,0.0,0.0,0.0,0.4,0.0,0.0,-1.2,-1.57,0.0,0.0,-2.56,0.0,0.0,-0.66,-0.2,0.0,0.0
1850.0,0.0,0.0,0.0,0.4,0.0,0.0,-1.2,-1.57,0.0,0.0,-2.56,0.0,0.0,-0.66,-0.2,0.0,0.0
1860.0,0.0,0.0,0.0,0.4,0.0,0.0,-1.2,-1.57,0.0,0.0,-2.56,0.0,0.0,-0.66,-0.2,0.0,0.0
1870.0,0.0,0.0,0.0,0.4,0.0,0.0,-1.2,-1.57,0.0,0.0,-2.56,0.0,0.0,-0.66,-0.2,0.0,0.0
1880.0,0.0,0.0,0.0,0.4,0.0,0.0,-1.2,-1.57,0.0,0.0,-2.56,0.0,0.0,-0.66,-0.2,0.0,0.0
1890.0,0.0,0.0,0.0,0.4,0.0,0.0,-1.2,-1.57,0.0,0.0,-2.56,0.0,0.0,-0.66,-0.2,0.0,0.0
1900.0,0.0,0.0,0.0,0.4,0.0,0.0,-1.2,-1.57,0.0,0.0,-2.56,0.0,0.0,-0.66,-0.2,0.0,0.0
1910.0,0.0,0.0,0.0,0.4,0.0,0.0,-1.2,-1.57,0.0,0.0,-2.56,0.0,0.0,-0.66,-0.2,0.0,0.0
1920.0,0.0,0.0,0.0,0.4,0.0,0.0,-1.2,-1.57,0.0,0.0,-2.56,0.0,0.0,-0.66,-0.2,0.0,0.0
1930.0,0.0,0.0,0.0,0.4,0.0,0.0,-1.2,-1.57,0.0,0.0,-2.56,0.0,0.0,-0.66,-0.2,0.0,0.0
1940.0,0.0,0.0,0.0,0.4,0.0,0.0,-1.2,-1.57,0.0,0.0,-2.56,0.0,0.0,-0.66,-0.2,0.0,0.0
1950.0,0.0,0.0,0.0,0.4,0.0,0.0,-1.2,-1.57,0.0,0.0,-2.56,0.0,0.0,-0.66,-0.2,0.0,0.0
1960.0,0.0,0.0,0.0,0.4,0.0,0.0,-1.2,-1.57,0.0,0.0,-2.56,0.0,0.0,-0.66,-0.2,0.0,0.0
1970.0,0.0,0.0,0.0,0.4,0.0,0.0,-1.2,-1.57,0.0,0.0,-2.56,0.0,0.0,-0.66,-0.2,0.0,0.0
1980.0,0.0,0.0,0.0,0.4,0.0,0.0,-1.2,-1.57,0.0,0.0,-2.56,0.0,0.0,-0.66,-0.2,0.0,0.0
1990.0,0.0,0.0,0.0,0.4,0.0,0.0,-1.2,-1.57,0.0,0.0,-2.56,0.0,0.0,-0.66,-0.2,0.0,0.0
2000.0,0.0,0.0,0.0,0.4,0.0,0.0,-1.2,-1.57,0.0,0.0,-2.56,0.0,0.0,-0.66,-0.2,0.0,0.0
2010.0,0.0,0.0,0.0,0.4,0.0,0.0,-1.2,-1.57,0.0,0.0,-2.56,0.0,0.0,-0.66,-0.2,0.0,0.0
2020.0,0.0,0.0,0.0,0.4,0.0,0.0,-1.2,-1.57,0.0,0.0,-2.56,0.0,0.0,-0.66,-0.2,0.0,0.0
2030.0,0.0,0.0,0.0,0.4,0.0,0.0,-1.2,-1.57,0.0,0.0,-2.56,0.0,0.0,-0.66,-0.2,0.0,0.0
2040.0,0.0,0.0,0.0,0.4,0.0,0.0,-1.2,-1.57,0.0,0.0,-2.56,0.0,0.0,-0.66,-0.2,0.0,0.0
2050.0,0.0,0.0,0.0,0.4,0.0,0.0,-1.2,-1.57,0.0,0.0,-2.56,0.0,0.0,-0.66,-0.2,0.0,0.0
2060.0,0.0,0.0,0.0,0.4,0.0,0.0,-1.2,-1.57,0.0,0.0,-2.56,0.0,0.0,-0.66,-0.2,0.0,0.0
2070.0,0.0,0.0,0.0,0.4,0.0,0.0,-1.2,-1.57,0.0,0.0,-2.56,0.0,0.0,-0.66,-0.2,0.0,0.0
2080.0,0.0,0.0,0.0,0.4,0.0,0.0,-1.2,-1.57,0.0,0.0,-2.56,0.0,0.0,-0.66,-0.2,0.0,0.0
2090.0,0.0,0.0,0.0,0.4,0.0,0.0,-1.2,-1.57,0.0,0.0,-2.56,0.0,0.0,-0.66,-0.2,0.0,0.0
2100.0,0.0,0.0,0.0,0.4,0.0,0.0,-1.2,-1.57,0.0,0.0,-2.56,0.0,0.0,-0.66,-0.2,0.0,0.0
2110.0,0.0,0.0,0.0,0.4,0.0,0.0,-1.2,-1.57,0.0,0.0,-2.56,0.0,0.0,-0.66,-0.2,0.0,0.0
2120.0,0.0,0.0,0.0,0.4,0.0,0.0,-1.2,-1.57,0.0,0.0,-2.56,0.0,0.0,-0.66,-0.2,0.0,0.0
2130.0,0.0,0.0,0.0,0.4,0.0,0.0,-1.2,-1.57,0.0,0.0,-2.56,0.0,0.0,-0.66,-0.2,0.0,0.0
2140.0,0.0,0.0,0.0,0.4,0.0,0.0,-1.2,-1.57,0.0,0.0,-2.56,0.0,0.0,-0.66,-0.2,0.0,0.0
2150.0,0.0,0.0,0.0,0.4,0.0,0.0,-1.2,-1.57,0.0,0.0,-2.56,0.0,0.0,-0.66,-0.2,0.0,0.0
2160.0,0.0,0.0,0.0,0.4,0.0,0.0,-1.2,-1.57,0.0,0.0,-2.56,0.0,0.0,-0.66,-0.2,0.0,0.0
2170.0,0.0,0.0,0.0,0.4,0.0,0.0,-1.2,-1.57,0.0,0.0,-2.56,0.0,0.0,-0.66,-0.2,0.0,0.0
2180.0,0.0,0.0,0.0,0.4,0.0,0.0,-1.2,-1.57,0.0,0.0,-2.56,0.0,0.0,-0.66,-0.2,0.0,0.0
2190.0,0.0,0.0,0.0,0.4,0.0,0.0,-1.2,-1.57,0.0,0.0,-2.56,0.0,0.0,-0.66,-0.2,0.0,0.0
2200.0,0.0,0.0,0.0,0.4,0.0,0.0,-1.2,-1.57,0.0,0.0,-2.56,0.0,0.0,-0.66,-0.2,0.0,0.0
2210.0,0.0,0.0,0.0,0.4,0.0,0.0,-1.2,-1.57,0.0,0.0,-2.56,0.0,0.0,-0.66,-0.2,0.0,0.0
2220.0,0.0,0.0,0.0,0.4,0.0,0.0,-1.2,-1.57,0.0,0.0,-2.56,0.0,0.0,-0.66,-0.2,0.0,0.0
2230.0,0.0,0.0,0.0,0.4,0.0,0.0,-1.2,-1.57,0.0,0.0,-2.56,0.0,0.0,-0.66,-0.2,0.0,0.0
2240.0,0.0,0.0,0.0,0.4,0.0,0.0,-1.2,-1.57,0.0,0.0,-2.56,0.0,0.0,-0.66,-0.2,0.0,0.0
2250.0,0.0,0.0,0.0,0.4,0.0,0.0,-1.2,-1.57,0.0,0.0,-2.56,0.0,0.0,-0.66,-0.2,0.0,0.0
2260.0,0.0,0.0,0.0,0.4,0.0,0.0,-1.2,-1.57,0.0,0.0,-2.56,0.0,0.0,-0.66,-0.2,0.0,0.0
2270.0,0.0,0.0,0.0,0.4,0.0,0.0,-1.2,-1.57,0.0,0.0,-2.56,0.0,0.0,-0.66,-0.2,0.0,0.0
2280.0,0.0,0.0,0.0,0.4,0.0,0.0,-1.2,-1.57,0.0,0.0,-2.56,0.0,0.0,-0.66,-0.2,0.0,0.0
2290.0,0.0,0.0,0.0,0.4,0.0,0.0,-1.2,-1.57,0.0,0.0,-2.56,0.0,0.0,-0.66,-0.2,0.0,0.0
2300.0,0.0,0.0,0.0,0.4,0.0,0.0,-1.2,-1.57,0.0,0.0,-2.56,0.0,0.0,-0.66,-0.2,0.0,0.0
2310.0,0.0,0.0,0.0,0.4,0.0,0.0,-1.2,-1.57,0.0,0.0,-2.56,0.0,0.0,-0.66,-0.2,0.0,0.0
2320.0,0.0,0.0,0.0,0.4,0.0,0.0,-1.2,-1.57,0.0,0.0,-2.56,0.0,0.0,-0.66,-0.2,0.0,0.0
2330.0,0.0,0.0,0.0,0.4,0.0,0.0,-1.2,-1.57,0.0,0.0,-2.56,0.0,0.0,-0.66,-0.2,0.0,0.0
2340.0,0.0,0.0,0.0,0.4,0.0,0.0,-1.2,-1.57,0.0,0.0,-2.56,0.0,0.0,-0.66,-0.2,0.0,0.0
2350.0,0.0,0.0,0.0,0.4,0.0,0.0,-1.2,-1.57,0.0,0.0,-2.56,0.0,0.0,-0.66,-0.2,0.0,0.0
2360.0,0.0,0.0,0.0,0.4,0.0,0.0,-1.2,-1.57,0.0,0.0,-2.56,0.0,0.0,-0.66,-0.2,0.0,0.0
2370.0,0.0,0.0,0.0,0.4,0.0,0.0,-1.2,-1.57,0.0,0.0,-2.56,0.0,0.0,-0.66,-0.2,0.0,0.0
2380.0,0.0,0.0,0.0,0.4,0.0,0.0,-1.2,-1.57,0.0,0.0,-2.56,0.0,0.0,-0.66,-0.2,0.0,0.0
2390.0,0.0,0.0,0.0,0.4,0.0,0.0,-1.2,-1.57,0.0,0.0,-2.56,0.0,0.0,-0.66,-0.2,0.0,0.0
2400.0,0.0,0.0,0.0,0.4,0.0,0.0,-1.2,-1.57,0.0,0.0,-2.56,0.0,0.0,-0.66,-0.2,0.0,0.0
2410.0,0.0,0.0,0.0,0.4,0.0,0.0,-1.2,-1.57,0.0,0.0,-2.56,0.0,0.0,-0.66,-0.2,0.0,0.0
2420.0,0.0,0.0,0.0,0.4,0.0,0.0,-1.2,-1.57,0.0,0.0,-2.56,0.0,0.0,-0.66,-0.2,0.0,0.0
2430.0,0.0,0.0,0.0,0.4,0.0,0.0,-1.2,-1.57,0.0,0.0,-2.56,0.0,0.0,-0.66,-0.2,0.0,0.0
2440.0,0.0,0.0,0.0,0.4,0.0,0.0,-1.2,-1.57,0.0,0.0,-2.56,0.0,0.0,-0.66,-0.2,0.0,0.0
2450.0,0.0,0.0,0.0,0.4,0.0,0.0,-1.2,-1.57,0.0,0.0,-2.56,0.0,0.0,-0.66,-0.2,0.0,0.0
2460.0,0.0,0.0,0.0,0.4,0.0,0.0,-1.2,-1.57,0.0,0.0,-2.56,0.0,0.0,-0.66,-0.2,0.0,0.0
2470.0,0.0,0.0,0.0,0.4,0.0,0.0,-1.2,-1.57,0.0,0.0,-2.56,0.0,0.0,-0.66,-0.2,0.0,0.0
2480.0,0.0,0.0,0.0,0.4,0.0,0.0,-1.2,-1.57,0.0,0.0,-2.56,0.0,0.0,-0.66,-0.2,0.0,0.0
2490.0,0.0,0.0,0.0,0.4,0.0,0.0,-1.2,-1.57,0.0,0.0,-2.56,0.0,0.0,-0.66,-0.2,0.0,0.0
2500.0,0.0,0.0,0.0,0.4,0.0,0.0,-1.2,-1.57,0.0,0.0,-2.56,0.0,0.0,-0.66,-0.2,0.0,0.0
2510.0,0.0,0.0,0.0,0.4,0.0,0.0,-1.2,-1.57,0.0,0.0,-2.56,0.0,0.0,-0.66,-0.2,0.0,0.0
2520.0,0.0,0.0,0.0,0.4,0.0,0.0,-1.2,-1.57,0.0,0.0,-2.56,0.0,0.0,-0.66,-0.2,0.0,0.0
2530.0,0.0,0.0,0.0,0.4,0.0,0.0,-1.2,-1.57,0.0,0.0,-2.56,0.0,0.0,-0.66,-0.2,0.0,0.0
2540.0,0.0,0.0,0.0,0.4,0.0,0.0,-1.2,-1.57,0.0,0.0,-2.56,0.0,0.0,-0.66,-0.2,0.0,0.0
2550.0,0.0,0.0,0.0,0.4,0.0,0.0,-1.2,-1.57,0.0,0.0,-2.56,0.0,0.0,-0.66,-0.2,0.0,0.0
2560.0,0.0,0.0,0.0,0.4,0.0,0.0,-1.2,-1.57,0.0,0.0,-2.56,0.0,0.0,-0.66,-0.2,0.0,0.0
2570.0,0.0,0.0,0.0,0.4,0.0,0.0,-1.2,-1.57,0.0,0.0,-2.56,0.0,0.0,-0.66,-0.2,0.0,0.0
2580.0,0.0,0.0,0.0,0.4,0.0,0.0,-1.2,-1.57,0.0,0.0,-2.56,0.0,0.0,-0.66,-0.2,0.0,0.0
2590.0,0.0,0.0,0.0,0.4,0.0,0.0,-1.2,-1.57,0.0,0.0,-2.56,0.0,0.0,-0.66,-0.2,0.0,0.0
2600.0,0.0,0.0,0.0,0.4,0.0,0.0,-1.2,-1.57,0.0,0.0,-2.56,0.0,0.0,-0.66,-0.2,0.0,0.0
2610.0,0.0,0.0,0.0,0.4,0.0,0.0,-1.2,-1.57,0.0,0.0,-2.56,0.0,0.0,-0.66,-0.2,0.0,0.0
2620.0,0.0,0.0,0.0,0.4,0.0,0.0,-1.2,-1.57,0.0,0.0,-2.56,0.0,0.0,-0.66,-0.2,0.0,0.0
2630.0,0.0,0.0,0.0,0.4,0.0,0.0,-1.2,-1.57,0.0,0.0,-2.56,0.0,0.0,-0.66,-0.2,0.0,0.0
2640.0,0.0,0.0,0.0,0.4,0.0,0.0,-1.2,-1.57,0.0,0.0,-2.56,0.0,0.0,-0.66,-0.2,0.0,0.0
2650.0,0.0,0.0,0.0,0.4,0.0,0.0,-1.2,-1.57,0.0,0.0,-2.56,0.0,0.0,-0.66,-0.2,0.0,0.0
2660.0,0.0,0.0,0.0,0.4,0.0,0.0,-1.2,-1.57,0.0,0.0,-2.56,0.0,0.0,-0.66,-0.2,0.0,0.0
2670.0,0.0,0.0,0.0,0.4,0.0,0.0,-1.2,-1.57,0.0,0.0,-2.56,0.0,0.0,-0.66,-0.2,0.0,0.0
2680.0,0.0,0.0,0.0,0.4,0.0,0.0,-1.2,-1.57,0.0,0.0,-2.56,0.0,0.0,-0.66,-0.2,0.0,0.0
2690.0,0.0,0.0,0.0,0.4,0.0,0.0,-1.2,-1.57,0.0,0.0,-2.56,0.0,0.0,-0.66,-0.2,0.0,0.0
2700.0,0.0,0.0,0.0,0.4,0.0,0.0,-1.2,-1.57,0.0,0.0,-2.56,0.0,0.0,-0.66,-0.2,0.0,0.0
2710.0,0.0,0.0,0.0,0.4,0.0,0.0,-1.2,-1.57,0.0,0.0,-2.56,0.0,0.0,-0.66,-0.2,0.0,0.0
2720.0,0.0,0.0,0.0,0.4,0.0,0.0,-1.2,-1.57,0.0,0.0,-2.56,0.0,0.0,-0.66,-0.2,0.0,0.0
2730.0,0.0,0.0,0.0,0.4,0.0,0.0,-1.2,-1.57,0.0,0.0,-2.56,0.0,0.0,-0.66,-0.2,0.0,0.0
2740.0,0.0,0.0,0.0,0.4,0.0,0.0,-1.2,-1.57,0.0,0.0,-2.56,0.0,0.0,-0.66,-0.2,0.0,0.0
2750.0,0.0,0.0,0.0,0.4,0.0,0.0,-1.2,-1.57,0.0,0.0,-2.56,0.0,0.0,-0.66,-0.2,0.0,0.0
2760.0,0.0,0.0,0.0,0.4,0.0,0.0,-1.2,-1.57,0.0,0.0,-2.56,0.0,0.0,-0.66,-0.2,0.0,0.0
2770.0,0.0,0.0,0.0,0.4,0.0,0.0,-1.2,-1.57,0.0,0.0,-2.56,0.0,0.0,-0.66,-0.2,0.0,0.0
2780.0,0.0,0.0,0.0,0.4,0.0,0.0,-1.2,-1.57,0.0,0.0,-2.56,0.0,0.0,-0.66,-0.2,0.0,0.0
2790.0,0.0,0.0,0.0,0.4,0.0,0.0,-1.2,-1.57,0.0,0.0,-2.56,0.0,0.0,-0.66,-0.2,0.0,0.0
2800.0,0.0,0.0,0.0,0.4,0.0,0.0,-1.2,-1.57,0.0,0.0,-2.56,0.0,0.0,-0.66,-0.2,0.0,0.0
2810.0,0.0,0.0,0.0,0.4,0.0,0.0,-1.2,-1.57,0.0,0.0,-2.56,0.0,0.0,-0.66,-0.2,0.0,0.0
2820.0,0.0,0.0,0.0,0.4,0.0,0.0,-1.2,-1.57,0.0,0.0,-2.56,0.0,0.0,-0.66,-0.2,0.0,0.0
2830.0,0.0,0.0,0.0,0.4,0.0,0.0,-1.2,-1.57,0.0,0.0,-2.56,0.0,0.0,-0.66,-0.2,0.0,0.0
2840.0,0.0,0.0,0.0,0.4,0.0,0.0,-1.2,-1.57,0.0,0.0,-2.56,0.0,0.0,-0.66,-0.2,0.0,0.0
2850.0,0.0,0.0,0.0,0.4,0.0,0.0,-1.2,-1.57,0.0,0.0,-2.56,0.0,0.0,-0.66,-0.2,0.0,0.0
2860.0,0.0,0.0,0.0,0.4,0.0,0.0,-1.2,-1.57,0.0,0.0,-2.56,0.0,0.0,-0.66,-0.2,0.0,0.0
2870.0,0.0,0.0,0.0,0.4,0.0,0.0,-1.2,-1.57,0.0,0.0,-2.56,0.0,0.0,-0.66,-0.2,0.0,0.0
2880.0,0.0,0.0,0.0,0.4,0.0,0.0,-1.2,-1.57,0.0,0.0,-2.56,0.0,0.0,-0.66,-0.2,0.0,0.0
2890.0,0.0,0.0,0.0,0.4,0.0,0.0,-1.2,-1.57,0.0,0.0,-2.56,0.0,0.0,-0.66,-0.2,0.0,0.0
2900.0,0.0,0.0,0.0,0.4,0.0,0.0,-1.2,-1.57,0.0,0.0,-2.56,0.0,0.0,-0.66,-0.2,0.0,0.0
2910.0,0.0,0.0,0.0,0.4,0.0,0.0,-1.2,-1.57,0.0,0.0,-2.56,0.0,0.0,-0.66,-0.2,0.0,0.0
2920.0,0.0,0.0,0.0,0.4,0.0,0.0,-1.2,-1.57,0.0,0.0,-2.56,0.0,0.0,-0.66,-0.2,0.0,0.0
2930.0,0.0,0.0,0.0,0.4,0.0,0.0,-1.2,-1.57,0.0,0.0,-2.56,0.0,0.0,-0.66,-0.2,0.0,0.0
2940.0,0.0,0.0,0.0,0.4,0.0,0.0,-1.2,-1.57,0.0,0.0,-2.56,0.0,0.0,-0.66,-0.2,0.0,0.0
2950.0,0.0,0.0,0.0,0.4,0.0,0.0,-1.2,-1.57,0.0,0.0,-2.56,0.0,0.0,-0.66,-0.2,0.0,0.0
2960.0,0.0,0.0,0.0,0.4,0.0,0.0,-1.2,-1.57,0.0,0.0,-2.56,0.0,0.0,-0.66,-0.2,0.0,0.0
2970.0,0.0,0.0,0.0,0.4,0.0,0.0,-1.2,-1.57,0.0,0.0,-2.56,0.0,0.0,-0.66,-0.2,0.0,0.0
2980.0,0.0,0.0,0.0,0.4,0.0,0.0,-1.2,-1.57,0.0,0.0,-2.56,0.0,0.0,-0.66,-0.2,0.0,0.0
2990.0,0.0,0.0,0.0,0.4,0.0,0.0,-1.2,-1.57,0.0,0.0,-2.56,0.0,0.0,-0.66,-0.2,0.0,0.0
3000.0,0.0,0.0,0.0,0.4,0.0,0.0,-1.2,-1.57,0.0,0.0,-2.56,0.0,0.0,-0.66,-0.2,0.0,0.0
3010.0,0.0,0.0,0.0,0.4,0.0,0.0,-1.2,-1.57,0.0,0.0,-2.56,0.0,0.0,-0.66,-0.2,0.0,0.0
3020.0,0.0,0.0,0.0,0.4,0.0,0.0,-1.2,-1.57,0.0,0.0,-2.56,0.0,0.0,-0.66,-0.2,0.0,0.0
3030.0,0.0,0.0,0.0,0.4,0.0,0.0,-1.2,-1.57,0.0,0.0,-2.56,0.0,0.0,-0.66,-0.2,0.0,0.0
3040.0,0.0,0.0,0.0,0.4,0.0,0.0,-1.2,-1.57,0.0,0.0,-2.56,0.0,0.0,-0.66,-0.2,0.0,0.0
3050.0,0.0,0.0,0.0,0.4,0.0,0.0,-1.2,-1.57,0.0,0.0,-2.56,0.0,0.0,-0.66,-0.2,0.0,0.0
3060.0,0.0,0.0,0.0,0.4,0.0,0.0,-1.2,-1.57,0.0,0.0,-2.56,0.0,0.0,-0.66,-0.2,0.0,0.0
3070.0,0.0,0.0,0.0,0.4,0.0,0.0,-1.2,-1.57,0.0,0.0,-2.56,0.0,0.0,-0.66,-0.2,0.0,0.0
3080.0,0.0,0.0,0.0,0.4,0.0,0.0,-1.2,-1.57,0.0,0.0,-2.56,0.0,0.0,-0.66,-0.2,0.0,0.0
3090.0,0.0,0.0,0.0,0.4,0.0,0.0,-1.2,-1.57,0.0,0.0,-2.56,0.0,0.0,-0.66,-0.2,0.0,0.0
3100.0,0.0,0.0,0.0,0.4,0.0,0.0,-1.2,-1.57,0.0,0.0,-2.56,0.0,0.0,-0.66,-0.2,0.0,0.0
3110.0,0.0,0.0,0.0,0.4,0.0,0.0,-1.2,-1.57,0.0,0.0,-2.56,0.0,0.0,-0.66,-0.2,0.0,0.0
3120.0,0.0,0.0,0.0,0.4,0.0,0.0,-1.2,-1.57,0.0,0.0,-2.56,0.0,0.0,-0.66,-0.2,0.0,0.0
3130.0,0.0,0.0,0.0,0.4,0.0,0.0,-1.2,-1.57,0.0,0.0,-2.56,0.0,0.0,-0.66,-0.2,0.0,0.0
3140.0,0.0,0.0,0.0,0.4,0.0,0.0,-1.2,-1.57,0.0,0.0,-2.56,0.0,0.0,-0.66,-0.2,0.0,0.0
3150.0,0.0,0.0,0.0,0.4,0.0,0.0,-1.2,-1.57,0.0,0.0,-2.56,0.0,0.0,-0.66,-0.2,0.0,0.0
3160.0,0.0,0.0,0.0,0.4,0.0,0.0,-1.2,-1.57,0.0,0.0,-2.56,0.0,0.0,-0.66,-0.2,0.0,0.0
3170.0,0.0,0.0,0.0,0.4,0.0,0.0,-1.2,-1.57,0.0,0.0,-2.56,0.0,0.0,-0.66,-0.2,0.0,0.0
3180.0,0.0,0.0,0.0,0.4,0.0,0.0,-1.2,-1.57,0.0,0.0,-2.56,0.0,0.0,-0.66,-0.2,0.0,0.0
3190.0,0.0,0.0,0.0,0.4,0.0,0.0,-1.2,-1.57,0.0,0.0,-2.56,0.0,0.0,-0.66,-0.2,0.0,0.0
3200.0,0.0,0.0,0.0,0.4,0.0,0.0,-1.2,-1.57,0.0,0.0,-2.56,0.0,0.0,-0.66,-0.2,0.0,0.0
3210.0,0.0,0.0,0.0,0.4,0.0,0.0,-1.2,-1.57,0.0,0.0,-2.56,0.0,0.0,-0.66,-0.2,0.0,0.0
3220.0,0.0,0.0,0.0,0.4,0.0,0.0,-1.2,-1.57,0.0,0.0,-2.56,0.0,0.0,-0.66,-0.2,0.0,0.0
3230.0,0.0,0.0,0.0,0.4,0.0,0.0,-1.2,-1.57,0.0,0.0,-2.56,0.0,0.0,-0.66,-0.2,0.0,0.0
3240.0,0.0,0.0,0.0,0.4,0.0,0.0,-1.2,-1.57,0.0,0.0,-2.56,0.0,0.0,-0.66,-0.2,0.0,0.0
3250.0,0.0,0.0,0.0,0.4,0.0,0.0,-1.2,-1.57,0.0,0.0,-2.56,0.0,0.0,-0.66,-0.2,0.0,0.0
3260.0,0.0,0.0,0.0,0.4,0.0,0.0,-1.2,-1.57,0.0,0.0,-2.56,0.0,0.0,-0.66,-0.2,0.0,0.0
3270.0,0.0,0.0,0.0,0.4,0.0,0.0,-1.2,-1.57,0.0,0.0,-2.56,0.0,0.0,-0.66,-0.2,0.0,0.0
3280.0,0.0,0.0,0.0,0.4,0.0,0.0,-1.2,-1.57,0.0,0.0,-2.56,0.0,0.0,-0.66,-0.2,0.0,0.0
3290.0,0.0,0.0,0.0,0.4,0.0,0.0,-1.2,-1.57,0.0,0.0,-2.56,0.0,0.0,-0.66,-0.2,0.0,0.0
3300.0,0.0,0.0,0.0,0.4,0.0,0.0,-1.2,-1.57,0.0,0.0,-2.56,0.0,0.0,-0.66,-0.2,0.0,0.0
3310.0,0.0,0.0,0.0,0.4,0.0,0.0,-1.2,-1.57,0.0,0.0,-2.56,0.0,0.0,-0.66,-0.2,0.0,0.0
3320.0,0.0,0.0,0.0,0.4,0.0,0.0,-1.2,-1.57,0.0,0.0,-2.56,0.0,0.0,-0.66,-0.2,0.0,0.0
3330.0,0.0,0.0,0.0,0.4,0.0,0.0,-1.2,-1.57,0.0,0.0,-2.56,0.0,0.0,-0.66,-0.2,0.0,0.0
3340.0,0.0,0.0,0.0,0.4,0.0,0.0,-1.2,-1.57,0.0,0.0,-2.56,0.0,0.0,-0.66,-0.2,0.0,0.0
3350.0,0.0,0.0,0.0,0.4,0.0,0.0,-1.2,-1.57,0.0,0.0,-2.56,0.0,0.0,-0.66,-0.2,0.0,0.0
3360.0,0.0,0.0,0.0,0.4,0.0,0.0,-1.2,-1.57,0.0,0.0,-2.56,0.0,0.0,-0.66,-0.2,0.0,0.0
3370.0,0.0,0.0,0.0,0.4,0.0,0.0,-1.2,-1.57,0.0,0.0,-2.56,0.0,0.0,-0.66,-0.2,0.0,0.0
3380.0,0.0,0.0,0.0,0.4,0.0,0.0,-1.2,-1.57,0.0,0.0,-2.56,0.0,0.0,-0.66,-0.2,0.0,0.0
3390.0,0.0,0.0,0.0,0.4,0.0,0.0,-1.2,-1.57,0.0,0.0,-2.56,0.0,0.0,-0.66,-0.2,0.0,0.0
3400.0,0.0,0.0,0.0,0.4,0.0,0.0,-1.2,-1.57,0.0,0.0,-2.56,0.0,0.0,-0.66,-0.2,0.0,0.0
3410.0,0.0,0.0,0.0,0.4,0.0,0.0,-1.2,-1.57,0.0,0.0,-2.56,0.0,0.0,-0.66,-0.2,0.0,0.0
3420.0,0.0,0.0,0.0,0.4,0.0,0.0,-1.2,-1.57,0.0,0.0,-2.56,0.0,0.0,-0.66,-0.2,0.0,0.0
3430.0,0.0,0.0,0.0,0.4,0.0,0.0,-1.2,-1.57,0.0,0.0,-2.56,0.0,0.0,-0.66,-0.2,0.0,0.0
3440.0,0.0,0.0,0.0,0.4,0.0,0.0,-1.2,-1.57,0.0,0.0,-2.56,0.0,0.0,-0.66,-0.2,0.0,0.0
3450.0,0.0,0.0,0.0,0.4,0.0,0.0,-1.2,-1.57,0.0,0.0,-2.56,0.0,0.0,-0.66,-0.2,0.0,0.0
3460.0,0.0,0.0,0.0,0.4,0.0,0.0,-1.2,-1.57,0.0,0.0,-2.56,0.0,0.0,-0.66,-0.2,0.0,0.0
3470.0,0.0,0.0,0.0,0.4,0.0,0.0,-1.2,-1.57,0.0,0.0,-2.56,0.0,0.0,-0.66,-0.2,0.0,0.0
3480.0,0.0,0.0,0.0,0.4,0.0,0.0,-1.2,-1.57,0.0,0.0,-2.56,0.0,0.0,-0.66,-0.2,0.0,0.0
3490.0,0.0,0.0,0.0,0.4,0.0,0.0,-1.2,-1.57,0.0,0.0,-2.56,0.0,0.0,-0.66,-0.2,0.0,0.0
3500.0,0.0,0.0,0.0,0.4,0.0,0.0,-1.2,-1.57,0.0,0.0,-2.56,0.0,0.0,-0.66,-0.2,0.0,0.0
3510.0,0.0,0.0,0.0,0.4,0.0,0.0,-1.2,-1.57,0.0,0.0,-2.5402666666666667,0.0,0.0,-0.6636000000000001,-0.1882,0.0,0.0
3520.0,0.0,0.0,0.0,0.4,0.0,0.0,-1.2,-1.57,0.0,0.0,-2.5205333333333333,0.0,0.0,-0.6672,-0.1764,0.0,0.0
3530.0,0.0,0.0,0.0,0.4,0.0,0.0,-1.2,-1.57,0.0,0.0,-2.5008,0.0,0.0,-0.6708000000000001,-0.16460000000000002,0.0,0.0
3540.0,0.0,0.0,0.0,0.4,0.0,0.0,-1.2,-1.57,0.0,0.0,-2.4810666666666665,0.0,0.0,-0.6744,-0.1528,0.0,0.0
3550.0,0.0,0.0,0.0,0.4,0.0,0.0,-1.2,-1.57,0.0,0.0,-2.4613333333333336,0.0,0.0,-0.678,-0.14100000000000001,0.0,0.0
3560.0,0.0,0.0,0.0,0.4,0.0,0.0,-1.2,-1.57,0.0,0.0,-2.4416,0.0,0.0,-0.6816,-0.1292,0.0,0.0
3570.0,0.0,0.0,0.0,0.4,0.0,0.0,-1.2,-1.57,0.0,0.0,-2.421866666666667,0.0,0.0,-0.6852,-0.1174,0.0,0.0
3580.0,0.0,0.0,0.0,0.4,0.0,0.0,-1.2,-1.57,0.0,0.0,-2.4021333333333335,0.0,0.0,-0.6888000000000001,-0.1056,0.0,0.0
3590.0,0.0,0.0,0.0,0.4,0.0,0.0,-1.2,-1.57,0.0,0.0,-2.3824,0.0,0.0,-0.6924,-0.09380000000000001,0.0,0.0
3600.0,0.0,0.0,0.0,0.4,0.0,0.0,-1.2,-1.57,0.0,0.0,-2.3626666666666667,0.0,0.0,-0.6960000000000001,-0.082,0.0,0.0
3610.0,0.0,0.0,0.0,0.4,0.0,0.0,-1.2,-1.57,0.0,0.0,-2.3429333333333333,0.0,0.0,-0.6996,-0.07020000000000001,0.0,0.0
3620.0,0.0,0.0,0.0,0.4,0.0,0.0,-1.2,-1.57,0.0,0.0,-2.3232,0.0,0.0,-0.7032,-0.05840000000000001,0.0,0.0
3630.0,0.0,0.0,0.0,0.4,0.0,0.0,-1.2,-1.57,0.0,0.0,-2.3034666666666666,0.0,0.0,-0.7068,-0.0466,0.0,0.0
3640.0,0.0,0.0,0.0,0.4,0.0,0.0,-1.2,-1.57,0.0,0.0,-2.283733333333333,0.0,0.0,-0.7104,-0.0348,0.0,0.0
3650.0,0.0,0.0,0.0,0.4,0.0,0.0,-1.2,-1.57,0.0,0.0,-2.2640000000000002,0.0,0.0,-0.714,-0.022999999999999993,0.0,0.0
3660.0,0.0,0.0,0.0,0.4,0.0,0.0,-1.2,-1.57,0.0,0.0,-2.244266666666667,0.0,0.0,-0.7176,-0.011199999999999988,0.0,0.0
3670.0,0.0,0.0,0.0,0.4,0.0,0.0,-1.2,-1.57,0.0,0.0,-2.2245333333333335,0.0,0.0,-0.7212000000000001,0.0005999999999999894,0.0,0.0
3680.0,0.0,0.0,0.0,0.4,0.0,0.0,-1.2,-1.57,0.0,0.0,-2.2048,0.0,0.0,-0.7248,0.012399999999999994,0.0,0.0
3690.0,0.0,0.0,0.0,0.4,0.0,0.0,-1.2,-1.57,0.0,0.0,-2.1850666666666667,0.0,0.0,-0.7284,0.0242,0.0,0.0
3700.0,0.0,0.0,0.0,0.4,0.0,0.0,-1.2,-1.57,0.0,0.0,-2.1653333333333333,0.0,0.0,-0.732,0.036000000000000004,0.0,0.0
3710.0,0.0,0.0,0.0,0.4,0.0,0.0,-1.2,-1.57,0.0,0.0,-2.1456,0.0,0.0,-0.7356,0.04780000000000001,0.0,0.0
3720.0,0.0,0.0,0.0,0.4,0.0,0.0,-1.2,-1.57,0.0,0.0,-2.1258666666666666,0.0,0.0,-0.7392000000000001,0.059599999999999986,0.0,0.0
3730.0,0.0,0.0,0.0,0.4,0.0,0.0,-1.2,-1.57,0.0,0.0,-2.106133333333333,0.0,0.0,-0.7428,0.07140000000000002,0.0,0.0
3740.0,0.0,0.0,0.0,0.4,0.0,0.0,-1.2,-1.57,0.0,0.0,-2.0864000000000003,0.0,0.0,-0.7464000000000001,0.0832,0.0,0.0
3750.0,0.0,0.0,0.0,0.4,0.0,0.0,-1.2,-1.57,0.0,0.0,-2.066666666666667,0.0,0.0,-0.75,0.09500000000000003,0.0,0.0
3760.0,0.0,0.0,0.0,0.4,0.0,0.0,-1.2,-1.57,0.0,0.0,-2.0469333333333335,0.0,0.0,-0.7536,0.1068,0.0,0.0
3770.0,0.0,0.0,0.0,0.4,0.0,0.0,-1.2,-1.57,0.0,0.0,-2.0272,0.0,0.0,-0.7572,0.11859999999999998,0.0,0.0
3780.0,0.0,0.0,0.0,0.4,0.0,0.0,-1.2,-1.57,0.0,0.0,-2.0074666666666667,0.0,0.0,-0.7608,0.13040000000000002,0.0,0.0
3790.0,0.0,0.0,0.0,0.4,0.0,0.0,-1.2,-1.57,0.0,0.0,-1.9877333333333334,0.0,0.0,-0.7644,0.1422,0.0,0.0
3800.0,0.0,0.0,0.0,0.4,0.0,0.0,-1.2,-1.57,0.0,0.0,-1.968,0.0,0.0,-0.768,0.15400000000000003,0.0,0.0
3810.0,0.0,0.0,0.0,0.4,0.0,0.0,-1.2,-1.57,0.0,0.0,-1.9482666666666666,0.0,0.0,-0.7716000000000001,0.1658,0.0,0.0
3820.0,0.0,0.0,0.0,0.4,0.0,0.0,-1.2,-1.57,0.0,0.0,-1.9285333333333332,0.0,0.0,-0.7752,0.17760000000000004,0.0,0.0
3830.0,0.0,0.0,0.0,0.4,0.0,0.0,-1.2,-1.57,0.0,0.0,-1.9088,0.0,0.0,-0.7788,0.1894,0.0,0.0
3840.0,0.0,0.0,0.0,0.4,0.0,0.0,-1.2,-1.57,0.0,0.0,-1.8890666666666667,0.0,0.0,-0.7824,0.2012,0.0,0.0
3850.0,0.0,0.0,0.0,0.4,0.0,0.0,-1.2,-1.57,0.0,0.0,-1.8693333333333333,0.0,0.0,-0.786,0.21300000000000002,0.0,0.0
3860.0,0.0,0.0,0.0,0.4,0.0,0.0,-1.2,-1.57,0.0,0.0,-1.8496000000000001,0.0,0.0,-0.7896000000000001,0.2248,0.0,0.0
3870.0,0.0,0.0,0.0,0.4,0.0,0.0,-1.2,-1.57,0.0,0.0,-1.8298666666666668,0.0,0.0,-0.7932,0.23660000000000003,0.0,0.0
3880.0,0.0,0.0,0.0,0.4,0.0,0.0,-1.2,-1.57,0.0,0.0,-1.8101333333333334,0.0,0.0,-0.7968,0.2484,0.0,0.0
3890.0,0.0,0.0,0.0,0.4,0.0,0.0,-1.2,-1.57,0.0,0.0,-1.7904,0.0,0.0,-0.8004,0.2602,0.0,0.0
3900.0,0.0,0.0,0.0,0.4,0.0,0.0,-1.2,-1.57,0.0,0.0,-1.7706666666666666,0.0,0.0,-0.804,0.272,0.0,0.0
3910.0,0.0,0.0,0.0,0.4,0.0,0.0,-1.2,-1.57,0.0,0.0,-1.7509333333333332,0.0,0.0,-0.8076,0.2838,0.0,0.0
3920.0,0.0,0.0,0.0,0.4,0.0,0.0,-1.2,-1.57,0.0,0.0,-1.7311999999999999,0.0,0.0,-0.8112,0.29560000000000003,0.0,0.0
3930.0,0.0,0.0,0.0,0.4,0.0,0.0,-1.2,-1.57,0.0,0.0,-1.7114666666666667,0.0,0.0,-0.8148,0.30740000000000006,0.0,0.0
3940.0,0.0,0.0,0.0,0.4,0.0,0.0,-1.2,-1.57,0.0,0.0,-1.6917333333333333,0.0,0.0,-0.8184,0.3192,0.0,0.0
3950.0,0.0,0.0,0.0,0.4,0.0,0.0,-1.2,-1.57,0.0,0.0,-1.6720000000000002,0.0,0.0,-0.8220000000000001,0.331,0.0,0.0
3960.0,0.0,0.0,0.0,0.4,0.0,0.0,-1.2,-1.57,0.0,0.0,-1.6522666666666668,0.0,0.0,-0.8256,0.34280000000000005,0.0,0.0
3970.0,0.0,0.0,0.0,0.4,0.0,0.0,-1.2,-1.57,0.0,0.0,-1.6325333333333334,0.0,0.0,-0.8292,0.35459999999999997,0.0,0.0
3980.0,0.0,0.0,0.0,0.4,0.0,0.0,-1.2,-1.57,0.0,0.0,-1.6128,0.0,0.0,-0.8328,0.3664,0.0,0.0
3990.0,0.0,0.0,0.0,0.4,0.0,0.0,-1.2,-1.57,0.0,0.0,-1.5930666666666666,0.0,0.0,-0.8364,0.37820000000000004,0.0,0.0
4000.0,0.0,0.0,0.0,0.4,0.0,0.0,-1.2,-1.57,0.0,0.0,-1.5733333333333333,0.0,0.0,-0.8400000000000001,0.39000000000000007,0.0,0.0
4010.0,0.0,0.0,0.0,0.4,0.0,0.0,-1.2,-1.57,0.0,0.0,-1.5536,0.0,0.0,-0.8436,0.4018,0.0,0.0
4020.0,0.0,0.0,0.0,0.4,0.0,0.0,-1.2,-1.57,0.0,0.0,-1.5338666666666667,0.0,0.0,-0.8472,0.4136,0.0,0.0
4030.0,0.0,0.0,0.0,0.4,0.0,0.0,-1.2,-1.57,0.0,0.0,-1.5141333333333333,0.0,0.0,-0.8508,0.42540000000000006,0.0,0.0
4040.0,0.0,0.0,0.0,0.4,0.0,0.0,-1.2,-1.57,0.0,0.0,-1.4944,0.0,0.0,-0.8544,0.4372,0.0,0.0
4050.0,0.0,0.0,0.0,0.4,0.0,0.0,-1.2,-1.57,0.0,0.0,-1.4746666666666666,0.0,0.0,-0.858,0.449,0.0,0.0
4060.0,0.0,0.0,0.0,0.4,0.0,0.0,-1.2,-1.57,0.0,0.0,-1.4549333333333334,0.0,0.0,-0.8616,0.46080000000000004,0.0,0.0
4070.0,0.0,0.0,0.0,0.4,0.0,0.0,-1.2,-1.57,0.0,0.0,-1.4352,0.0,0.0,-0.8652,0.4726000000000001,0.0,0.0
4080.0,0.0,0.0,0.0,0.4,0.0,0.0,-1.2,-1.57,0.0,0.0,-1.4154666666666667,0.0,0.0,-0.8688,0.4844,0.0,0.0
4090.0,0.0,0.0,0.0,0.4,0.0,0.0,-1.2,-1.57,0.0,0.0,-1.3957333333333333,0.0,0.0,-0.8724000000000001,0.49620000000000003,0.0,0.0
4100.0,0.0,0.0,0.0,0.4,0.0,0.0,-1.2,-1.57,0.0,0.0,-1.376,0.0,0.0,-0.876,0.508,0.0,0.0
4110.0,0.0,0.0,0.0,0.4,0.0,0.0,-1.2,-1.57,0.0,0.0,-1.3562666666666667,0.0,0.0,-0.8796,0.5198,0.0,0.0
4120.0,0.0,0.0,0.0,0.4,0.0,0.0,-1.2,-1.57,0.0,0.0,-1.3365333333333334,0.0,0.0,-0.8832,0.5316000000000001,0.0,0.0
4130.0,0.0,0.0,0.0,0.4,0.0,0.0,-1.2,-1.57,0.0,0.0,-1.3168,0.0,0.0,-0.8868,0.5434000000000001,0.0,0.0
4140.0,0.0,0.0,0.0,0.4,0.0,0.0,-1.2,-1.57,0.0,0.0,-1.2970666666666666,0.0,0.0,-0.8904000000000001,0.5552000000000001,0.0,0.0
4150.0,0.0,0.0,0.0,0.4,0.0,0.0,-1.2,-1.57,0.0,0.0,-1.2773333333333332,0.0,0.0,-0.894,0.567,0.0,0.0
4160.0,0.0,0.0,0.0,0.4,0.0,0.0,-1.2,-1.57,0.0,0.0,-1.2576,0.0,0.0,-0.8976,0.5788,0.0,0.0
4170.0,0.0,0.0,0.0,0.4,0.0,0.0,-1.2,-1.57,0.0,0.0,-1.2378666666666667,0.0,0.0,-0.9012,0.5906,0.0,0.0
4180.0,0.0,0.0,0.0,0.4,0.0,0.0,-1.2,-1.57,0.0,0.0,-1.2181333333333333,0.0,0.0,-0.9048,0.6024,0.0,0.0
4190.0,0.0,0.0,0.0,0.4,0.0,0.0,-1.2,-1.57,0.0,0.0,-1.1984,0.0,0.0,-0.9084,0.6142000000000001,0.0,0.0
4200.0,0.0,0.0,0.0,0.4,0.0,0.0,-1.2,-1.57,0.0,0.0,-1.1786666666666665,0.0,0.0,-0.912,0.6260000000000001,0.0,0.0
4210.0,0.0,0.0,0.0,0.4,0.0,0.0,-1.2,-1.57,0.0,0.0,-1.1589333333333334,0.0,0.0,-0.9156,0.6377999999999999,0.0,0.0
4220.0,0.0,0.0,0.0,0.4,0.0,0.0,-1.2,-1.57,0.0,0.0,-1.1392,0.0,0.0,-0.9192,0.6496,0.0,0.0
4230.0,0.0,0.0,0.0,0.4,0.0,0.0,-1.2,-1.57,0.0,0.0,-1.1194666666666666,0.0,0.0,-0.9228000000000001,0.6614,0.0,0.0
4240.0,0.0,0.0,0.0,0.4,0.0,0.0,-1.2,-1.57,0.0,0.0,-1.0997333333333332,0.0,0.0,-0.9264,0.6732,0.0,0.0
4250.0,0.0,0.0,0.0,0.4,0.0,0.0,-1.2,-1.57,0.0,0.0,-1.08,0.0,0.0,-0.9299999999999999,0.685,0.0,0.0
4260.0,0.0,0.0,0.0,0.4,0.0,0.0,-1.2,-1.57,0.0,0.0,-1.0602666666666667,0.0,0.0,-0.9336,0.6968000000000001,0.0,0.0
4270.0,0.0,0.0,0.0,0.4,0.0,0.0,-1.2,-1.57,0.0,0.0,-1.0405333333333333,0.0,0.0,-0.9372,0.7086000000000001,0.0,0.0
4280.0,0.0,0.0,0.0,0.4,0.0,0.0,-1.2,-1.57,0.0,0.0,-1.0208,0.0,0.0,-0.9408000000000001,0.7203999999999999,0.0,0.0
4290.0,0.0,0.0,0.0,0.4,0.0,0.0,-1.2,-1.57,0.0,0.0,-1.0010666666666665,0.0,0.0,-0.9444,0.7322,0.0,0.0
4300.0,0.0,0.0,0.0,0.4,0.0,0.0,-1.2,-1.57,0.0,0.0,-0.9813333333333334,0.0,0.0,-0.948,0.744,0.0,0.0
4310.0,0.0,0.0,0.0,0.4,0.0,0.0,-1.2,-1.57,0.0,0.0,-0.9616,0.0,0.0,-0.9516,0.7558,0.0,0.0
4320.0,0.0,0.0,0.0,0.4,0.0,0.0,-1.2,-1.57,0.0,0.0,-0.9418666666666666,0.0,0.0,-0.9552,0.7676000000000001,0.0,0.0
4330.0,0.0,0.0,0.0,0.4,0.0,0.0,-1.2,-1.57,0.0,0.0,-0.9221333333333332,0.0,0.0,-0.9588,0.7794000000000001,0.0,0.0
4340.0,0.0,0.0,0.0,0.4,0.0,0.0,-1.2,-1.57,0.0,0.0,-0.9023999999999999,0.0,0.0,-0.9623999999999999,0.7912000000000001,0.0,0.0
4350.0,0.0,0.0,0.0,0.4,0.0,0.0,-1.2,-1.57,0.0,0.0,-0.8826666666666667,0.0,0.0,-0.966,0.8030000000000002,0.0,0.0
4360.0,0.0,0.0,0.0,0.4,0.0,0.0,-1.2,-1.57,0.0,0.0,-0.8629333333333333,0.0,0.0,-0.9696,0.8148000000000002,0.0,0.0
4370.0,0.0,0.0,0.0,0.4,0.0,0.0,-1.2,-1.57,0.0,0.0,-0.8432,0.0,0.0,-0.9732000000000001,0.8266,0.0,0.0
4380.0,0.0,0.0,0.0,0.4,0.0,0.0,-1.2,-1.57,0.0,0.0,-0.8234666666666666,0.0,0.0,-0.9768,0.8384,0.0,0.0
4390.0,0.0,0.0,0.0,0.4,0.0,0.0,-1.2,-1.57,0.0,0.0,-0.8037333333333332,0.0,0.0,-0.9803999999999999,0.8502000000000001,0.0,0.0
4400.0,0.0,0.0,0.0,0.4,0.0,0.0,-1.2,-1.57,0.0,0.0,-0.784,0.0,0.0,-0.984,0.8620000000000001,0.0,0.0
4410.0,0.0,0.0,0.0,0.4,0.0,0.0,-1.2,-1.57,0.0,0.0,-0.7642666666666666,0.0,0.0,-0.9876,0.8738000000000001,0.0,0.0
4420.0,0.0,0.0,0.0,0.4,0.0,0.0,-1.2,-1.57,0.0,0.0,-0.7445333333333333,0.0,0.0,-0.9912000000000001,0.8856000000000002,0.0,0.0
4430.0,0.0,0.0,0.0,0.4,0.0,0.0,-1.2,-1.57,0.0,0.0,-0.7247999999999999,0.0,0.0,-0.9948,0.8974000000000002,0.0,0.0
4440.0,0.0,0.0,0.0,0.4,0.0,0.0,-1.2,-1.57,0.0,0.0,-0.7050666666666665,0.0,0.0,-0.9984,0.9092,0.0,0.0
4450.0,0.0,0.0,0.0,0.4,0.0,0.0,-1.2,-1.57,0.0,0.0,-0.6853333333333333,0.0,0.0,-1.002,0.921,0.0,0.0
4460.0,0.0,0.0,0.0,0.4,0.0,0.0,-1.2,-1.57,0.0,0.0,-0.6656,0.0,0.0,-1.0056,0.9328000000000001,0.0,0.0
4470.0,0.0,0.0,0.0,0.4,0.0,0.0,-1.2,-1.57,0.0,0.0,-0.6458666666666666,0.0,0.0,-1.0091999999999999,0.9446000000000001,0.0,0.0
4480.0,0.0,0.0,0.0,0.4,0.0,0.0,-1.2,-1.57,0.0,0.0,-0.6261333333333332,0.0,0.0,-1.0128,0.9564000000000001,0.0,0.0
4490.0,0.0,0.0,0.0,0.4,0.0,0.0,-1.2,-1.57,0.0,0.0,-0.6063999999999998,0.0,0.0,-1.0164,0.9682000000000002,0.0,0.0
4500.0,0.0,0.0,0.0,0.4,0.0,0.0,-1.2,-1.57,0.0,0.0,-0.5866666666666667,0.0,0.0,-1.02,0.9800000000000002,0.0,0.0
4510.0,0.0,0.0,0.0,0.4,0.0,0.0,-1.2,-1.57,0.0,0.0,-0.5669333333333333,0.0,0.0,-1.0236,0.9918,0.0,0.0
4520.0,0.0,0.0,0.0,0.4,0.0,0.0,-1.2,-1.57,0.0,0.0,-0.5472000000000001,0.0,0.0,-1.0272000000000001,1.0036,0.0,0.0
4530.0,0.0,0.0,0.0,0.4,0.0,0.0,-1.2,-1.57,0.0,0.0,-0.5274666666666668,0.0,0.0,-1.0308,1.0154,0.0,0.0
4540.0,0.0,0.0,0.0,0.4,0.0,0.0,-1.2,-1.57,0.0,0.0,-0.5077333333333334,0.0,0.0,-1.0344,1.0272000000000001,0.0,0.0
4550.0,0.0,0.0,0.0,0.4,0.0,0.0,-1.2,-1.57,0.0,0.0,-0.488,0.0,0.0,-1.038,1.0390000000000001,0.0,0.0
4560.0,0.0,0.0,0.0,0.4,0.0,0.0,-1.2,-1.57,0.0,0.0,-0.4682666666666666,0.0,0.0,-1.0415999999999999,1.0508000000000002,0.0,0.0
4570.0,0.0,0.0,0.0,0.4,0.0,0.0,-1.2,-1.57,0.0,0.0,-0.44853333333333323,0.0,0.0,-1.0452,1.0626000000000002,0.0,0.0
4580.0,0.0,0.0,0.0,0.4,0.0,0.0,-1.2,-1.57,0.0,0.0,-0.42879999999999985,0.0,0.0,-1.0488,1.0744,0.0,0.0
4590.0,0.0,0.0,0.0,0.4,0.0,0.0,-1.2,-1.57,0.0,0.0,-0.40906666666666647,0.0,0.0,-1.0524,1.0862,0.0,0.0
4600.0,0.0,0.0,0.0,0.4,0.0,0.0,-1.2,-1.57,0.0,0.0,-0.3893333333333331,0.0,0.0,-1.056,1.098,0.0,0.0
4610.0,0.0,0.0,0.0,0.4,0.0,0.0,-1.2,-1.57,0.0,0.0,-0.3695999999999997,0.0,0.0,-1.0596,1.1098000000000001,0.0,0.0
4620.0,0.0,0.0,0.0,0.4,0.0,0.0,-1.2,-1.57,0.0,0.0,-0.34986666666666677,0.0,0.0,-1.0632,1.1216000000000002,0.0,0.0
4630.0,0.0,0.0,0.0,0.4,0.0,0.0,-1.2,-1.57,0.0,0.0,-0.3301333333333334,0.0,0.0,-1.0668,1.1334000000000002,0.0,0.0
4640.0,0.0,0.0,0.0,0.4,0.0,0.0,-1.2,-1.57,0.0,0.0,-0.3104,0.0,0.0,-1.0704,1.1452000000000002,0.0,0.0
4650.0,0.0,0.0,0.0,0.4,0.0,0.0,-1.2,-1.57,0.0,0.0,-0.29066666666666663,0.0,0.0,-1.074,1.157,0.0,0.0
4660.0,0.0,0.0,0.0,0.4,0.0,0.0,-1.2,-1.57,0.0,0.0,-0.27093333333333325,0.0,0.0,-1.0776,1.1688,0.0,0.0
4670.0,0.0,0.0,0.0,0.4,0.0,0.0,-1.2,-1.57,0.0,0.0,-0.25119999999999987,0.0,0.0,-1.0812,1.1806,0.0,0.0
4680.0,0.0,0.0,0.0,0.4,0.0,0.0,-1.2,-1.57,0.0,0.0,-0.2314666666666665,0.0,0.0,-1.0848,1.1924000000000001,0.0,0.0
4690.0,0.0,0.0,0.0,0.4,0.0,0.0,-1.2,-1.57,0.0,0.0,-0.2117333333333331,0.0,0.0,-1.0884,1.2042000000000002,0.0,0.0
4700.0,0.0,0.0,0.0,0.4,0.0,0.0,-1.2,-1.57,0.0,0.0,-0.19199999999999973,0.0,0.0,-1.092,1.2160000000000002,0.0,0.0
4710.0,0.0,0.0,0.0,0.4,0.0,0.0,-1.2,-1.57,0.0,0.0,-0.1722666666666668,0.0,0.0,-1.0956000000000001,1.2278000000000002,0.0,0.0
4720.0,0.0,0.0,0.0,0.4,0.0,0.0,-1.2,-1.57,0.0,0.0,-0.1525333333333334,0.0,0.0,-1.0992,1.2396,0.0,0.0
4730.0,0.0,0.0,0.0,0.4,0.0,0.0,-1.2,-1.57,0.0,0.0,-0.13280000000000003,0.0,0.0,-1.1028,1.2514,0.0,0.0
4740.0,0.0,0.0,0.0,0.4,0.0,0.0,-1.2,-1.57,0.0,0.0,-0.11306666666666665,0.0,0.0,-1.1064,1.2632,0.0,0.0
4750.0,0.0,0.0,0.0,0.4,0.0,0.0,-1.2,-1.57,0.0,0.0,-0.09333333333333327,0.0,0.0,-1.1099999999999999,1.2750000000000001,0.0,0.0
4760.0,0.0,0.0,0.0,0.4,0.0,0.0,-1.2,-1.57,0.0,0.0,-0.07359999999999989,0.0,0.0,-1.1136,1.2868000000000002,0.0,0.0
4770.0,0.0,0.0,0.0,0.4,0.0,0.0,-1.2,-1.57,0.0,0.0,-0.05386666666666651,0.0,0.0,-1.1172,1.2986000000000002,0.0,0.0
4780.0,0.0,0.0,0.0,0.4,0.0,0.0,-1.2,-1.57,0.0,0.0,-0.03413333333333313,0.0,0.0,-1.1208,1.3104000000000002,0.0,0.0
4790.0,0.0,0.0,0.0,0.4,0.0,0.0,-1.2,-1.57,0.0,0.0,-0.014399999999999746,0.0,0.0,-1.1244,1.3222,0.0,0.0
4800.0,0.0,0.0,0.0,0.4,0.0,0.0,-1.2,-1.57,0.0,0.0,0.005333333333333634,0.0,0.0,-1.1280000000000001,1.334,0.0,0.0
4810.0,0.0,0.0,0.0,0.4,0.0,0.0,-1.2,-1.57,0.0,0.0,0.02506666666666657,0.0,0.0,-1.1316,1.3458,0.0,0.0
4820.0,0.0,0.0,0.0,0.4,0.0,0.0,-1.2,-1.57,0.0,0.0,0.04479999999999995,0.0,0.0,-1.1352,1.3576000000000001,0.0,0.0
4830.0,0.0,0.0,0.0,0.4,0.0,0.0,-1.2,-1.57,0.0,0.0,0.06453333333333333,0.0,0.0,-1.1388,1.3694000000000002,0.0,0.0
4840.0,0.0,0.0,0.0,0.4,0.0,0.0,-1.2,-1.57,0.0,0.0,0.08426666666666671,0.0,0.0,-1.1423999999999999,1.3812000000000002,0.0,0.0
4850.0,0.0,0.0,0.0,0.4,0.0,0.0,-1.2,-1.57,0.0,0.0,0.10400000000000009,0.0,0.0,-1.146,1.393,0.0,0.0
4860.0,0.0,0.0,0.0,0.4,0.0,0.0,-1.2,-1.57,0.0,0.0,0.12373333333333347,0.0,0.0,-1.1496,1.4048,0.0,0.0
4870.0,0.0,0.0,0.0,0.4,0.0,0.0,-1.2,-1.57,0.0,0.0,0.14346666666666685,0.0,0.0,-1.1532,1.4166,0.0,0.0
4880.0,0.0,0.0,0.0,0.4,0.0,0.0,-1.2,-1.57,0.0,0.0,0.16320000000000023,0.0,0.0,-1.1568,1.4284000000000001,0.0,0.0
4890.0,0.0,0.0,0.0,0.4,0.0,0.0,-1.2,-1.57,0.0,0.0,0.18293333333333361,0.0,0.0,-1.1604,1.4402000000000001,0.0,0.0
4900.0,0.0,0.0,0.0,0.4,0.0,0.0,-1.2,-1.57,0.0,0.0,0.202666666666667,0.0,0.0,-1.1640000000000001,1.4520000000000002,0.0,0.0
4910.0,0.0,0.0,0.0,0.4,0.0,0.0,-1.2,-1.57,0.0,0.0,0.22239999999999993,0.0,0.0,-1.1676,1.4638000000000002,0.0,0.0
4920.0,0.0,0.0,0.0,0.4,0.0,0.0,-1.2,-1.57,0.0,0.0,0.2421333333333333,0.0,0.0,-1.1712,1.4756,0.0,0.0
4930.0,0.0,0.0,0.0,0.4,0.0,0.0,-1.2,-1.57,0.0,0.0,0.2618666666666667,0.0,0.0,-1.1747999999999998,1.4874,0.0,0.0
4940.0,0.0,0.0,0.0,0.4,0.0,0.0,-1.2,-1.57,0.0,0.0,0.2816000000000001,0.0,0.0,-1.1784,1.4992,0.0,0.0
4950.0,0.0,0.0,0.0,0.4,0.0,0.0,-1.2,-1.57,0.0,0.0,0.30133333333333345,0.0,0.0,-1.182,1.5110000000000001,0.0,0.0
4960.0,0.0,0.0,0.0,0.4,0.0,0.0,-1.2,-1.57,0.0,0.0,0.32106666666666683,0.0,0.0,-1.1856,1.5228000000000002,0.0,0.0
4970.0,0.0,0.0,0.0,0.4,0.0,0.0,-1.2,-1.57,0.0,0.0,0.3408000000000002,0.0,0.0,-1.1892,1.5346000000000002,0.0,0.0
4980.0,0.0,0.0,0.0,0.4,0.0,0.0,-1.2,-1.57,0.0,0.0,0.3605333333333336,0.0,0.0,-1.1928,1.5464000000000002,0.0,0.0
4990.0,0.0,0.0,0.0,0.4,0.0,0.0,-1.2,-1.57,0.0,0.0,0.380266666666667,0.0,0.0,-1.1964000000000001,1.5582,0.0,0.0
5000.0,0.0,0.0,0.0,0.4,0.0,0.0,-1.2,-1.57,0.0,0.0,0.4,0.0,0.0,-1.2,1.57,0.0,0.0
