jplin123/TWIST/assets/upper_body_csv/SM_shake_left_hand.csv
timeCNT,planningAngle::waist_yaw_joint,planningAngle::waist_pitch_joint,planningAngle::waist_roll_joint,planningAngle::left_shoulder_pitch_joint,planningAngle::left_shoulder_roll_joint,planningAngle::left_shoulder_yaw_joint,planningAngle::left_elbow_joint,planningAngle::left_wrist_yaw_joint,planningAngle::left_wrist_pitch_joint,planningAngle::left_wrist_roll_joint,planningAngle::right_shoulder_pitch_joint,planningAngle::right_shoulder_roll_joint,planningAngle::right_shoulder_yaw_joint,planningAngle::right_elbow_joint,planningAngle::right_wrist_yaw_joint,planningAngle::right_wrist_pitch_joint,planningAngle::right_wrist_roll_joint
0.0,0.0,0.0,0.0,0.4,0.0,0.0,-1.2,-1.57,0.0,0.0,0.4,0.0,0.0,-1.2,1.57,0.0,0.0
10.0,0.0,0.0,0.0,0.3906666666666667,0.0,0.0,-1.1986666666666665,-1.57,0.0013333333333333335,0.0,0.4,0.0,0.0,-1.2,1.57,0.0,0.0
20.0,0.0,0.0,0.0,0.38133333333333336,0.0,0.0,-1.1973333333333334,-1.57,0.002666666666666667,0.0,0.4,0.0,0.0,-1.2,1.57,0.0,0.0
30.0,0.0,0.0,0.0,0.372,0.0,0.0,-1.196,-1.57,0.004,0.0,0.4,0.0,0.0,-1.2,1.57,0.0,0.0
40.0,0.0,0.0,0.0,0.3626666666666667,0.0,0.0,-1.1946666666666665,-1.57,0.005333333333333334,0.0,0.4,0.0,0.0,-1.2,1.57,0.0,0.0
50.0,0.0,0.0,0.0,0.35333333333333333,0.0,0.0,-1.1933333333333334,-1.57,0.006666666666666667,0.0,0.4,0.0,0.0,-1.2,1.57,0.0,0.0
60.0,0.0,0.0,0.0,0.34400000000000003,0.0,0.0,-1.192,-1.57,0.008,0.0,0.4,0.0,0.0,-1.2,1.57,0.0,0.0
70.0,0.0,0.0,0.0,0.33466666666666667,0.0,0.0,-1.1906666666666665,-1.57,0.009333333333333334,0.0,0.4,0.0,0.0,-1.2,1.57,0.0,0.0
80.0,0.0,0.0,0.0,0.32533333333333336,0.0,0.0,-1.1893333333333334,-1.57,0.010666666666666668,0.0,0.4,0.0,0.0,-1.2,1.57,0.0,0.0
90.0,0.0,0.0,0.0,0.316,0.0,0.0,-1.188,-1.57,0.012,0.0,0.4,0.0,0.0,-1.2,1.57,0.0,0.0
100.0,0.0,0.0,0.0,0.3066666666666667,0.0,0.0,-1.1866666666666665,-1.57,0.013333333333333334,0.0,0.4,0.0,0.0,-1.2,1.57,0.0,0.0
110.0,0.0,0.0,0.0,0.29733333333333334,0.0,0.0,-1.1853333333333333,-1.57,0.014666666666666668,0.0,0.4,0.0,0.0,-1.2,1.57,0.0,0.0
120.0,0.0,0.0,0.0,0.28800000000000003,0.0,0.0,-1.184,-1.57,0.016,0.0,0.4,0.0,0.0,-1.2,1.57,0.0,0.0
130.0,0.0,0.0,0.0,0.2786666666666667,0.0,0.0,-1.1826666666666665,-1.57,0.017333333333333333,0.0,0.4,0.0,0.0,-1.2,1.57,0.0,0.0
140.0,0.0,0.0,0.0,0.26933333333333337,0.0,0.0,-1.1813333333333333,-1.57,0.018666666666666668,0.0,0.4,0.0,0.0,-1.2,1.57,0.0,0.0
150.0,0.0,0.0,0.0,0.26,0.0,0.0,-1.18,-1.57,0.02,0.0,0.4,0.0,0.0,-1.2,1.57,0.0,0.0
160.0,0.0,0.0,0.0,0.2506666666666667,0.0,0.0,-1.1786666666666665,-1.57,0.021333333333333336,0.0,0.4,0.0,0.0,-1.2,1.57,0.0,0.0
170.0,0.0,0.0,0.0,0.24133333333333334,0.0,0.0,-1.1773333333333333,-1.57,0.02266666666666667,0.0,0.4,0.0,0.0,-1.2,1.57,0.0,0.0
180.0,0.0,0.0,0.0,0.232,0.0,0.0,-1.176,-1.57,0.024,0.0,0.4,0.0,0.0,-1.2,1.57,0.0,0.0
190.0,0.0,0.0,0.0,0.22266666666666668,0.0,0.0,-1.1746666666666665,-1.57,0.025333333333333336,0.0,0.4,0.0,0.0,-1.2,1.57,0.0,0.0
200.0,0.0,0.0,0.0,0.21333333333333335,0.0,0.0,-1.1733333333333333,-1.57,0.02666666666666667,0.0,0.4,0.0,0.0,-1.2,1.57,0.0,0.0
210.0,0.0,0.0,0.0,0.20400000000000001,0.0,0.0,-1.172,-1.57,0.028,0.0,0.4,0.0,0.0,-1.2,1.57,0.0,0.0
220.0,0.0,0.0,0.0,0.19466666666666668,0.0,0.0,-1.1706666666666665,-1.57,0.029333333333333336,0.0,0.4,0.0,0.0,-1.2,1.57,0.0,0.0
230.0,0.0,0.0,0.0,0.18533333333333335,0.0,0.0,-1.1693333333333333,-1.57,0.03066666666666667,0.0,0.4,0.0,0.0,-1.2,1.57,0.0,0.0
240.0,0.0,0.0,0.0,0.17600000000000002,0.0,0.0,-1.168,-1.57,0.032,0.0,0.4,0.0,0.0,-1.2,1.57,0.0,0.0
250.0,0.0,0.0,0.0,0.16666666666666669,0.0,0.0,-1.1666666666666665,-1.57,0.03333333333333333,0.0,0.4,0.0,0.0,-1.2,1.57,0.0,0.0
260.0,0.0,0.0,0.0,0.15733333333333335,0.0,0.0,-1.1653333333333333,-1.57,0.034666666666666665,0.0,0.4,0.0,0.0,-1.2,1.57,0.0,0.0
270.0,0.0,0.0,0.0,0.14800000000000002,0.0,0.0,-1.164,-1.57,0.036000000000000004,0.0,0.4,0.0,0.0,-1.2,1.57,0.0,0.0
280.0,0.0,0.0,0.0,0.13866666666666672,0.0,0.0,-1.1626666666666665,-1.57,0.037333333333333336,0.0,0.4,0.0,0.0,-1.2,1.57,0.0,0.0
290.0,0.0,0.0,0.0,0.12933333333333336,0.0,0.0,-1.1613333333333333,-1.57,0.03866666666666667,0.0,0.4,0.0,0.0,-1.2,1.57,0.0,0.0
300.0,0.0,0.0,0.0,0.12000000000000005,0.0,0.0,-1.16,-1.57,0.04,0.0,0.4,0.0,0.0,-1.2,1.57,0.0,0.0
310.0,0.0,0.0,0.0,0.11066666666666669,0.0,0.0,-1.1586666666666667,-1.57,0.04133333333333333,0.0,0.4,0.0,0.0,-1.2,1.57,0.0,0.0
320.0,0.0,0.0,0.0,0.10133333333333339,0.0,0.0,-1.1573333333333333,-1.57,0.04266666666666667,0.0,0.4,0.0,0.0,-1.2,1.57,0.0,0.0
330.0,0.0,0.0,0.0,0.09200000000000003,0.0,0.0,-1.156,-1.57,0.044000000000000004,0.0,0.4,0.0,0.0,-1.2,1.57,0.0,0.0
340.0,0.0,0.0,0.0,0.08266666666666667,0.0,0.0,-1.1546666666666667,-1.57,0.04533333333333334,0.0,0.4,0.0,0.0,-1.2,1.57,0.0,0.0
350.0,0.0,0.0,0.0,0.07333333333333336,0.0,0.0,-1.1533333333333333,-1.57,0.04666666666666667,0.0,0.4,0.0,0.0,-1.2,1.57,0.0,0.0
360.0,0.0,0.0,0.0,0.064,0.0,0.0,-1.152,-1.57,0.048,0.0,0.4,0.0,0.0,-1.2,1.57,0.0,0.0
370.0,0.0,0.0,0.0,0.0546666666666667,0.0,0.0,-1.1506666666666667,-1.57,0.04933333333333333,0.0,0.4,0.0,0.0,-1.2,1.57,0.0,0.0
380.0,0.0,0.0,0.0,0.04533333333333334,0.0,0.0,-1.1493333333333333,-1.57,0.05066666666666667,0.0,0.4,0.0,0.0,-1.2,1.57,0.0,0.0
390.0,0.0,0.0,0.0,0.03600000000000003,0.0,0.0,-1.148,-1.57,0.052000000000000005,0.0,0.4,0.0,0.0,-1.2,1.57,0.0,0.0
400.0,0.0,0.0,0.0,0.026666666666666672,0.0,0.0,-1.1466666666666667,-1.57,0.05333333333333334,0.0,0.4,0.0,0.0,-1.2,1.57,0.0,0.0
410.0,0.0,0.0,0.0,0.017333333333333367,0.0,0.0,-1.1453333333333333,-1.57,0.05466666666666667,0.0,0.4,0.0,0.0,-1.2,1.57,0.0,0.0
420.0,0.0,0.0,0.0,0.008000000000000007,0.0,0.0,-1.144,-1.57,0.056,0.0,0.4,0.0,0.0,-1.2,1.57,0.0,0.0
430.0,0.0,0.0,0.0,-0.0013333333333332975,0.0,0.0,-1.1426666666666667,-1.57,0.05733333333333333,0.0,0.4,0.0,0.0,-1.2,1.57,0.0,0.0
440.0,0.0,0.0,0.0,-0.010666666666666658,0.0,0.0,-1.1413333333333333,-1.57,0.05866666666666667,0.0,0.4,0.0,0.0,-1.2,1.57,0.0,0.0
450.0,0.0,0.0,0.0,-0.019999999999999962,0.0,0.0,-1.14,-1.57,0.060000000000000005,0.0,0.4,0.0,0.0,-1.2,1.57,0.0,0.0
460.0,0.0,0.0,0.0,-0.029333333333333322,0.0,0.0,-1.1386666666666667,-1.57,0.06133333333333334,0.0,0.4,0.0,0.0,-1.2,1.57,0.0,0.0
470.0,0.0,0.0,0.0,-0.03866666666666663,0.0,0.0,-1.1373333333333333,-1.57,0.06266666666666668,0.0,0.4,0.0,0.0,-1.2,1.57,0.0,0.0
480.0,0.0,0.0,0.0,-0.04799999999999999,0.0,0.0,-1.136,-1.57,0.064,0.0,0.4,0.0,0.0,-1.2,1.57,0.0,0.0
490.0,0.0,0.0,0.0,-0.05733333333333329,0.0,0.0,-1.1346666666666667,-1.57,0.06533333333333334,0.0,0.4,0.0,0.0,-1.2,1.57,0.0,0.0
500.0,0.0,0.0,0.0,-0.06666666666666665,0.0,0.0,-1.1333333333333333,-1.57,0.06666666666666667,0.0,0.4,0.0,0.0,-1.2,1.57,0.0,0.0
510.0,0.0,0.0,0.0,-0.07599999999999996,0.0,0.0,-1.132,-1.57,0.068,0.0,0.4,0.0,0.0,-1.2,1.57,0.0,0.0
520.0,0.0,0.0,0.0,-0.08533333333333332,0.0,0.0,-1.1306666666666667,-1.57,0.06933333333333333,0.0,0.4,0.0,0.0,-1.2,1.57,0.0,0.0
530.0,0.0,0.0,0.0,-0.09466666666666662,0.0,0.0,-1.1293333333333333,-1.57,0.07066666666666667,0.0,0.4,0.0,0.0,-1.2,1.57,0.0,0.0
540.0,0.0,0.0,0.0,-0.10399999999999998,0.0,0.0,-1.128,-1.57,0.07200000000000001,0.0,0.4,0.0,0.0,-1.2,1.57,0.0,0.0
550.0,0.0,0.0,0.0,-0.11333333333333329,0.0,0.0,-1.1266666666666667,-1.57,0.07333333333333333,0.0,0.4,0.0,0.0,-1.2,1.57,0.0,0.0
560.0,0.0,0.0,0.0,-0.12266666666666659,0.0,0.0,-1.1253333333333333,-1.57,0.07466666666666667,0.0,0.4,0.0,0.0,-1.2,1.57,0.0,0.0
570.0,0.0,0.0,0.0,-0.132,0.0,0.0,-1.1239999999999999,-1.57,0.076,0.0,0.4,0.0,0.0,-1.2,1.57,0.0,0.0
580.0,0.0,0.0,0.0,-0.1413333333333333,0.0,0.0,-1.1226666666666667,-1.57,0.07733333333333334,0.0,0.4,0.0,0.0,-1.2,1.57,0.0,0.0
590.0,0.0,0.0,0.0,-0.15066666666666662,0.0,0.0,-1.1213333333333333,-1.57,0.07866666666666668,0.0,0.4,0.0,0.0,-1.2,1.57,0.0,0.0
600.0,0.0,0.0,0.0,-0.15999999999999992,0.0,0.0,-1.1199999999999999,-1.57,0.08,0.0,0.4,0.0,0.0,-1.2,1.57,0.0,0.0
610.0,0.0,0.0,0.0,-0.16933333333333334,0.0,0.0,-1.1186666666666667,-1.57,0.08133333333333334,0.0,0.4,0.0,0.0,-1.2,1.57,0.0,0.0
620.0,0.0,0.0,0.0,-0.17866666666666664,0.0,0.0,-1.1173333333333333,-1.57,0.08266666666666667,0.0,0.4,0.0,0.0,-1.2,1.57,0.0,0.0
630.0,0.0,0.0,0.0,-0.18799999999999994,0.0,0.0,-1.1159999999999999,-1.57,0.084,0.0,0.4,0.0,0.0,-1.2,1.57,0.0,0.0
640.0,0.0,0.0,0.0,-0.19733333333333325,0.0,0.0,-1.1146666666666667,-1.57,0.08533333333333334,0.0,0.4,0.0,0.0,-1.2,1.57,0.0,0.0
650.0,0.0,0.0,0.0,-0.20666666666666667,0.0,0.0,-1.1133333333333333,-1.57,0.08666666666666667,0.0,0.4,0.0,0.0,-1.2,1.57,0.0,0.0
660.0,0.0,0.0,0.0,-0.21599999999999997,0.0,0.0,-1.1119999999999999,-1.57,0.08800000000000001,0.0,0.4,0.0,0.0,-1.2,1.57,0.0,0.0
670.0,0.0,0.0,0.0,-0.22533333333333327,0.0,0.0,-1.1106666666666667,-1.57,0.08933333333333333,0.0,0.4,0.0,0.0,-1.2,1.57,0.0,0.0
680.0,0.0,0.0,0.0,-0.2346666666666667,0.0,0.0,-1.1093333333333333,-1.57,0.09066666666666667,0.0,0.4,0.0,0.0,-1.2,1.57,0.0,0.0
690.0,0.0,0.0,0.0,-0.244,0.0,0.0,-1.1079999999999999,-1.57,0.092,0.0,0.4,0.0,0.0,-1.2,1.57,0.0,0.0
700.0,0.0,0.0,0.0,-0.2533333333333333,0.0,0.0,-1.1066666666666667,-1.57,0.09333333333333334,0.0,0.4,0.0,0.0,-1.2,1.57,0.0,0.0
710.0,0.0,0.0,0.0,-0.2626666666666666,0.0,0.0,-1.1053333333333333,-1.57,0.09466666666666668,0.0,0.4,0.0,0.0,-1.2,1.57,0.0,0.0
720.0,0.0,0.0,0.0,-0.272,0.0,0.0,-1.1039999999999999,-1.57,0.096,0.0,0.4,0.0,0.0,-1.2,1.57,0.0,0.0
730.0,0.0,0.0,0.0,-0.2813333333333333,0.0,0.0,-1.1026666666666667,-1.57,0.09733333333333334,0.0,0.4,0.0,0.0,-1.2,1.57,0.0,0.0
740.0,0.0,0.0,0.0,-0.29066666666666663,0.0,0.0,-1.1013333333333333,-1.57,0.09866666666666667,0.0,0.4,0.0,0.0,-1.2,1.57,0.0,0.0
750.0,0.0,0.0,0.0,-0.29999999999999993,0.0,0.0,-1.1,-1.57,0.1,0.0,0.4,0.0,0.0,-1.2,1.57,0.0,0.0
760.0,0.0,0.0,0.0,-0.30933333333333335,0.0,0.0,-1.0986666666666667,-1.57,0.10133333333333334,0.0,0.4,0.0,0.0,-1.2,1.57,0.0,0.0
770.0,0.0,0.0,0.0,-0.31866666666666665,0.0,0.0,-1.0973333333333333,-1.57,0.10266666666666667,0.0,0.4,0.0,0.0,-1.2,1.57,0.0,0.0
780.0,0.0,0.0,0.0,-0.32799999999999996,0.0,0.0,-1.096,-1.57,0.10400000000000001,0.0,0.4,0.0,0.0,-1.2,1.57,0.0,0.0
790.0,0.0,0.0,0.0,-0.33733333333333326,0.0,0.0,-1.0946666666666667,-1.57,0.10533333333333333,0.0,0.4,0.0,0.0,-1.2,1.57,0.0,0.0
800.0,0.0,0.0,0.0,-0.3466666666666667,0.0,0.0,-1.0933333333333333,-1.57,0.10666666666666667,0.0,0.4,0.0,0.0,-1.2,1.57,0.0,0.0
810.0,0.0,0.0,0.0,-0.356,0.0,0.0,-1.092,-1.57,0.108,0.0,0.4,0.0,0.0,-1.2,1.57,0.0,0.0
820.0,0.0,0.0,0.0,-0.3653333333333333,0.0,0.0,-1.0906666666666667,-1.57,0.10933333333333334,0.0,0.4,0.0,0.0,-1.2,1.57,0.0,0.0
830.0,0.0,0.0,0.0,-0.3746666666666666,0.0,0.0,-1.0893333333333333,-1.57,0.11066666666666668,0.0,0.4,0.0,0.0,-1.2,1.57,0.0,0.0
840.0,0.0,0.0,0.0,-0.384,0.0,0.0,-1.088,-1.57,0.112,0.0,0.4,0.0,0.0,-1.2,1.57,0.0,0.0
850.0,0.0,0.0,0.0,-0.3933333333333333,0.0,0.0,-1.0866666666666667,-1.57,0.11333333333333334,0.0,0.4,0.0,0.0,-1.2,1.57,0.0,0.0
860.0,0.0,0.0,0.0,-0.4026666666666666,0.0,0.0,-1.0853333333333333,-1.57,0.11466666666666667,0.0,0.4,0.0,0.0,-1.2,1.57,0.0,0.0
870.0,0.0,0.0,0.0,-0.4119999999999999,0.0,0.0,-1.084,-1.57,0.116,0.0,0.4,0.0,0.0,-1.2,1.57,0.0,0.0
880.0,0.0,0.0,0.0,-0.42133333333333334,0.0,0.0,-1.0826666666666667,-1.57,0.11733333333333335,0.0,0.4,0.0,0.0,-1.2,1.57,0.0,0.0
890.0,0.0,0.0,0.0,-0.43066666666666664,0.0,0.0,-1.0813333333333333,-1.57,0.11866666666666667,0.0,0.4,0.0,0.0,-1.2,1.57,0.0,0.0
900.0,0.0,0.0,0.0,-0.43999999999999995,0.0,0.0,-1.08,-1.57,0.12000000000000001,0.0,0.4,0.0,0.0,-1.2,1.57,0.0,0.0
910.0,0.0,0.0,0.0,-0.44933333333333325,0.0,0.0,-1.0786666666666667,-1.57,0.12133333333333333,0.0,0.4,0.0,0.0,-1.2,1.57,0.0,0.0
920.0,0.0,0.0,0.0,-0.45866666666666667,0.0,0.0,-1.0773333333333333,-1.57,0.12266666666666667,0.0,0.4,0.0,0.0,-1.2,1.57,0.0,0.0
930.0,0.0,0.0,0.0,-0.46799999999999997,0.0,0.0,-1.076,-1.57,0.124,0.0,0.4,0.0,0.0,-1.2,1.57,0.0,0.0
940.0,0.0,0.0,0.0,-0.4773333333333333,0.0,0.0,-1.0746666666666667,-1.57,0.12533333333333335,0.0,0.4,0.0,0.0,-1.2,1.57,0.0,0.0
950.0,0.0,0.0,0.0,-0.4866666666666666,0.0,0.0,-1.0733333333333333,-1.57,0.12666666666666668,0.0,0.4,0.0,0.0,-1.2,1.57,0.0,0.0
960.0,0.0,0.0,0.0,-0.496,0.0,0.0,-1.072,-1.57,0.128,0.0,0.4,0.0,0.0,-1.2,1.57,0.0,0.0
970.0,0.0,0.0,0.0,-0.5053333333333333,0.0,0.0,-1.0706666666666667,-1.57,0.12933333333333333,0.0,0.4,0.0,0.0,-1.2,1.57,0.0,0.0
980.0,0.0,0.0,0.0,-0.5146666666666666,0.0,0.0,-1.0693333333333332,-1.57,0.13066666666666668,0.0,0.4,0.0,0.0,-1.2,1.57,0.0,0.0
990.0,0.0,0.0,0.0,-0.524,0.0,0.0,-1.068,-1.57,0.132,0.0,0.4,0.0,0.0,-1.2,1.57,0.0,0.0
1000.0,0.0,0.0,0.0,-0.5333333333333333,0.0,0.0,-1.0666666666666667,-1.57,0.13333333333333333,0.0,0.4,0.0,0.0,-1.2,1.57,0.0,0.0
1010.0,0.0,0.0,0.0,-0.5426666666666666,0.0,0.0,-1.0653333333333332,-1.57,0.13466666666666668,0.0,0.4,0.0,0.0,-1.2,1.57,0.0,0.0
1020.0,0.0,0.0,0.0,-0.5519999999999999,0.0,0.0,-1.064,-1.57,0.136,0.0,0.4,0.0,0.0,-1.2,1.57,0.0,0.0
1030.0,0.0,0.0,0.0,-0.5613333333333334,0.0,0.0,-1.0626666666666666,-1.57,0.13733333333333334,0.0,0.4,0.0,0.0,-1.2,1.57,0.0,0.0
1040.0,0.0,0.0,0.0,-0.5706666666666667,0.0,0.0,-1.0613333333333332,-1.57,0.13866666666666666,0.0,0.4,0.0,0.0,-1.2,1.57,0.0,0.0
1050.0,0.0,0.0,0.0,-0.58,0.0,0.0,-1.06,-1.57,0.14,0.0,0.4,0.0,0.0,-1.2,1.57,0.0,0.0
1060.0,0.0,0.0,0.0,-0.5893333333333333,0.0,0.0,-1.0586666666666666,-1.57,0.14133333333333334,0.0,0.4,0.0,0.0,-1.2,1.57,0.0,0.0
1070.0,0.0,0.0,0.0,-0.5986666666666667,0.0,0.0,-1.0573333333333332,-1.57,0.14266666666666666,0.0,0.4,0.0,0.0,-1.2,1.57,0.0,0.0
1080.0,0.0,0.0,0.0,-0.608,0.0,0.0,-1.056,-1.57,0.14400000000000002,0.0,0.4,0.0,0.0,-1.2,1.57,0.0,0.0
1090.0,0.0,0.0,0.0,-0.6173333333333334,0.0,0.0,-1.0546666666666666,-1.57,0.14533333333333334,0.0,0.4,0.0,0.0,-1.2,1.57,0.0,0.0
1100.0,0.0,0.0,0.0,-0.6266666666666666,0.0,0.0,-1.0533333333333332,-1.57,0.14666666666666667,0.0,0.4,0.0,0.0,-1.2,1.57,0.0,0.0
1110.0,0.0,0.0,0.0,-0.636,0.0,0.0,-1.052,-1.57,0.14800000000000002,0.0,0.4,0.0,0.0,-1.2,1.57,0.0,0.0
1120.0,0.0,0.0,0.0,-0.6453333333333332,0.0,0.0,-1.0506666666666666,-1.57,0.14933333333333335,0.0,0.4,0.0,0.0,-1.2,1.57,0.0,0.0
1130.0,0.0,0.0,0.0,-0.6546666666666666,0.0,0.0,-1.0493333333333332,-1.57,0.15066666666666667,0.0,0.4,0.0,0.0,-1.2,1.57,0.0,0.0
1140.0,0.0,0.0,0.0,-0.664,0.0,0.0,-1.048,-1.57,0.152,0.0,0.4,0.0,0.0,-1.2,1.57,0.0,0.0
1150.0,0.0,0.0,0.0,-0.6733333333333332,0.0,0.0,-1.0466666666666666,-1.57,0.15333333333333335,0.0,0.4,0.0,0.0,-1.2,1.57,0.0,0.0
1160.0,0.0,0.0,0.0,-0.6826666666666666,0.0,0.0,-1.0453333333333332,-1.57,0.15466666666666667,0.0,0.4,0.0,0.0,-1.2,1.57,0.0,0.0
1170.0,0.0,0.0,0.0,-0.6920000000000001,0.0,0.0,-1.044,-1.57,0.156,0.0,0.4,0.0,0.0,-1.2,1.57,0.0,0.0
1180.0,0.0,0.0,0.0,-0.7013333333333333,0.0,0.0,-1.0426666666666666,-1.57,0.15733333333333335,0.0,0.4,0.0,0.0,-1.2,1.57,0.0,0.0
1190.0,0.0,0.0,0.0,-0.7106666666666667,0.0,0.0,-1.0413333333333332,-1.57,0.15866666666666668,0.0,0.4,0.0,0.0,-1.2,1.57,0.0,0.0
1200.0,0.0,0.0,0.0,-0.7199999999999999,0.0,0.0,-1.04,-1.57,0.16,0.0,0.4,0.0,0.0,-1.2,1.57,0.0,0.0
1210.0,0.0,0.0,0.0,-0.7293333333333333,0.0,0.0,-1.0386666666666666,-1.57,0.16133333333333333,0.0,0.4,0.0,0.0,-1.2,1.57,0.0,0.0
1220.0,0.0,0.0,0.0,-0.7386666666666667,0.0,0.0,-1.0373333333333332,-1.57,0.16266666666666668,0.0,0.4,0.0,0.0,-1.2,1.57,0.0,0.0
1230.0,0.0,0.0,0.0,-0.7479999999999999,0.0,0.0,-1.036,-1.57,0.164,0.0,0.4,0.0,0.0,-1.2,1.57,0.0,0.0
1240.0,0.0,0.0,0.0,-0.7573333333333333,0.0,0.0,-1.0346666666666666,-1.57,0.16533333333333333,0.0,0.4,0.0,0.0,-1.2,1.57,0.0,0.0
1250.0,0.0,0.0,0.0,-0.7666666666666667,0.0,0.0,-1.0333333333333332,-1.57,0.16666666666666669,0.0,0.4,0.0,0.0,-1.2,1.57,0.0,0.0
1260.0,0.0,0.0,0.0,-0.7759999999999999,0.0,0.0,-1.032,-1.57,0.168,0.0,0.4,0.0,0.0,-1.2,1.57,0.0,0.0
1270.0,0.0,0.0,0.0,-0.7853333333333333,0.0,0.0,-1.0306666666666666,-1.57,0.16933333333333334,0.0,0.4,0.0,0.0,-1.2,1.57,0.0,0.0
1280.0,0.0,0.0,0.0,-0.7946666666666665,0.0,0.0,-1.0293333333333332,-1.57,0.1706666666666667,0.0,0.4,0.0,0.0,-1.2,1.57,0.0,0.0
1290.0,0.0,0.0,0.0,-0.8039999999999999,0.0,0.0,-1.028,-1.57,0.17200000000000001,0.0,0.4,0.0,0.0,-1.2,1.57,0.0,0.0
1300.0,0.0,0.0,0.0,-0.8133333333333334,0.0,0.0,-1.0266666666666666,-1.57,0.17333333333333334,0.0,0.4,0.0,0.0,-1.2,1.57,0.0,0.0
1310.0,0.0,0.0,0.0,-0.8226666666666665,0.0,0.0,-1.0253333333333332,-1.57,0.17466666666666666,0.0,0.4,0.0,0.0,-1.2,1.57,0.0,0.0
1320.0,0.0,0.0,0.0,-0.832,0.0,0.0,-1.024,-1.57,0.17600000000000002,0.0,0.4,0.0,0.0,-1.2,1.57,0.0,0.0
1330.0,0.0,0.0,0.0,-0.8413333333333334,0.0,0.0,-1.0226666666666666,-1.57,0.17733333333333334,0.0,0.4,0.0,0.0,-1.2,1.57,0.0,0.0
1340.0,0.0,0.0,0.0,-0.8506666666666666,0.0,0.0,-1.0213333333333332,-1.57,0.17866666666666667,0.0,0.4,0.0,0.0,-1.2,1.57,0.0,0.0
1350.0,0.0,0.0,0.0,-0.86,0.0,0.0,-1.02,-1.57,0.18000000000000002,0.0,0.4,0.0,0.0,-1.2,1.57,0.0,0.0
1360.0,0.0,0.0,0.0,-0.8693333333333334,0.0,0.0,-1.0186666666666666,-1.57,0.18133333333333335,0.0,0.4,0.0,0.0,-1.2,1.57,0.0,0.0
1370.0,0.0,0.0,0.0,-0.8786666666666666,0.0,0.0,-1.0173333333333332,-1.57,0.18266666666666667,0.0,0.4,0.0,0.0,-1.2,1.57,0.0,0.0
1380.0,0.0,0.0,0.0,-0.888,0.0,0.0,-1.016,-1.57,0.184,0.0,0.4,0.0,0.0,-1.2,1.57,0.0,0.0
1390.0,0.0,0.0,0.0,-0.8973333333333332,0.0,0.0,-1.0146666666666666,-1.57,0.18533333333333335,0.0,0.4,0.0,0.0,-1.2,1.57,0.0,0.0
1400.0,0.0,0.0,0.0,-0.9066666666666666,0.0,0.0,-1.0133333333333332,-1.57,0.18666666666666668,0.0,0.4,0.0,0.0,-1.2,1.57,0.0,0.0
1410.0,0.0,0.0,0.0,-0.916,0.0,0.0,-1.012,-1.57,0.188,0.0,0.4,0.0,0.0,-1.2,1.57,0.0,0.0
1420.0,0.0,0.0,0.0,-0.9253333333333332,0.0,0.0,-1.0106666666666666,-1.57,0.18933333333333335,0.0,0.4,0.0,0.0,-1.2,1.57,0.0,0.0
1430.0,0.0,0.0,0.0,-0.9346666666666666,0.0,0.0,-1.0093333333333334,-1.57,0.19066666666666668,0.0,0.4,0.0,0.0,-1.2,1.57,0.0,0.0
1440.0,0.0,0.0,0.0,-0.9440000000000001,0.0,0.0,-1.008,-1.57,0.192,0.0,0.4,0.0,0.0,-1.2,1.57,0.0,0.0
1450.0,0.0,0.0,0.0,-0.9533333333333333,0.0,0.0,-1.0066666666666666,-1.57,0.19333333333333333,0.0,0.4,0.0,0.0,-1.2,1.57,0.0,0.0
1460.0,0.0,0.0,0.0,-0.9626666666666667,0.0,0.0,-1.0053333333333334,-1.57,0.19466666666666668,0.0,0.4,0.0,0.0,-1.2,1.57,0.0,0.0
1470.0,0.0,0.0,0.0,-0.9719999999999999,0.0,0.0,-1.004,-1.57,0.196,0.0,0.4,0.0,0.0,-1.2,1.57,0.0,0.0
1480.0,0.0,0.0,0.0,-0.9813333333333333,0.0,0.0,-1.0026666666666666,-1.57,0.19733333333333333,0.0,0.4,0.0,0.0,-1.2,1.57,0.0,0.0
1490.0,0.0,0.0,0.0,-0.9906666666666667,0.0,0.0,-1.0013333333333334,-1.57,0.19866666666666669,0.0,0.4,0.0,0.0,-1.2,1.57,0.0,0.0
1500.0,0.0,0.0,0.0,-1.0,0.0,0.0,-1.0,-1.57,0.2,0.0,0.4,0.0,0.0,-1.2,1.57,0.0,0.0
1510.0,0.0,0.0,0.0,-1.0,0.0,0.0,-1.0,-1.57,0.2,0.0,0.4,0.0,0.0,-1.2,1.57,0.0,0.0
1520.0,0.0,0.0,0.0,-1.0,0.0,0.0,-1.0,-1.57,0.2,0.0,0.4,0.0,0.0,-1.2,1.57,0.0,0.0
1530.0,0.0,0.0,0.0,-1.0,0.0,0.0,-1.0,-1.57,0.2,0.0,0.4,0.0,0.0,-1.2,1.57,0.0,0.0
1540.0,0.0,0.0,0.0,-1.0,0.0,0.0,-1.0,-1.57,0.2,0.0,0.4,0.0,0.0,-1.2,1.57,0.0,0.0
1550.0,0.0,0.0,0.0,-1.0,0.0,0.0,-1.0,-1.57,0.2,0.0,0.4,0.0,0.0,-1.2,1.57,0.0,0.0
1560.0,0.0,0.0,0.0,-1.0,0.0,0.0,-1.0,-1.57,0.2,0.0,0.4,0.0,0.0,-1.2,1.57,0.0,0.0
1570.0,0.0,0.0,0.0,-1.0,0.0,0.0,-1.0,-1.57,0.2,0.0,0.4,0.0,0.0,-1.2,1.57,0.0,0.0
1580.0,0.0,0.0,0.0,-1.0,0.0,0.0,-1.0,-1.57,0.2,0.0,0.4,0.0,0.0,-1.2,1.57,0.0,0.0
1590.0,0.0,0.0,0.0,-1.0,0.0,0.0,-1.0,-1.57,0.2,0.0,0.4,0.0,0.0,-1.2,1.57,0.0,0.0
1600.0,0.0,0.0,0.0,-1.0,0.0,0.0,-1.0,-1.57,0.2,0.0,0.4,0.0,0.0,-1.2,1.57,0.0,0.0
1610.0,0.0,0.0,0.0,-1.0,0.0,0.0,-1.0,-1.57,0.2,0.0,0.4,0.0,0.0,-1.2,1.57,0.0,0.0
1620.0,0.0,0.0,0.0,-1.0,0.0,0.0,-1.0,-1.57,0.2,0.0,0.4,0.0,0.0,-1.2,1.57,0.0,0.0
1630.0,0.0,0.0,0.0,-1.0,0.0,0.0,-1.0,-1.57,0.2,0.0,0.4,0.0,0.0,-1.2,1.57,0.0,0.0
1640.0,0.0,0.0,0.0,-1.0,0.0,0.0,-1.0,-1.57,0.2,0.0,0.4,0.0,0.0,-1.2,1.57,0.0,0.0
1650.0,0.0,0.0,0.0,-1.0,0.0,0.0,-1.0,-1.57,0.2,0.0,0.4,0.0,0.0,-1.2,1.57,0.0,0.0
1660.0,0.0,0.0,0.0,-1.0,0.0,0.0,-1.0,-1.57,0.2,0.0,0.4,0.0,0.0,-1.2,1.57,0.0,0.0
1670.0,0.0,0.0,0.0,-1.0,0.0,0.0,-1.0,-1.57,0.2,0.0,0.4,0.0,0.0,-1.2,1.57,0.0,0.0
1680.0,0.0,0.0,0.0,-1.0,0.0,0.0,-1.0,-1.57,0.2,0.0,0.4,0.0,0.0,-1.2,1.57,0.0,0.0
1690.0,0.0,0.0,0.0,-1.0,0.0,0.0,-1.0,-1.57,0.2,0.0,0.4,0.0,0.0,-1.2,1.57,0.0,0.0
1700.0,0.0,0.0,0.0,-1.0,0.0,0.0,-1.0,-1.57,0.2,0.0,0.4,0.0,0.0,-1.2,1.57,0.0,0.0
1710.0,0.0,0.0,0.0,-1.0,0.0,0.0,-1.0,-1.57,0.2,0.0,0.4,0.0,0.0,-1.2,1.57,0.0,0.0
1720.0,0.0,0.0,0.0,-1.0,0.0,0.0,-1.0,-1.57,0.2,0.0,0.4,0.0,0.0,-1.2,1.57,0.0,0.0
1730.0,0.0,0.0,0.0,-1.0,0.0,0.0,-1.0,-1.57,0.2,0.0,0.4,0.0,0.0,-1.2,1.57,0.0,0.0
1740.0,0.0,0.0,0.0,-1.0,0.0,0.0,-1.0,-1.57,0.2,0.0,0.4,0.0,0.0,-1.2,1.57,0.0,0.0
1750.0,0.0,0.0,0.0,-1.0,0.0,0.0,-1.0,-1.57,0.2,0.0,0.4,0.0,0.0,-1.2,1.57,0.0,0.0
1760.0,0.0,0.0,0.0,-1.0,0.0,0.0,-1.0,-1.57,0.2,0.0,0.4,0.0,0.0,-1.2,1.57,0.0,0.0
1770.0,0.0,0.0,0.0,-1.0,0.0,0.0,-1.0,-1.57,0.2,0.0,0.4,0.0,0.0,-1.2,1.57,0.0,0.0
1780.0,0.0,0.0,0.0,-1.0,0.0,0.0,-1.0,-1.57,0.2,0.0,0.4,0.0,0.0,-1.2,1.57,0.0,0.0
1790.0,0.0,0.0,0.0,-1.0,0.0,0.0,-1.0,-1.57,0.2,0.0,0.4,0.0,0.0,-1.2,1.57,0.0,0.0
1800.0,0.0,0.0,0.0,-1.0,0.0,0.0,-1.0,-1.57,0.2,0.0,0.4,0.0,0.0,-1.2,1.57,0.0,0.0
1810.0,0.0,0.0,0.0,-1.0,0.0,0.0,-1.0,-1.57,0.2,0.0,0.4,0.0,0.0,-1.2,1.57,0.0,0.0
1820.0,0.0,0.0,0.0,-1.0,0.0,0.0,-1.0,-1.57,0.2,0.0,0.4,0.0,0.0,-1.2,1.57,0.0,0.0
1830.0,0.0,0.0,0.0,-1.0,0.0,0.0,-1.0,-1.57,0.2,0.0,0.4,0.0,0.0,-1.2,1.57,0.0,0.0
1840.0,0.0,0.0,0.0,-1.0,0.0,0.0,-1.0,-1.57,0.2,0.0,0.4,0.0,0.0,-1.2,1.57,0.0,0.0
1850.0,0.0,0.0,0.0,-1.0,0.0,0.0,-1.0,-1.57,0.2,0.0,0.4,0.0,0.0,-1.2,1.57,0.0,0.0
1860.0,0.0,0.0,0.0,-1.0,0.0,0.0,-1.0,-1.57,0.2,0.0,0.4,0.0,0.0,-1.2,1.57,0.0,0.0
1870.0,0.0,0.0,0.0,-1.0,0.0,0.0,-1.0,-1.57,0.2,0.0,0.4,0.0,0.0,-1.2,1.57,0.0,0.0
1880.0,0.0,0.0,0.0,-1.0,0.0,0.0,-1.0,-1.57,0.2,0.0,0.4,0.0,0.0,-1.2,1.57,0.0,0.0
1890.0,0.0,0.0,0.0,-1.0,0.0,0.0,-1.0,-1.57,0.2,0.0,0.4,0.0,0.0,-1.2,1.57,0.0,0.0
1900.0,0.0,0.0,0.0,-1.0,0.0,0.0,-1.0,-1.57,0.2,0.0,0.4,0.0,0.0,-1.2,1.57,0.0,0.0
1910.0,0.0,0.0,0.0,-1.0,0.0,0.0,-1.0,-1.57,0.2,0.0,0.4,0.0,0.0,-1.2,1.57,0.0,0.0
1920.0,0.0,0.0,0.0,-1.0,0.0,0.0,-1.0,-1.57,0.2,0.0,0.4,0.0,0.0,-1.2,1.57,0.0,0.0
1930.0,0.0,0.0,0.0,-1.0,0.0,0.0,-1.0,-1.57,0.2,0.0,0.4,0.0,0.0,-1.2,1.57,0.0,0.0
1940.0,0.0,0.0,0.0,-1.0,0.0,0.0,-1.0,-1.57,0.2,0.0,0.4,0.0,0.0,-1.2,1.57,0.0,0.0
1950.0,0.0,0.0,0.0,-1.0,0.0,0.0,-1.0,-1.57,0.2,0.0,0.4,0.0,0.0,-1.2,1.57,0.0,0.0
1960.0,0.0,0.0,0.0,-1.0,0.0,0.0,-1.0,-1.57,0.2,0.0,0.4,0.0,0.0,-1.2,1.57,0.0,0.0
1970.0,0.0,0.0,0.0,-1.0,0.0,0.0,-1.0,-1.57,0.2,0.0,0.4,0.0,0.0,-1.2,1.57,0.0,0.0
1980.0,0.0,0.0,0.0,-1.0,0.0,0.0,-1.0,-1.57,0.2,0.0,0.4,0.0,0.0,-1.2,1.57,0.0,0.0
1990.0,0.0,0.0,0.0,-1.0,0.0,0.0,-1.0,-1.57,0.2,0.0,0.4,0.0,0.0,-1.2,1.57,0.0,0.0
2000.0,0.0,0.0,0.0,-1.0,0.0,0.0,-1.0,-1.57,0.2,0.0,0.4,0.0,0.0,-1.2,1.57,0.0,0.0
2010.0,0.0,0.0,0.0,-1.0,0.0,0.0,-1.0,-1.57,0.2,0.0,0.4,0.0,0.0,-1.2,1.57,0.0,0.0
2020.0,0.0,0.0,0.0,-1.0,0.0,0.0,-1.0,-1.57,0.2,0.0,0.4,0.0,0.0,-1.2,1.57,0.0,0.0
2030.0,0.0,0.0,0.0,-1.0,0.0,0.0,-1.0,-1.57,0.2,0.0,0.4,0.0,0.0,-1.2,1.57,0.0,0.0
2040.0,0.0,0.0,0.0,-1.0,0.0,0.0,-1.0,-1.57,0.2,0.0,0.4,0.0,0.0,-1.2,1.57,0.0,0.0
2050.0,0.0,0.0,0.0,-1.0,0.0,0.0,-1.0,-1.57,0.2,0.0,0.4,0.0,0.0,-1.2,1.57,0.0,0.0
2060.0,0.0,0.0,0.0,-1.0,0.0,0.0,-1.0,-1.57,0.2,0.0,0.4,0.0,0.0,-1.2,1.57,0.0,0.0
2070.0,0.0,0.0,0.0,-1.0,0.0,0.0,-1.0,-1.57,0.2,0.0,0.4,0.0,0.0,-1.2,1.57,0.0,0.0
2080.0,0.0,0.0,0.0,-1.0,0.0,0.0,-1.0,-1.57,0.2,0.0,0.4,0.0,0.0,-1.2,1.57,0.0,0.0
2090.0,0.0,0.0,0.0,-1.0,0.0,0.0,-1.0,-1.57,0.2,0.0,0.4,0.0,0.0,-1.2,1.57,0.0,0.0
2100.0,0.0,0.0,0.0,-1.0,0.0,0.0,-1.0,-1.57,0.2,0.0,0.4,0.0,0.0,-1.2,1.57,0.0,0.0
2110.0,0.0,0.0,0.0,-1.0,0.0,0.0,-1.0,-1.57,0.2,0.0,0.4,0.0,0.0,-1.2,1.57,0.0,0.0
2120.0,0.0,0.0,0.0,-1.0,0.0,0.0,-1.0,-1.57,0.2,0.0,0.4,0.0,0.0,-1.2,1.57,0.0,0.0
2130.0,0.0,0.0,0.0,-1.0,0.0,0.0,-1.0,-1.57,0.2,0.0,0.4,0.0,0.0,-1.2,1.57,0.0,0.0
2140.0,0.0,0.0,0.0,-1.0,0.0,0.0,-1.0,-1.57,0.2,0.0,0.4,0.0,0.0,-1.2,1.57,0.0,0.0
2150.0,0.0,0.0,0.0,-1.0,0.0,0.0,-1.0,-1.57,0.2,0.0,0.4,0.0,0.0,-1.2,1.57,0.0,0.0
2160.0,0.0,0.0,0.0,-1.0,0.0,0.0,-1.0,-1.57,0.2,0.0,0.4,0.0,0.0,-1.2,1.57,0.0,0.0
2170.0,0.0,0.0,0.0,-1.0,0.0,0.0,-1.0,-1.57,0.2,0.0,0.4,0.0,0.0,-1.2,1.57,0.0,0.0
2180.0,0.0,0.0,0.0,-1.0,0.0,0.0,-1.0,-1.57,0.2,0.0,0.4,0.0,0.0,-1.2,1.57,0.0,0.0
2190.0,0.0,0.0,0.0,-1.0,0.0,0.0,-1.0,-1.57,0.2,0.0,0.4,0.0,0.0,-1.2,1.57,0.0,0.0
2200.0,0.0,0.0,0.0,-1.0,0.0,0.0,-1.0,-1.57,0.2,0.0,0.4,0.0,0.0,-1.2,1.57,0.0,0.0
2210.0,0.0,0.0,0.0,-1.0,0.0,0.0,-1.0,-1.57,0.2,0.0,0.4,0.0,0.0,-1.2,1.57,0.0,0.0
2220.0,0.0,0.0,0.0,-1.0,0.0,0.0,-1.0,-1.57,0.2,0.0,0.4,0.0,0.0,-1.2,1.57,0.0,0.0
2230.0,0.0,0.0,0.0,-1.0,0.0,0.0,-1.0,-1.57,0.2,0.0,0.4,0.0,0.0,-1.2,1.57,0.0,0.0
2240.0,0.0,0.0,0.0,-1.0,0.0,0.0,-1.0,-1.57,0.2,0.0,0.4,0.0,0.0,-1.2,1.57,0.0,0.0
2250.0,0.0,0.0,0.0,-1.0,0.0,0.0,-1.0,-1.57,0.2,0.0,0.4,0.0,0.0,-1.2,1.57,0.0,0.0
2260.0,0.0,0.0,0.0,-1.0,0.0,0.0,-1.0,-1.57,0.2,0.0,0.4,0.0,0.0,-1.2,1.57,0.0,0.0
2270.0,0.0,0.0,0.0,-1.0,0.0,0.0,-1.0,-1.57,0.2,0.0,0.4,0.0,0.0,-1.2,1.57,0.0,0.0
2280.0,0.0,0.0,0.0,-1.0,0.0,0.0,-1.0,-1.57,0.2,0.0,0.4,0.0,0.0,-1.2,1.57,0.0,0.0
2290.0,0.0,0.0,0.0,-1.0,0.0,0.0,-1.0,-1.57,0.2,0.0,0.4,0.0,0.0,-1.2,1.57,0.0,0.0
2300.0,0.0,0.0,0.0,-1.0,0.0,0.0,-1.0,-1.57,0.2,0.0,0.4,0.0,0.0,-1.2,1.57,0.0,0.0
2310.0,0.0,0.0,0.0,-1.0,0.0,0.0,-1.0,-1.57,0.2,0.0,0.4,0.0,0.0,-1.2,1.57,0.0,0.0
2320.0,0.0,0.0,0.0,-1.0,0.0,0.0,-1.0,-1.57,0.2,0.0,0.4,0.0,0.0,-1.2,1.57,0.0,0.0
2330.0,0.0,0.0,0.0,-1.0,0.0,0.0,-1.0,-1.57,0.2,0.0,0.4,0.0,0.0,-1.2,1.57,0.0,0.0
2340.0,0.0,0.0,0.0,-1.0,0.0,0.0,-1.0,-1.57,0.2,0.0,0.4,0.0,0.0,-1.2,1.57,0.0,0.0
2350.0,0.0,0.0,0.0,-1.0,0.0,0.0,-1.0,-1.57,0.2,0.0,0.4,0.0,0.0,-1.2,1.57,0.0,0.0
2360.0,0.0,0.0,0.0,-1.0,0.0,0.0,-1.0,-1.57,0.2,0.0,0.4,0.0,0.0,-1.2,1.57,0.0,0.0
2370.0,0.0,0.0,0.0,-1.0,0.0,0.0,-1.0,-1.57,0.2,0.0,0.4,0.0,0.0,-1.2,1.57,0.0,0.0
2380.0,0.0,0.0,0.0,-1.0,0.0,0.0,-1.0,-1.57,0.2,0.0,0.4,0.0,0.0,-1.2,1.57,0.0,0.0
2390.0,0.0,0.0,0.0,-1.0,0.0,0.0,-1.0,-1.57,0.2,0.0,0.4,0.0,0.0,-1.2,1.57,0.0,0.0
2400.0,0.0,0.0,0.0,-1.0,0.0,0.0,-1.0,-1.57,0.2,0.0,0.4,0.0,0.0,-1.2,1.57,0.0,0.0
2410.0,0.0,0.0,0.0,-1.0,0.0,0.0,-1.0,-1.57,0.2,0.0,0.4,0.0,0.0,-1.2,1.57,0.0,0.0
2420.0,0.0,0.0,0.0,-1.0,0.0,0.0,-1.0,-1.57,0.2,0.0,0.4,0.0,0.0,-1.2,1.57,0.0,0.0
2430.0,0.0,0.0,0.0,-1.0,0.0,0.0,-1.0,-1.57,0.2,0.0,0.4,0.0,0.0,-1.2,1.57,0.0,0.0
2440.0,0.0,0.0,0.0,-1.0,0.0,0.0,-1.0,-1.57,0.2,0.0,0.4,0.0,0.0,-1.2,1.57,0.0,0.0
2450.0,0.0,0.0,0.0,-1.0,0.0,0.0,-1.0,-1.57,0.2,0.0,0.4,0.0,0.0,-1.2,1.57,0.0,0.0
2460.0,0.0,0.0,0.0,-1.0,0.0,0.0,-1.0,-1.57,0.2,0.0,0.4,0.0,0.0,-1.2,1.57,0.0,0.0
2470.0,0.0,0.0,0.0,-1.0,0.0,0.0,-1.0,-1.57,0.2,0.0,0.4,0.0,0.0,-1.2,1.57,0.0,0.0
2480.0,0.0,0.0,0.0,-1.0,0.0,0.0,-1.0,-1.57,0.2,0.0,0.4,0.0,0.0,-1.2,1.57,0.0,0.0
2490.0,0.0,0.0,0.0,-1.0,0.0,0.0,-1.0,-1.57,0.2,0.0,0.4,0.0,0.0,-1.2,1.57,0.0,0.0
2500.0,0.0,0.0,0.0,-1.0,0.0,0.0,-1.0,-1.57,0.2,0.0,0.4,0.0,0.0,-1.2,1.57,0.0,0.0
2510.0,0.0,0.0,0.0,-1.0,0.0,0.0,-1.0,-1.57,0.2,0.0,0.4,0.0,0.0,-1.2,1.57,0.0,0.0
2520.0,0.0,0.0,0.0,-1.0,0.0,0.0,-1.0,-1.57,0.2,0.0,0.4,0.0,0.0,-1.2,1.57,0.0,0.0
2530.0,0.0,0.0,0.0,-1.0,0.0,0.0,-1.0,-1.57,0.2,0.0,0.4,0.0,0.0,-1.2,1.57,0.0,0.0
2540.0,0.0,0.0,0.0,-1.0,0.0,0.0,-1.0,-1.57,0.2,0.0,0.4,0.0,0.0,-1.2,1.57,0.0,0.0
2550.0,0.0,0.0,0.0,-1.0,0.0,0.0,-1.0,-1.57,0.2,0.0,0.4,0.0,0.0,-1.2,1.57,0.0,0.0
2560.0,0.0,0.0,0.0,-1.0,0.0,0.0,-1.0,-1.57,0.2,0.0,0.4,0.0,0.0,-1.2,1.57,0.0,0.0
2570.0,0.0,0.0,0.0,-1.0,0.0,0.0,-1.0,-1.57,0.2,0.0,0.4,0.0,0.0,-1.2,1.57,0.0,0.0
2580.0,0.0,0.0,0.0,-1.0,0.0,0.0,-1.0,-1.57,0.2,0.0,0.4,0.0,0.0,-1.2,1.57,0.0,0.0
2590.0,0.0,0.0,0.0,-1.0,0.0,0.0,-1.0,-1.57,0.2,0.0,0.4,0.0,0.0,-1.2,1.57,0.0,0.0
2600.0,0.0,0.0,0.0,-1.0,0.0,0.0,-1.0,-1.57,0.2,0.0,0.4,0.0,0.0,-1.2,1.57,0.0,0.0
2610.0,0.0,0.0,0.0,-1.0,0.0,0.0,-1.0,-1.57,0.2,0.0,0.4,0.0,0.0,-1.2,1.57,0.0,0.0
2620.0,0.0,0.0,0.0,-1.0,0.0,0.0,-1.0,-1.57,0.2,0.0,0.4,0.0,0.0,-1.2,1.57,0.0,0.0
2630.0,0.0,0.0,0.0,-1.0,0.0,0.0,-1.0,-1.57,0.2,0.0,0.4,0.0,0.0,-1.2,1.57,0.0,0.0
2640.0,0.0,0.0,0.0,-1.0,0.0,0.0,-1.0,-1.57,0.2,0.0,0.4,0.0,0.0,-1.2,1.57,0.0,0.0
2650.0,0.0,0.0,0.0,-1.0,0.0,0.0,-1.0,-1.57,0.2,0.0,0.4,0.0,0.0,-1.2,1.57,0.0,0.0
2660.0,0.0,0.0,0.0,-1.0,0.0,0.0,-1.0,-1.57,0.2,0.0,0.4,0.0,0.0,-1.2,1.57,0.0,0.0
2670.0,0.0,0.0,0.0,-1.0,0.0,0.0,-1.0,-1.57,0.2,0.0,0.4,0.0,0.0,-1.2,1.57,0.0,0.0
2680.0,0.0,0.0,0.0,-1.0,0.0,0.0,-1.0,-1.57,0.2,0.0,0.4,0.0,0.0,-1.2,1.57,0.0,0.0
2690.0,0.0,0.0,0.0,-1.0,0.0,0.0,-1.0,-1.57,0.2,0.0,0.4,0.0,0.0,-1.2,1.57,0.0,0.0
2700.0,0.0,0.0,0.0,-1.0,0.0,0.0,-1.0,-1.57,0.2,0.0,0.4,0.0,0.0,-1.2,1.57,0.0,0.0
2710.0,0.0,0.0,0.0,-1.0,0.0,0.0,-1.0,-1.57,0.2,0.0,0.4,0.0,0.0,-1.2,1.57,0.0,0.0
2720.0,0.0,0.0,0.0,-1.0,0.0,0.0,-1.0,-1.57,0.2,0.0,0.4,0.0,0.0,-1.2,1.57,0.0,0.0
2730.0,0.0,0.0,0.0,-1.0,0.0,0.0,-1.0,-1.57,0.2,0.0,0.4,0.0,0.0,-1.2,1.57,0.0,0.0
2740.0,0.0,0.0,0.0,-1.0,0.0,0.0,-1.0,-1.57,0.2,0.0,0.4,0.0,0.0,-1.2,1.57,0.0,0.0
2750.0,0.0,0.0,0.0,-1.0,0.0,0.0,-1.0,-1.57,0.2,0.0,0.4,0.0,0.0,-1.2,1.57,0.0,0.0
2760.0,0.0,0.0,0.0,-1.0,0.0,0.0,-1.0,-1.57,0.2,0.0,0.4,0.0,0.0,-1.2,1.57,0.0,0.0
2770.0,0.0,0.0,0.0,-1.0,0.0,0.0,-1.0,-1.57,0.2,0.0,0.4,0.0,0.0,-1.2,1.57,0.0,0.0
2780.0,0.0,0.0,0.0,-1.0,0.0,0.0,-1.0,-1.57,0.2,0.0,0.4,0.0,0.0,-1.2,1.57,0.0,0.0
2790.0,0.0,0.0,0.0,-1.0,0.0,0.0,-1.0,-1.57,0.2,0.0,0.4,0.0,0.0,-1.2,1.57,0.0,0.0
2800.0,0.0,0.0,0.0,-1.0,0.0,0.0,-1.0,-1.57,0.2,0.0,0.4,0.0,0.0,-1.2,1.57,0.0,0.0
2810.0,0.0,0.0,0.0,-1.0,0.0,0.0,-1.0,-1.57,0.2,0.0,0.4,0.0,0.0,-1.2,1.57,0.0,0.0
2820.0,0.0,0.0,0.0,-1.0,0.0,0.0,-1.0,-1.57,0.2,0.0,0.4,0.0,0.0,-1.2,1.57,0.0,0.0
2830.0,0.0,0.0,0.0,-1.0,0.0,0.0,-1.0,-1.57,0.2,0.0,0.4,0.0,0.0,-1.2,1.57,0.0,0.0
2840.0,0.0,0.0,0.0,-1.0,0.0,0.0,-1.0,-1.57,0.2,0.0,0.4,0.0,0.0,-1.2,1.57,0.0,0.0
2850.0,0.0,0.0,0.0,-1.0,0.0,0.0,-1.0,-1.57,0.2,0.0,0.4,0.0,0.0,-1.2,1.57,0.0,0.0
2860.0,0.0,0.0,0.0,-1.0,0.0,0.0,-1.0,-1.57,0.2,0.0,0.4,0.0,0.0,-1.2,1.57,0.0,0.0
2870.0,0.0,0.0,0.0,-1.0,0.0,0.0,-1.0,-1.57,0.2,0.0,0.4,0.0,0.0,-1.2,1.57,0.0,0.0
2880.0,0.0,0.0,0.0,-1.0,0.0,0.0,-1.0,-1.57,0.2,0.0,0.4,0.0,0.0,-1.2,1.57,0.0,0.0
2890.0,0.0,0.0,0.0,-1.0,0.0,0.0,-1.0,-1.57,0.2,0.0,0.4,0.0,0.0,-1.2,1.57,0.0,0.0
2900.0,0.0,0.0,0.0,-1.0,0.0,0.0,-1.0,-1.57,0.2,0.0,0.4,0.0,0.0,-1.2,1.57,0.0,0.0
2910.0,0.0,0.0,0.0,-1.0,0.0,0.0,-1.0,-1.57,0.2,0.0,0.4,0.0,0.0,-1.2,1.57,0.0,0.0
2920.0,0.0,0.0,0.0,-1.0,0.0,0.0,-1.0,-1.57,0.2,0.0,0.4,0.0,0.0,-1.2,1.57,0.0,0.0
2930.0,0.0,0.0,0.0,-1.0,0.0,0.0,-1.0,-1.57,0.2,0.0,0.4,0.0,0.0,-1.2,1.57,0.0,0.0
2940.0,0.0,0.0,0.0,-1.0,0.0,0.0,-1.0,-1.57,0.2,0.0,0.4,0.0,0.0,-1.2,1.57,0.0,0.0
2950.0,0.0,0.0,0.0,-1.0,0.0,0.0,-1.0,-1.57,0.2,0.0,0.4,0.0,0.0,-1.2,1.57,0.0,0.0
2960.0,0.0,0.0,0.0,-1.0,0.0,0.0,-1.0,-1.57,0.2,0.0,0.4,0.0,0.0,-1.2,1.57,0.0,0.0
2970.0,0.0,0.0,0.0,-1.0,0.0,0.0,-1.0,-1.57,0.2,0.0,0.4,0.0,0.0,-1.2,1.57,0.0,0.0
2980.0,0.0,0.0,0.0,-1.0,0.0,0.0,-1.0,-1.57,0.2,0.0,0.4,0.0,0.0,-1.2,1.57,0.0,0.0
2990.0,0.0,0.0,0.0,-1.0,0.0,0.0,-1.0,-1.57,0.2,0.0,0.4,0.0,0.0,-1.2,1.57,0.0,0.0
3000.0,0.0,0.0,0.0,-1.0,0.0,0.0,-1.0,-1.57,0.2,0.0,0.4,0.0,0.0,-1.2,1.57,0.0,0.0
3010.0,0.0,0.0,0.0,-1.0,0.0,0.0,-1.0,-1.57,0.2,0.0,0.4,0.0,0.0,-1.2,1.57,0.0,0.0
3020.0,0.0,0.0,0.0,-1.0,0.0,0.0,-1.0,-1.57,0.2,0.0,0.4,0.0,0.0,-1.2,1.57,0.0,0.0
3030.0,0.0,0.0,0.0,-1.0,0.0,0.0,-1.0,-1.57,0.2,0.0,0.4,0.0,0.0,-1.2,1.57,0.0,0.0
3040.0,0.0,0.0,0.0,-1.0,0.0,0.0,-1.0,-1.57,0.2,0.0,0.4,0.0,0.0,-1.2,1.57,0.0,0.0
3050.0,0.0,0.0,0.0,-1.0,0.0,0.0,-1.0,-1.57,0.2,0.0,0.4,0.0,0.0,-1.2,1.57,0.0,0.0
3060.0,0.0,0.0,0.0,-1.0,0.0,0.0,-1.0,-1.57,0.2,0.0,0.4,0.0,0.0,-1.2,1.57,0.0,0.0
3070.0,0.0,0.0,0.0,-1.0,0.0,0.0,-1.0,-1.57,0.2,0.0,0.4,0.0,0.0,-1.2,1.57,0.0,0.0
3080.0,0.0,0.0,0.0,-1.0,0.0,0.0,-1.0,-1.57,0.2,0.0,0.4,0.0,0.0,-1.2,1.57,0.0,0.0
3090.0,0.0,0.0,0.0,-1.0,0.0,0.0,-1.0,-1.57,0.2,0.0,0.4,0.0,0.0,-1.2,1.57,0.0,0.0
3100.0,0.0,0.0,0.0,-1.0,0.0,0.0,-1.0,-1.57,0.2,0.0,0.4,0.0,0.0,-1.2,1.57,0.0,0.0
3110.0,0.0,0.0,0.0,-1.0,0.0,0.0,-1.0,-1.57,0.2,0.0,0.4,0.0,0.0,-1.2,1.57,0.0,0.0
3120.0,0.0,0.0,0.0,-1.0,0.0,0.0,-1.0,-1.57,0.2,0.0,0.4,0.0,0.0,-1.2,1.57,0.0,0.0
3130.0,0.0,0.0,0.0,-1.0,0.0,0.0,-1.0,-1.57,0.2,0.0,0.4,0.0,0.0,-1.2,1.57,0.0,0.0
3140.0,0.0,0.0,0.0,-1.0,0.0,0.0,-1.0,-1.57,0.2,0.0,0.4,0.0,0.0,-1.2,1.57,0.0,0.0
3150.0,0.0,0.0,0.0,-1.0,0.0,0.0,-1.0,-1.57,0.2,0.0,0.4,0.0,0.0,-1.2,1.57,0.0,0.0
3160.0,0.0,0.0,0.0,-1.0,0.0,0.0,-1.0,-1.57,0.2,0.0,0.4,0.0,0.0,-1.2,1.57,0.0,0.0
3170.0,0.0,0.0,0.0,-1.0,0.0,0.0,-1.0,-1.57,0.2,0.0,0.4,0.0,0.0,-1.2,1.57,0.0,0.0
3180.0,0.0,0.0,0.0,-1.0,0.0,0.0,-1.0,-1.57,0.2,0.0,0.4,0.0,0.0,-1.2,1.57,0.0,0.0
3190.0,0.0,0.0,0.0,-1.0,0.0,0.0,-1.0,-1.57,0.2,0.0,0.4,0.0,0.0,-1.2,1.57,0.0,0.0
3200.0,0.0,0.0,0.0,-1.0,0.0,0.0,-1.0,-1.57,0.2,0.0,0.4,0.0,0.0,-1.2,1.57,0.0,0.0
3210.0,0.0,0.0,0.0,-1.0,0.0,0.0,-1.0,-1.57,0.2,0.0,0.4,0.0,0.0,-1.2,1.57,0.0,0.0
3220.0,0.0,0.0,0.0,-1.0,0.0,0.0,-1.0,-1.57,0.2,0.0,0.4,0.0,0.0,-1.2,1.57,0.0,0.0
3230.0,0.0,0.0,0.0,-1.0,0.0,0.0,-1.0,-1.57,0.2,0.0,0.4,0.0,0.0,-1.2,1.57,0.0,0.0
3240.0,0.0,0.0,0.0,-1.0,0.0,0.0,-1.0,-1.57,0.2,0.0,0.4,0.0,0.0,-1.2,1.57,0.0,0.0
3250.0,0.0,0.0,0.0,-1.0,0.0,0.0,-1.0,-1.57,0.2,0.0,0.4,0.0,0.0,-1.2,1.57,0.0,0.0
3260.0,0.0,0.0,0.0,-1.0,0.0,0.0,-1.0,-1.57,0.2,0.0,0.4,0.0,0.0,-1.2,1.57,0.0,0.0
3270.0,0.0,0.0,0.0,-1.0,0.0,0.0,-1.0,-1.57,0.2,0.0,0.4,0.0,0.0,-1.2,1.57,0.0,0.0
3280.0,0.0,0.0,0.0,-1.0,0.0,0.0,-1.0,-1.57,0.2,0.0,0.4,0.0,0.0,-1.2,1.57,0.0,0.0
3290.0,0.0,0.0,0.0,-1.0,0.0,0.0,-1.0,-1.57,0.2,0.0,0.4,0.0,0.0,-1.2,1.57,0.0,0.0
3300.0,0.0,0.0,0.0,-1.0,0.0,0.0,-1.0,-1.57,0.2,0.0,0.4,0.0,0.0,-1.2,1.57,0.0,0.0
3310.0,0.0,0.0,0.0,-1.0,0.0,0.0,-1.0,-1.57,0.2,0.0,0.4,0.0,0.0,-1.2,1.57,0.0,0.0
3320.0,0.0,0.0,0.0,-1.0,0.0,0.0,-1.0,-1.57,0.2,0.0,0.4,0.0,0.0,-1.2,1.57,0.0,0.0
3330.0,0.0,0.0,0.0,-1.0,0.0,0.0,-1.0,-1.57,0.2,0.0,0.4,0.0,0.0,-1.2,1.57,0.0,0.0
3340.0,0.0,0.0,0.0,-1.0,0.0,0.0,-1.0,-1.57,0.2,0.0,0.4,0.0,0.0,-1.2,1.57,0.0,0.0
3350.0,0.0,0.0,0.0,-1.0,0.0,0.0,-1.0,-1.57,0.2,0.0,0.4,0.0,0.0,-1.2,1.57,0.0,0.0
3360.0,0.0,0.0,0.0,-1.0,0.0,0.0,-1.0,-1.57,0.2,0.0,0.4,0.0,0.0,-1.2,1.57,0.0,0.0
3370.0,0.0,0.0,0.0,-1.0,0.0,0.0,-1.0,-1.57,0.2,0.0,0.4,0.0,0.0,-1.2,1.57,0.0,0.0
3380.0,0.0,0.0,0.0,-1.0,0.0,0.0,-1.0,-1.57,0.2,0.0,0.4,0.0,0.0,-1.2,1.57,0.0,0.0
3390.0,0.0,0.0,0.0,-1.0,0.0,0.0,-1.0,-1.57,0.2,0.0,0.4,0.0,0.0,-1.2,1.57,0.0,0.0
3400.0,0.0,0.0,0.0,-1.0,0.0,0.0,-1.0,-1.57,0.2,0.0,0.4,0.0,0.0,-1.2,1.57,0.0,0.0
3410.0,0.0,0.0,0.0,-1.0,0.0,0.0,-1.0,-1.57,0.2,0.0,0.4,0.0,0.0,-1.2,1.57,0.0,0.0
3420.0,0.0,0.0,0.0,-1.0,0.0,0.0,-1.0,-1.57,0.2,0.0,0.4,0.0,0.0,-1.2,1.57,0.0,0.0
3430.0,0.0,0.0,0.0,-1.0,0.0,0.0,-1.0,-1.57,0.2,0.0,0.4,0.0,0.0,-1.2,1.57,0.0,0.0
3440.0,0.0,0.0,0.0,-1.0,0.0,0.0,-1.0,-1.57,0.2,0.0,0.4,0.0,0.0,-1.2,1.57,0.0,0.0
3450.0,0.0,0.0,0.0,-1.0,0.0,0.0,-1.0,-1.57,0.2,0.0,0.4,0.0,0.0,-1.2,1.57,0.0,0.0
3460.0,0.0,0.0,0.0,-1.0,0.0,0.0,-1.0,-1.57,0.2,0.0,0.4,0.0,0.0,-1.2,1.57,0.0,0.0
3470.0,0.0,0.0,0.0,-1.0,0.0,0.0,-1.0,-1.57,0.2,0.0,0.4,0.0,0.0,-1.2,1.57,0.0,0.0
3480.0,0.0,0.0,0.0,-1.0,0.0,0.0,-1.0,-1.57,0.2,0.0,0.4,0.0,0.0,-1.2,1.57,0.0,0.0
3490.0,0.0,0.0,0.0,-1.0,0.0,0.0,-1.0,-1.57,0.2,0.0,0.4,0.0,0.0,-1.2,1.57,0.0,0.0
3500.0,0.0,0.0,0.0,-1.0,0.0,0.0,-1.0,-1.57,0.2,0.0,0.4,0.0,0.0,-1.2,1.57,0.0,0.0
3510.0,0.0,0.0,0.0,-1.0,0.0,0.0,-1.0,-1.57,0.2,0.0,0.4,0.0,0.0,-1.2,1.57,0.0,0.0
3520.0,0.0,0.0,0.0,-1.0,0.0,0.0,-1.0,-1.57,0.2,0.0,0.4,0.0,0.0,-1.2,1.57,0.0,0.0
3530.0,0.0,0.0,0.0,-1.0,0.0,0.0,-1.0,-1.57,0.2,0.0,0.4,0.0,0.0,-1.2,1.57,0.0,0.0
3540.0,0.0,0.0,0.0,-1.0,0.0,0.0,-1.0,-1.57,0.2,0.0,0.4,0.0,0.0,-1.2,1.57,0.0,0.0
3550.0,0.0,0.0,0.0,-1.0,0.0,0.0,-1.0,-1.57,0.2,0.0,0.4,0.0,0.0,-1.2,1.57,0.0,0.0
3560.0,0.0,0.0,0.0,-1.0,0.0,0.0,-1.0,-1.57,0.2,0.0,0.4,0.0,0.0,-1.2,1.57,0.0,0.0
3570.0,0.0,0.0,0.0,-1.0,0.0,0.0,-1.0,-1.57,0.2,0.0,0.4,0.0,0.0,-1.2,1.57,0.0,0.0
3580.0,0.0,0.0,0.0,-1.0,0.0,0.0,-1.0,-1.57,0.2,0.0,0.4,0.0,0.0,-1.2,1.57,0.0,0.0
3590.0,0.0,0.0,0.0,-1.0,0.0,0.0,-1.0,-1.57,0.2,0.0,0.4,0.0,0.0,-1.2,1.57,0.0,0.0
3600.0,0.0,0.0,0.0,-1.0,0.0,0.0,-1.0,-1.57,0.2,0.0,0.4,0.0,0.0,-1.2,1.57,0.0,0.0
3610.0,0.0,0.0,0.0,-1.0,0.0,0.0,-1.0,-1.57,0.2,0.0,0.4,0.0,0.0,-1.2,1.57,0.0,0.0
3620.0,0.0,0.0,0.0,-1.0,0.0,0.0,-1.0,-1.57,0.2,0.0,0.4,0.0,0.0,-1.2,1.57,0.0,0.0
3630.0,0.0,0.0,0.0,-1.0,0.0,0.0,-1.0,-1.57,0.2,0.0,0.4,0.0,0.0,-1.2,1.57,0.0,0.0
3640.0,0.0,0.0,0.0,-1.0,0.0,0.0,-1.0,-1.57,0.2,0.0,0.4,0.0,0.0,-1.2,1.57,0.0,0.0
3650.0,0.0,0.0,0.0,-1.0,0.0,0.0,-1.0,-1.57,0.2,0.0,0.4,0.0,0.0,-1.2,1.57,0.0,0.0
3660.0,0.0,0.0,0.0,-1.0,0.0,0.0,-1.0,-1.57,0.2,0.0,0.4,0.0,0.0,-1.2,1.57,0.0,0.0
3670.0,0.0,0.0,0.0,-1.0,0.0,0.0,-1.0,-1.57,0.2,0.0,0.4,0.0,0.0,-1.2,1.57,0.0,0.0
3680.0,0.0,0.0,0.0,-1.0,0.0,0.0,-1.0,-1.57,0.2,0.0,0.4,0.0,0.0,-1.2,1.57,0.0,0.0
3690.0,0.0,0.0,0.0,-1.0,0.0,0.0,-1.0,-1.57,0.2,0.0,0.4,0.0,0.0,-1.2,1.57,0.0,0.0
3700.0,0.0,0.0,0.0,-1.0,0.0,0.0,-1.0,-1.57,0.2,0.0,0.4,0.0,0.0,-1.2,1.57,0.0,0.0
3710.0,0.0,0.0,0.0,-1.0,0.0,0.0,-1.0,-1.57,0.2,0.0,0.4,0.0,0.0,-1.2,1.57,0.0,0.0
3720.0,0.0,0.0,0.0,-1.0,0.0,0.0,-1.0,-1.57,0.2,0.0,0.4,0.0,0.0,-1.2,1.57,0.0,0.0
3730.0,0.0,0.0,0.0,-1.0,0.0,0.0,-1.0,-1.57,0.2,0.0,0.4,0.0,0.0,-1.2,1.57,0.0,0.0
3740.0,0.0,0.0,0.0,-1.0,0.0,0.0,-1.0,-1.57,0.2,0.0,0.4,0.0,0.0,-1.2,1.57,0.0,0.0
3750.0,0.0,0.0,0.0,-1.0,0.0,0.0,-1.0,-1.57,0.2,0.0,0.4,0.0,0.0,-1.2,1.57,0.0,0.0
3760.0,0.0,0.0,0.0,-1.0,0.0,0.0,-1.0,-1.57,0.2,0.0,0.4,0.0,0.0,-1.2,1.57,0.0,0.0
3770.0,0.0,0.0,0.0,-1.0,0.0,0.0,-1.0,-1.57,0.2,0.0,0.4,0.0,0.0,-1.2,1.57,0.0,0.0
3780.0,0.0,0.0,0.0,-1.0,0.0,0.0,-1.0,-1.57,0.2,0.0,0.4,0.0,0.0,-1.2,1.57,0.0,0.0
3790.0,0.0,0.0,0.0,-1.0,0.0,0.0,-1.0,-1.57,0.2,0.0,0.4,0.0,0.0,-1.2,1.57,0.0,0.0
3800.0,0.0,0.0,0.0,-1.0,0.0,0.0,-1.0,-1.57,0.2,0.0,0.4,0.0,0.0,-1.2,1.57,0.0,0.0
3810.0,0.0,0.0,0.0,-1.0,0.0,0.0,-1.0,-1.57,0.2,0.0,0.4,0.0,0.0,-1.2,1.57,0.0,0.0
3820.0,0.0,0.0,0.0,-1.0,0.0,0.0,-1.0,-1.57,0.2,0.0,0.4,0.0,0.0,-1.2,1.57,0.0,0.0
3830.0,0.0,0.0,0.0,-1.0,0.0,0.0,-1.0,-1.57,0.2,0.0,0.4,0.0,0.0,-1.2,1.57,0.0,0.0
3840.0,0.0,0.0,0.0,-1.0,0.0,0.0,-1.0,-1.57,0.2,0.0,0.4,0.0,0.0,-1.2,1.57,0.0,0.0
3850.0,0.0,0.0,0.0,-1.0,0.0,0.0,-1.0,-1.57,0.2,0.0,0.4,0.0,0.0,-1.2,1.57,0.0,0.0
3860.0,0.0,0.0,0.0,-1.0,0.0,0.0,-1.0,-1.57,0.2,0.0,0.4,0.0,0.0,-1.2,1.57,0.0,0.0
3870.0,0.0,0.0,0.0,-1.0,0.0,0.0,-1.0,-1.57,0.2,0.0,0.4,0.0,0.0,-1.2,1.57,0.0,0.0
3880.0,0.0,0.0,0.0,-1.0,0.0,0.0,-1.0,-1.57,0.2,0.0,0.4,0.0,0.0,-1.2,1.57,0.0,0.0
3890.0,0.0,0.0,0.0,-1.0,0.0,0.0,-1.0,-1.57,0.2,0.0,0.4,0.0,0.0,-1.2,1.57,0.0,0.0
3900.0,0.0,0.0,0.0,-1.0,0.0,0.0,-1.0,-1.57,0.2,0.0,0.4,0.0,0.0,-1.2,1.57,0.0,0.0
3910.0,0.0,0.0,0.0,-1.0,0.0,0.0,-1.0,-1.57,0.2,0.0,0.4,0.0,0.0,-1.2,1.57,0.0,0.0
3920.0,0.0,0.0,0.0,-1.0,0.0,0.0,-1.0,-1.57,0.2,0.0,0.4,0.0,0.0,-1.2,1.57,0.0,0.0
3930.0,0.0,0.0,0.0,-1.0,0.0,0.0,-1.0,-1.57,0.2,0.0,0.4,0.0,0.0,-1.2,1.57,0.0,0.0
3940.0,0.0,0.0,0.0,-1.0,0.0,0.0,-1.0,-1.57,0.2,0.0,0.4,0.0,0.0,-1.2,1.57,0.0,0.0
3950.0,0.0,0.0,0.0,-1.0,0.0,0.0,-1.0,-1.57,0.2,0.0,0.4,0.0,0.0,-1.2,1.57,0.0,0.0
3960.0,0.0,0.0,0.0,-1.0,0.0,0.0,-1.0,-1.57,0.2,0.0,0.4,0.0,0.0,-1.2,1.57,0.0,0.0
3970.0,0.0,0.0,0.0,-1.0,0.0,0.0,-1.0,-1.57,0.2,0.0,0.4,0.0,0.0,-1.2,1.57,0.0,0.0
3980.0,0.0,0.0,0.0,-1.0,0.0,0.0,-1.0,-1.57,0.2,0.0,0.4,0.0,0.0,-1.2,1.57,0.0,0.0
3990.0,0.0,0.0,0.0,-1.0,0.0,0.0,-1.0,-1.57,0.2,0.0,0.4,0.0,0.0,-1.2,1.57,0.0,0.0
4000.0,0.0,0.0,0.0,-1.0,0.0,0.0,-1.0,-1.57,0.2,0.0,0.4,0.0,0.0,-1.2,1.57,0.0,0.0
4010.0,0.0,0.0,0.0,-1.0,0.0,0.0,-1.0,-1.57,0.2,0.0,0.4,0.0,0.0,-1.2,1.57,0.0,0.0
4020.0,0.0,0.0,0.0,-1.0,0.0,0.0,-1.0,-1.57,0.2,0.0,0.4,0.0,0.0,-1.2,1.57,0.0,0.0
4030.0,0.0,0.0,0.0,-1.0,0.0,0.0,-1.0,-1.57,0.2,0.0,0.4,0.0,0.0,-1.2,1.57,0.0,0.0
4040.0,0.0,0.0,0.0,-1.0,0.0,0.0,-1.0,-1.57,0.2,0.0,0.4,0.0,0.0,-1.2,1.57,0.0,0.0
4050.0,0.0,0.0,0.0,-1.0,0.0,0.0,-1.0,-1.57,0.2,0.0,0.4,0.0,0.0,-1.2,1.57,0.0,0.0
4060.0,0.0,0.0,0.0,-1.0,0.0,0.0,-1.0,-1.57,0.2,0.0,0.4,0.0,0.0,-1.2,1.57,0.0,0.0
4070.0,0.0,0.0,0.0,-1.0,0.0,0.0,-1.0,-1.57,0.2,0.0,0.4,0.0,0.0,-1.2,1.57,0.0,0.0
4080.0,0.0,0.0,0.0,-1.0,0.0,0.0,-1.0,-1.57,0.2,0.0,0.4,0.0,0.0,-1.2,1.57,0.0,0.0
4090.0,0.0,0.0,0.0,-1.0,0.0,0.0,-1.0,-1.57,0.2,0.0,0.4,0.0,0.0,-1.2,1.57,0.0,0.0
4100.0,0.0,0.0,0.0,-1.0,0.0,0.0,-1.0,-1.57,0.2,0.0,0.4,0.0,0.0,-1.2,1.57,0.0,0.0
4110.0,0.0,0.0,0.0,-1.0,0.0,0.0,-1.0,-1.57,0.2,0.0,0.4,0.0,0.0,-1.2,1.57,0.0,0.0
4120.0,0.0,0.0,0.0,-1.0,0.0,0.0,-1.0,-1.57,0.2,0.0,0.4,0.0,0.0,-1.2,1.57,0.0,0.0
4130.0,0.0,0.0,0.0,-1.0,0.0,0.0,-1.0,-1.57,0.2,0.0,0.4,0.0,0.0,-1.2,1.57,0.0,0.0
4140.0,0.0,0.0,0.0,-1.0,0.0,0.0,-1.0,-1.57,0.2,0.0,0.4,0.0,0.0,-1.2,1.57,0.0,0.0
4150.0,0.0,0.0,0.0,-1.0,0.0,0.0,-1.0,-1.57,0.2,0.0,0.4,0.0,0.0,-1.2,1.57,0.0,0.0
4160.0,0.0,0.0,0.0,-1.0,0.0,0.0,-1.0,-1.57,0.2,0.0,0.4,0.0,0.0,-1.2,1.57,0.0,0.0
4170.0,0.0,0.0,0.0,-1.0,0.0,0.0,-1.0,-1.57,0.2,0.0,0.4,0.0,0.0,-1.2,1.57,0.0,0.0
4180.0,0.0,0.0,0.0,-1.0,0.0,0.0,-1.0,-1.57,0.2,0.0,0.4,0.0,0.0,-1.2,1.57,0.0,0.0
4190.0,0.0,0.0,0.0,-1.0,0.0,0.0,-1.0,-1.57,0.2,0.0,0.4,0.0,0.0,-1.2,1.57,0.0,0.0
4200.0,0.0,0.0,0.0,-1.0,0.0,0.0,-1.0,-1.57,0.2,0.0,0.4,0.0,0.0,-1.2,1.57,0.0,0.0
4210.0,0.0,0.0,0.0,-1.0,0.0,0.0,-1.0,-1.57,0.2,0.0,0.4,0.0,0.0,-1.2,1.57,0.0,0.0
4220.0,0.0,0.0,0.0,-1.0,0.0,0.0,-1.0,-1.57,0.2,0.0,0.4,0.0,0.0,-1.2,1.57,0.0,0.0
4230.0,0.0,0.0,0.0,-1.0,0.0,0.0,-1.0,-1.57,0.2,0.0,0.4,0.0,0.0,-1.2,1.57,0.0,0.0
4240.0,0.0,0.0,0.0,-1.0,0.0,0.0,-1.0,-1.57,0.2,0.0,0.4,0.0,0.0,-1.2,1.57,0.0,0.0
4250.0,0.0,0.0,0.0,-1.0,0.0,0.0,-1.0,-1.57,0.2,0.0,0.4,0.0,0.0,-1.2,1.57,0.0,0.0
4260.0,0.0,0.0,0.0,-1.0,0.0,0.0,-1.0,-1.57,0.2,0.0,0.4,0.0,0.0,-1.2,1.57,0.0,0.0
4270.0,0.0,0.0,0.0,-1.0,0.0,0.0,-1.0,-1.57,0.2,0.0,0.4,0.0,0.0,-1.2,1.57,0.0,0.0
4280.0,0.0,0.0,0.0,-1.0,0.0,0.0,-1.0,-1.57,0.2,0.0,0.4,0.0,0.0,-1.2,1.57,0.0,0.0
4290.0,0.0,0.0,0.0,-1.0,0.0,0.0,-1.0,-1.57,0.2,0.0,0.4,0.0,0.0,-1.2,1.57,0.0,0.0
4300.0,0.0,0.0,0.0,-1.0,0.0,0.0,-1.0,-1.57,0.2,0.0,0.4,0.0,0.0,-1.2,1.57,0.0,0.0
4310.0,0.0,0.0,0.0,-1.0,0.0,0.0,-1.0,-1.57,0.2,0.0,0.4,0.0,0.0,-1.2,1.57,0.0,0.0
4320.0,0.0,0.0,0.0,-1.0,0.0,0.0,-1.0,-1.57,0.2,0.0,0.4,0.0,0.0,-1.2,1.57,0.0,0.0
4330.0,0.0,0.0,0.0,-1.0,0.0,0.0,-1.0,-1.57,0.2,0.0,0.4,0.0,0.0,-1.2,1.57,0.0,0.0
4340.0,0.0,0.0,0.0,-1.0,0.0,0.0,-1.0,-1.57,0.2,0.0,0.4,0.0,0.0,-1.2,1.57,0.0,0.0
4350.0,0.0,0.0,0.0,-1.0,0.0,0.0,-1.0,-1.57,0.2,0.0,0.4,0.0,0.0,-1.2,1.57,0.0,0.0
4360.0,0.0,0.0,0.0,-1.0,0.0,0.0,-1.0,-1.57,0.2,0.0,0.4,0.0,0.0,-1.2,1.57,0.0,0.0
4370.0,0.0,0.0,0.0,-1.0,0.0,0.0,-1.0,-1.57,0.2,0.0,0.4,0.0,0.0,-1.2,1.57,0.0,0.0
4380.0,0.0,0.0,0.0,-1.0,0.0,0.0,-1.0,-1.57,0.2,0.0,0.4,0.0,0.0,-1.2,1.57,0.0,0.0
4390.0,0.0,0.0,0.0,-1.0,0.0,0.0,-1.0,-1.57,0.2,0.0,0.4,0.0,0.0,-1.2,1.57,0.0,0.0
4400.0,0.0,0.0,0.0,-1.0,0.0,0.0,-1.0,-1.57,0.2,0.0,0.4,0.0,0.0,-1.2,1.57,0.0,0.0
4410.0,0.0,0.0,0.0,-1.0,0.0,0.0,-1.0,-1.57,0.2,0.0,0.4,0.0,0.0,-1.2,1.57,0.0,0.0
4420.0,0.0,0.0,0.0,-1.0,0.0,0.0,-1.0,-1.57,0.2,0.0,0.4,0.0,0.0,-1.2,1.57,0.0,0.0
4430.0,0.0,0.0,0.0,-1.0,0.0,0.0,-1.0,-1.57,0.2,0.0,0.4,0.0,0.0,-1.2,1.57,0.0,0.0
4440.0,0.0,0.0,0.0,-1.0,0.0,0.0,-1.0,-1.57,0.2,0.0,0.4,0.0,0.0,-1.2,1.57,0.0,0.0
4450.0,0.0,0.0,0.0,-1.0,0.0,0.0,-1.0,-1.57,0.2,0.0,0.4,0.0,0.0,-1.2,1.57,0.0,0.0
4460.0,0.0,0.0,0.0,-1.0,0.0,0.0,-1.0,-1.57,0.2,0.0,0.4,0.0,0.0,-1.2,1.57,0.0,0.0
4470.0,0.0,0.0,0.0,-1.0,0.0,0.0,-1.0,-1.57,0.2,0.0,0.4,0.0,0.0,-1.2,1.57,0.0,0.0
4480.0,0.0,0.0,0.0,-1.0,0.0,0.0,-1.0,-1.57,0.2,0.0,0.4,0.0,0.0,-1.2,1.57,0.0,0.0
4490.0,0.0,0.0,0.0,-1.0,0.0,0.0,-1.0,-1.57,0.2,0.0,0.4,0.0,0.0,-1.2,1.57,0.0,0.0
4500.0,0.0,0.0,0.0,-1.0,0.0,0.0,-1.0,-1.57,0.2,0.0,0.4,0.0,0.0,-1.2,1.57,0.0,0.0
4510.0,0.0,0.0,0.0,-1.0,0.0,0.0,-1.0,-1.57,0.2,0.0,0.4,0.0,0.0,-1.2,1.57,0.0,0.0
4520.0,0.0,0.0,0.0,-1.0,0.0,0.0,-1.0,-1.57,0.2,0.0,0.4,0.0,0.0,-1.2,1.57,0.0,0.0
4530.0,0.0,0.0,0.0,-1.0,0.0,0.0,-1.0,-1.57,0.2,0.0,0.4,0.0,0.0,-1.2,1.57,0.0,0.0
4540.0,0.0,0.0,0.0,-1.0,0.0,0.0,-1.0,-1.57,0.2,0.0,0.4,0.0,0.0,-1.2,1.57,0.0,0.0
4550.0,0.0,0.0,0.0,-1.0,0.0,0.0,-1.0,-1.57,0.2,0.0,0.4,0.0,0.0,-1.2,1.57,0.0,0.0
4560.0,0.0,0.0,0.0,-1.0,0.0,0.0,-1.0,-1.57,0.2,0.0,0.4,0.0,0.0,-1.2,1.57,0.0,0.0
4570.0,0.0,0.0,0.0,-1.0,0.0,0.0,-1.0,-1.57,0.2,0.0,0.4,0.0,0.0,-1.2,1.57,0.0,0.0
4580.0,0.0,0.0,0.0,-1.0,0.0,0.0,-1.0,-1.57,0.2,0.0,0.4,0.0,0.0,-1.2,1.57,0.0,0.0
4590.0,0.0,0.0,0.0,-1.0,0.0,0.0,-1.0,-1.57,0.2,0.0,0.4,0.0,0.0,-1.2,1.57,0.0,0.0
4600.0,0.0,0.0,0.0,-1.0,0.0,0.0,-1.0,-1.57,0.2,0.0,0.4,0.0,0.0,-1.2,1.57,0.0,0.0
4610.0,0.0,0.0,0.0,-1.0,0.0,0.0,-1.0,-1.57,0.2,0.0,0.4,0.0,0.0,-1.2,1.57,0.0,0.0
4620.0,0.0,0.0,0.0,-1.0,0.0,0.0,-1.0,-1.57,0.2,0.0,0.4,0.0,0.0,-1.2,1.57,0.0,0.0
4630.0,0.0,0.0,0.0,-1.0,0.0,0.0,-1.0,-1.57,0.2,0.0,0.4,0.0,0.0,-1.2,1.57,0.0,0.0
4640.0,0.0,0.0,0.0,-1.0,0.0,0.0,-1.0,-1.57,0.2,0.0,0.4,0.0,0.0,-1.2,1.57,0.0,0.0
4650.0,0.0,0.0,0.0,-1.0,0.0,0.0,-1.0,-1.57,0.2,0.0,0.4,0.0,0.0,-1.2,1.57,0.0,0.0
4660.0,0.0,0.0,0.0,-1.0,0.0,0.0,-1.0,-1.57,0.2,0.0,0.4,0.0,0.0,-1.2,1.57,0.0,0.0
4670.0,0.0,0.0,0.0,-1.0,0.0,0.0,-1.0,-1.57,0.2,0.0,0.4,0.0,0.0,-1.2,1.57,0.0,0.0
4680.0,0.0,0.0,0.0,-1.0,0.0,0.0,-1.0,-1.57,0.2,0.0,0.4,0.0,0.0,-1.2,1.57,0.0,0.0
4690.0,0.0,0.0,0.0,-1.0,0.0,0.0,-1.0,-1.57,0.2,0.0,0.4,0.0,0.0,-1.2,1.57,0.0,0.0
4700.0,0.0,0.0,0.0,-1.0,0.0,0.0,-1.0,-1.57,0.2,0.0,0.4,0.0,0.0,-1.2,1.57,0.0,0.0
4710.0,0.0,0.0,0.0,-1.0,0.0,0.0,-1.0,-1.57,0.2,0.0,0.4,0.0,0.0,-1.2,1.57,0.0,0.0
4720.0,0.0,0.0,0.0,-1.0,0.0,0.0,-1.0,-1.57,0.2,0.0,0.4,0.0,0.0,-1.2,1.57,0.0,0.0
4730.0,0.0,0.0,0.0,-1.0,0.0,0.0,-1.0,-1.57,0.2,0.0,0.4,0.0,0.0,-1.2,1.57,0.0,0.0
4740.0,0.0,0.0,0.0,-1.0,0.0,0.0,-1.0,-1.57,0.2,0.0,0.4,0.0,0.0,-1.2,1.57,0.0,0.0
4750.0,0.0,0.0,0.0,-1.0,0.0,0.0,-1.0,-1.57,0.2,0.0,0.4,0.0,0.0,-1.2,1.57,0.0,0.0
4760.0,0.0,0.0,0.0,-1.0,0.0,0.0,-1.0,-1.57,0.2,0.0,0.4,0.0,0.0,-1.2,1.57,0.0,0.0
4770.0,0.0,0.0,0.0,-1.0,0.0,0.0,-1.0,-1.57,0.2,0.0,0.4,0.0,0.0,-1.2,1.57,0.0,0.0
4780.0,0.0,0.0,0.0,-1.0,0.0,0.0,-1.0,-1.57,0.2,0.0,0.4,0.0,0.0,-1.2,1.57,0.0,0.0
4790.0,0.0,0.0,0.0,-1.0,0.0,0.0,-1.0,-1.57,0.2,0.0,0.4,0.0,0.0,-1.2,1.57,0.0,0.0
4800.0,0.0,0.0,0.0,-1.0,0.0,0.0,-1.0,-1.57,0.2,0.0,0.4,0.0,0.0,-1.2,1.57,0.0,0.0
4810.0,0.0,0.0,0.0,-1.0,0.0,0.0,-1.0,-1.57,0.2,0.0,0.4,0.0,0.0,-1.2,1.57,0.0,0.0
4820.0,0.0,0.0,0.0,-1.0,0.0,0.0,-1.0,-1.57,0.2,0.0,0.4,0.0,0.0,-1.2,1.57,0.0,0.0
4830.0,0.0,0.0,0.0,-1.0,0.0,0.0,-1.0,-1.57,0.2,0.0,0.4,0.0,0.0,-1.2,1.57,0.0,0.0
4840.0,0.0,0.0,0.0,-1.0,0.0,0.0,-1.0,-1.57,0.2,0.0,0.4,0.0,0.0,-1.2,1.57,0.0,0.0
4850.0,0.0,0.0,0.0,-1.0,0.0,0.0,-1.0,-1.57,0.2,0.0,0.4,0.0,0.0,-1.2,1.57,0.0,0.0
4860.0,0.0,0.0,0.0,-1.0,0.0,0.0,-1.0,-1.57,0.2,0.0,0.4,0.0,0.0,-1.2,1.57,0.0,0.0
4870.0,0.0,0.0,0.0,-1.0,0.0,0.0,-1.0,-1.57,0.2,0.0,0.4,0.0,0.0,-1.2,1.57,0.0,0.0
4880.0,0.0,0.0,0.0,-1.0,0.0,0.0,-1.0,-1.57,0.2,0.0,0.4,0.0,0.0,-1.2,1.57,0.0,0.0
4890.0,0.0,0.0,0.0,-1.0,0.0,0.0,-1.0,-1.57,0.2,0.0,0.4,0.0,0.0,-1.2,1.57,0.0,0.0
4900.0,0.0,0.0,0.0,-1.0,0.0,0.0,-1.0,-1.57,0.2,0.0,0.4,0.0,0.0,-1.2,1.57,0.0,0.0
4910.0,0.0,0.0,0.0,-1.0,0.0,0.0,-1.0,-1.57,0.2,0.0,0.4,0.0,0.0,-1.2,1.57,0.0,0.0
4920.0,0.0,0.0,0.0,-1.0,0.0,0.0,-1.0,-1.57,0.2,0.0,0.4,0.0,0.0,-1.2,1.57,0.0,0.0
4930.0,0.0,0.0,0.0,-1.0,0.0,0.0,-1.0,-1.57,0.2,0.0,0.4,0.0,0.0,-1.2,1.57,0.0,0.0
4940.0,0.0,0.0,0.0,-1.0,0.0,0.0,-1.0,-1.57,0.2,0.0,0.4,0.0,0.0,-1.2,1.57,0.0,0.0
4950.0,0.0,0.0,0.0,-1.0,0.0,0.0,-1.0,-1.57,0.2,0.0,0.4,0.0,0.0,-1.2,1.57,0.0,0.0
4960.0,0.0,0.0,0.0,-1.0,0.0,0.0,-1.0,-1.57,0.2,0.0,0.4,0.0,0.0,-1.2,1.57,0.0,0.0
4970.0,0.0,0.0,0.0,-1.0,0.0,0.0,-1.0,-1.57,0.2,0.0,0.4,0.0,0.0,-1.2,1.57,0.0,0.0
4980.0,0.0,0.0,0.0,-1.0,0.0,0.0,-1.0,-1.57,0.2,0.0,0.4,0.0,0.0,-1.2,1.57,0.0,0.0
4990.0,0.0,0.0,0.0,-1.0,0.0,0.0,-1.0,-1.57,0.2,0.0,0.4,0.0,0.0,-1.2,1.57,0.0,0.0
5000.0,0.0,0.0,0.0,-1.0,0.0,0.0,-1.0,-1.57,0.2,0.0,0.4,0.0,0.0,-1.2,1.57,0.0,0.0
5010.0,0.0,0.0,0.0,-1.0,0.0,0.0,-1.0,-1.57,0.2,0.0,0.4,0.0,0.0,-1.2,1.57,0.0,0.0
5020.0,0.0,0.0,0.0,-1.0,0.0,0.0,-1.0,-1.57,0.2,0.0,0.4,0.0,0.0,-1.2,1.57,0.0,0.0
5030.0,0.0,0.0,0.0,-1.0,0.0,0.0,-1.0,-1.57,0.2,0.0,0.4,0.0,0.0,-1.2,1.57,0.0,0.0
5040.0,0.0,0.0,0.0,-1.0,0.0,0.0,-1.0,-1.57,0.2,0.0,0.4,0.0,0.0,-1.2,1.57,0.0,0.0
5050.0,0.0,0.0,0.0,-1.0,0.0,0.0,-1.0,-1.57,0.2,0.0,0.4,0.0,0.0,-1.2,1.57,0.0,0.0
5060.0,0.0,0.0,0.0,-1.0,0.0,0.0,-1.0,-1.57,0.2,0.0,0.4,0.0,0.0,-1.2,1.57,0.0,0.0
5070.0,0.0,0.0,0.0,-1.0,0.0,0.0,-1.0,-1.57,0.2,0.0,0.4,0.0,0.0,-1.2,1.57,0.0,0.0
5080.0,0.0,0.0,0.0,-1.0,0.0,0.0,-1.0,-1.57,0.2,0.0,0.4,0.0,0.0,-1.2,1.57,0.0,0.0
5090.0,0.0,0.0,0.0,-1.0,0.0,0.0,-1.0,-1.57,0.2,0.0,0.4,0.0,0.0,-1.2,1.57,0.0,0.0
5100.0,0.0,0.0,0.0,-1.0,0.0,0.0,-1.0,-1.57,0.2,0.0,0.4,0.0,0.0,-1.2,1.57,0.0,0.0
5110.0,0.0,0.0,0.0,-1.0,0.0,0.0,-1.0,-1.57,0.2,0.0,0.4,0.0,0.0,-1.2,1.57,0.0,0.0
5120.0,0.0,0.0,0.0,-1.0,0.0,0.0,-1.0,-1.57,0.2,0.0,0.4,0.0,0.0,-1.2,1.57,0.0,0.0
5130.0,0.0,0.0,0.0,-1.0,0.0,0.0,-1.0,-1.57,0.2,0.0,0.4,0.0,0.0,-1.2,1.57,0.0,0.0
5140.0,0.0,0.0,0.0,-1.0,0.0,0.0,-1.0,-1.57,0.2,0.0,0.4,0.0,0.0,-1.2,1.57,0.0,0.0
5150.0,0.0,0.0,0.0,-1.0,0.0,0.0,-1.0,-1.57,0.2,0.0,0.4,0.0,0.0,-1.2,1.57,0.0,0.0
5160.0,0.0,0.0,0.0,-1.0,0.0,0.0,-1.0,-1.57,0.2,0.0,0.4,0.0,0.0,-1.2,1.57,0.0,0.0
5170.0,0.0,0.0,0.0,-1.0,0.0,0.0,-1.0,-1.57,0.2,0.0,0.4,0.0,0.0,-1.2,1.57,0.0,0.0
5180.0,0.0,0.0,0.0,-1.0,0.0,0.0,-1.0,-1.57,0.2,0.0,0.4,0.0,0.0,-1.2,1.57,0.0,0.0
5190.0,0.0,0.0,0.0,-1.0,0.0,0.0,-1.0,-1.57,0.2,0.0,0.4,0.0,0.0,-1.2,1.57,0.0,0.0
5200.0,0.0,0.0,0.0,-1.0,0.0,0.0,-1.0,-1.57,0.2,0.0,0.4,0.0,0.0,-1.2,1.57,0.0,0.0
5210.0,0.0,0.0,0.0,-1.0,0.0,0.0,-1.0,-1.57,0.2,0.0,0.4,0.0,0.0,-1.2,1.57,0.0,0.0
5220.0,0.0,0.0,0.0,-1.0,0.0,0.0,-1.0,-1.57,0.2,0.0,0.4,0.0,0.0,-1.2,1.57,0.0,0.0
5230.0,0.0,0.0,0.0,-1.0,0.0,0.0,-1.0,-1.57,0.2,0.0,0.4,0.0,0.0,-1.2,1.57,0.0,0.0
5240.0,0.0,0.0,0.0,-1.0,0.0,0.0,-1.0,-1.57,0.2,0.0,0.4,0.0,0.0,-1.2,1.57,0.0,0.0
5250.0,0.0,0.0,0.0,-1.0,0.0,0.0,-1.0,-1.57,0.2,0.0,0.4,0.0,0.0,-1.2,1.57,0.0,0.0
5260.0,0.0,0.0,0.0,-1.0,0.0,0.0,-1.0,-1.57,0.2,0.0,0.4,0.0,0.0,-1.2,1.57,0.0,0.0
5270.0,0.0,0.0,0.0,-1.0,0.0,0.0,-1.0,-1.57,0.2,0.0,0.4,0.0,0.0,-1.2,1.57,0.0,0.0
5280.0,0.0,0.0,0.0,-1.0,0.0,0.0,-1.0,-1.57,0.2,0.0,0.4,0.0,0.0,-1.2,1.57,0.0,0.0
5290.0,0.0,0.0,0.0,-1.0,0.0,0.0,-1.0,-1.57,0.2,0.0,0.4,0.0,0.0,-1.2,1.57,0.0,0.0
5300.0,0.0,0.0,0.0,-1.0,0.0,0.0,-1.0,-1.57,0.2,0.0,0.4,0.0,0.0,-1.2,1.57,0.0,0.0
5310.0,0.0,0.0,0.0,-1.0,0.0,0.0,-1.0,-1.57,0.2,0.0,0.4,0.0,0.0,-1.2,1.57,0.0,0.0
5320.0,0.0,0.0,0.0,-1.0,0.0,0.0,-1.0,-1.57,0.2,0.0,0.4,0.0,0.0,-1.2,1.57,0.0,0.0
5330.0,0.0,0.0,0.0,-1.0,0.0,0.0,-1.0,-1.57,0.2,0.0,0.4,0.0,0.0,-1.2,1.57,0.0,0.0
5340.0,0.0,0.0,0.0,-1.0,0.0,0.0,-1.0,-1.57,0.2,0.0,0.4,0.0,0.0,-1.2,1.57,0.0,0.0
5350.0,0.0,0.0,0.0,-1.0,0.0,0.0,-1.0,-1.57,0.2,0.0,0.4,0.0,0.0,-1.2,1.57,0.0,0.0
5360.0,0.0,0.0,0.0,-1.0,0.0,0.0,-1.0,-1.57,0.2,0.0,0.4,0.0,0.0,-1.2,1.57,0.0,0.0
5370.0,0.0,0.0,0.0,-1.0,0.0,0.0,-1.0,-1.57,0.2,0.0,0.4,0.0,0.0,-1.2,1.57,0.0,0.0
5380.0,0.0,0.0,0.0,-1.0,0.0,0.0,-1.0,-1.57,0.2,0.0,0.4,0.0,0.0,-1.2,1.57,0.0,0.0
5390.0,0.0,0.0,0.0,-1.0,0.0,0.0,-1.0,-1.57,0.2,0.0,0.4,0.0,0.0,-1.2,1.57,0.0,0.0
5400.0,0.0,0.0,0.0,-1.0,0.0,0.0,-1.0,-1.57,0.2,0.0,0.4,0.0,0.0,-1.2,1.57,0.0,0.0
5410.0,0.0,0.0,0.0,-1.0,0.0,0.0,-1.0,-1.57,0.2,0.0,0.4,0.0,0.0,-1.2,1.57,0.0,0.0
5420.0,0.0,0.0,0.0,-1.0,0.0,0.0,-1.0,-1.57,0.2,0.0,0.4,0.0,0.0,-1.2,1.57,0.0,0.0
5430.0,0.0,0.0,0.0,-1.0,0.0,0.0,-1.0,-1.57,0.2,0.0,0.4,0.0,0.0,-1.2,1.57,0.0,0.0
5440.0,0.0,0.0,0.0,-1.0,0.0,0.0,-1.0,-1.57,0.2,0.0,0.4,0.0,0.0,-1.2,1.57,0.0,0.0
5450.0,0.0,0.0,0.0,-1.0,0.0,0.0,-1.0,-1.57,0.2,0.0,0.4,0.0,0.0,-1.2,1.57,0.0,0.0
5460.0,0.0,0.0,0.0,-1.0,0.0,0.0,-1.0,-1.57,0.2,0.0,0.4,0.0,0.0,-1.2,1.57,0.0,0.0
5470.0,0.0,0.0,0.0,-1.0,0.0,0.0,-1.0,-1.57,0.2,0.0,0.4,0.0,0.0,-1.2,1.57,0.0,0.0
5480.0,0.0,0.0,0.0,-1.0,0.0,0.0,-1.0,-1.57,0.2,0.0,0.4,0.0,0.0,-1.2,1.57,0.0,0.0
5490.0,0.0,0.0,0.0,-1.0,0.0,0.0,-1.0,-1.57,0.2,0.0,0.4,0.0,0.0,-1.2,1.57,0.0,0.0
5500.0,0.0,0.0,0.0,-1.0,0.0,0.0,-1.0,-1.57,0.2,0.0,0.4,0.0,0.0,-1.2,1.57,0.0,0.0
5510.0,0.0,0.0,0.0,-0.9906666666666667,0.0,0.0,-1.0013333333333334,-1.57,0.19866666666666669,0.0,0.4,0.0,0.0,-1.2,1.57,0.0,0.0
5520.0,0.0,0.0,0.0,-0.9813333333333334,0.0,0.0,-1.0026666666666666,-1.57,0.19733333333333333,0.0,0.4,0.0,0.0,-1.2,1.57,0.0,0.0
5530.0,0.0,0.0,0.0,-0.972,0.0,0.0,-1.004,-1.57,0.196,0.0,0.4,0.0,0.0,-1.2,1.57,0.0,0.0
5540.0,0.0,0.0,0.0,-0.9626666666666667,0.0,0.0,-1.0053333333333334,-1.57,0.19466666666666668,0.0,0.4,0.0,0.0,-1.2,1.57,0.0,0.0
5550.0,0.0,0.0,0.0,-0.9533333333333334,0.0,0.0,-1.0066666666666666,-1.57,0.19333333333333336,0.0,0.4,0.0,0.0,-1.2,1.57,0.0,0.0
5560.0,0.0,0.0,0.0,-0.944,0.0,0.0,-1.008,-1.57,0.192,0.0,0.4,0.0,0.0,-1.2,1.57,0.0,0.0
5570.0,0.0,0.0,0.0,-0.9346666666666666,0.0,0.0,-1.0093333333333334,-1.57,0.19066666666666668,0.0,0.4,0.0,0.0,-1.2,1.57,0.0,0.0
5580.0,0.0,0.0,0.0,-0.9253333333333333,0.0,0.0,-1.0106666666666666,-1.57,0.18933333333333335,0.0,0.4,0.0,0.0,-1.2,1.57,0.0,0.0
5590.0,0.0,0.0,0.0,-0.916,0.0,0.0,-1.012,-1.57,0.188,0.0,0.4,0.0,0.0,-1.2,1.57,0.0,0.0
5600.0,0.0,0.0,0.0,-0.9066666666666666,0.0,0.0,-1.0133333333333334,-1.57,0.18666666666666668,0.0,0.4,0.0,0.0,-1.2,1.57,0.0,0.0
5610.0,0.0,0.0,0.0,-0.8973333333333333,0.0,0.0,-1.0146666666666666,-1.57,0.18533333333333335,0.0,0.4,0.0,0.0,-1.2,1.57,0.0,0.0
5620.0,0.0,0.0,0.0,-0.888,0.0,0.0,-1.016,-1.57,0.184,0.0,0.4,0.0,0.0,-1.2,1.57,0.0,0.0
5630.0,0.0,0.0,0.0,-0.8786666666666667,0.0,0.0,-1.0173333333333334,-1.57,0.18266666666666667,0.0,0.4,0.0,0.0,-1.2,1.57,0.0,0.0
5640.0,0.0,0.0,0.0,-0.8693333333333333,0.0,0.0,-1.0186666666666666,-1.57,0.18133333333333335,0.0,0.4,0.0,0.0,-1.2,1.57,0.0,0.0
5650.0,0.0,0.0,0.0,-0.86,0.0,0.0,-1.02,-1.57,0.18000000000000002,0.0,0.4,0.0,0.0,-1.2,1.57,0.0,0.0
5660.0,0.0,0.0,0.0,-0.8506666666666667,0.0,0.0,-1.0213333333333334,-1.57,0.17866666666666667,0.0,0.4,0.0,0.0,-1.2,1.57,0.0,0.0
5670.0,0.0,0.0,0.0,-0.8413333333333333,0.0,0.0,-1.0226666666666666,-1.57,0.17733333333333334,0.0,0.4,0.0,0.0,-1.2,1.57,0.0,0.0
5680.0,0.0,0.0,0.0,-0.832,0.0,0.0,-1.024,-1.57,0.17600000000000002,0.0,0.4,0.0,0.0,-1.2,1.57,0.0,0.0
5690.0,0.0,0.0,0.0,-0.8226666666666667,0.0,0.0,-1.0253333333333334,-1.57,0.17466666666666666,0.0,0.4,0.0,0.0,-1.2,1.57,0.0,0.0
5700.0,0.0,0.0,0.0,-0.8133333333333334,0.0,0.0,-1.0266666666666666,-1.57,0.17333333333333334,0.0,0.4,0.0,0.0,-1.2,1.57,0.0,0.0
5710.0,0.0,0.0,0.0,-0.804,0.0,0.0,-1.028,-1.57,0.17200000000000001,0.0,0.4,0.0,0.0,-1.2,1.57,0.0,0.0
5720.0,0.0,0.0,0.0,-0.7946666666666666,0.0,0.0,-1.0293333333333334,-1.57,0.1706666666666667,0.0,0.4,0.0,0.0,-1.2,1.57,0.0,0.0
5730.0,0.0,0.0,0.0,-0.7853333333333333,0.0,0.0,-1.0306666666666666,-1.57,0.16933333333333334,0.0,0.4,0.0,0.0,-1.2,1.57,0.0,0.0
5740.0,0.0,0.0,0.0,-0.776,0.0,0.0,-1.032,-1.57,0.168,0.0,0.4,0.0,0.0,-1.2,1.57,0.0,0.0
5750.0,0.0,0.0,0.0,-0.7666666666666666,0.0,0.0,-1.0333333333333332,-1.57,0.16666666666666669,0.0,0.4,0.0,0.0,-1.2,1.57,0.0,0.0
5760.0,0.0,0.0,0.0,-0.7573333333333333,0.0,0.0,-1.0346666666666666,-1.57,0.16533333333333333,0.0,0.4,0.0,0.0,-1.2,1.57,0.0,0.0
5770.0,0.0,0.0,0.0,-0.748,0.0,0.0,-1.036,-1.57,0.164,0.0,0.4,0.0,0.0,-1.2,1.57,0.0,0.0
5780.0,0.0,0.0,0.0,-0.7386666666666667,0.0,0.0,-1.0373333333333332,-1.57,0.16266666666666668,0.0,0.4,0.0,0.0,-1.2,1.57,0.0,0.0
5790.0,0.0,0.0,0.0,-0.7293333333333334,0.0,0.0,-1.0386666666666666,-1.57,0.16133333333333333,0.0,0.4,0.0,0.0,-1.2,1.57,0.0,0.0
5800.0,0.0,0.0,0.0,-0.72,0.0,0.0,-1.04,-1.57,0.16,0.0,0.4,0.0,0.0,-1.2,1.57,0.0,0.0
5810.0,0.0,0.0,0.0,-0.7106666666666667,0.0,0.0,-1.0413333333333332,-1.57,0.15866666666666668,0.0,0.4,0.0,0.0,-1.2,1.57,0.0,0.0
5820.0,0.0,0.0,0.0,-0.7013333333333334,0.0,0.0,-1.0426666666666666,-1.57,0.15733333333333333,0.0,0.4,0.0,0.0,-1.2,1.57,0.0,0.0
5830.0,0.0,0.0,0.0,-0.692,0.0,0.0,-1.044,-1.57,0.156,0.0,0.4,0.0,0.0,-1.2,1.57,0.0,0.0
5840.0,0.0,0.0,0.0,-0.6826666666666666,0.0,0.0,-1.0453333333333332,-1.57,0.15466666666666667,0.0,0.4,0.0,0.0,-1.2,1.57,0.0,0.0
5850.0,0.0,0.0,0.0,-0.6733333333333333,0.0,0.0,-1.0466666666666666,-1.57,0.15333333333333335,0.0,0.4,0.0,0.0,-1.2,1.57,0.0,0.0
5860.0,0.0,0.0,0.0,-0.6639999999999999,0.0,0.0,-1.048,-1.57,0.15200000000000002,0.0,0.4,0.0,0.0,-1.2,1.57,0.0,0.0
5870.0,0.0,0.0,0.0,-0.6546666666666667,0.0,0.0,-1.0493333333333332,-1.57,0.15066666666666667,0.0,0.4,0.0,0.0,-1.2,1.57,0.0,0.0
5880.0,0.0,0.0,0.0,-0.6453333333333333,0.0,0.0,-1.0506666666666666,-1.57,0.14933333333333335,0.0,0.4,0.0,0.0,-1.2,1.57,0.0,0.0
5890.0,0.0,0.0,0.0,-0.636,0.0,0.0,-1.052,-1.57,0.14800000000000002,0.0,0.4,0.0,0.0,-1.2,1.57,0.0,0.0
5900.0,0.0,0.0,0.0,-0.6266666666666667,0.0,0.0,-1.0533333333333332,-1.57,0.14666666666666667,0.0,0.4,0.0,0.0,-1.2,1.57,0.0,0.0
5910.0,0.0,0.0,0.0,-0.6173333333333333,0.0,0.0,-1.0546666666666666,-1.57,0.14533333333333334,0.0,0.4,0.0,0.0,-1.2,1.57,0.0,0.0
5920.0,0.0,0.0,0.0,-0.608,0.0,0.0,-1.056,-1.57,0.14400000000000002,0.0,0.4,0.0,0.0,-1.2,1.57,0.0,0.0
5930.0,0.0,0.0,0.0,-0.5986666666666667,0.0,0.0,-1.0573333333333332,-1.57,0.14266666666666666,0.0,0.4,0.0,0.0,-1.2,1.57,0.0,0.0
5940.0,0.0,0.0,0.0,-0.5893333333333333,0.0,0.0,-1.0586666666666666,-1.57,0.14133333333333334,0.0,0.4,0.0,0.0,-1.2,1.57,0.0,0.0
5950.0,0.0,0.0,0.0,-0.5800000000000001,0.0,0.0,-1.06,-1.57,0.14,0.0,0.4,0.0,0.0,-1.2,1.57,0.0,0.0
5960.0,0.0,0.0,0.0,-0.5706666666666667,0.0,0.0,-1.0613333333333332,-1.57,0.13866666666666666,0.0,0.4,0.0,0.0,-1.2,1.57,0.0,0.0
5970.0,0.0,0.0,0.0,-0.5613333333333334,0.0,0.0,-1.0626666666666666,-1.57,0.13733333333333334,0.0,0.4,0.0,0.0,-1.2,1.57,0.0,0.0
5980.0,0.0,0.0,0.0,-0.552,0.0,0.0,-1.064,-1.57,0.136,0.0,0.4,0.0,0.0,-1.2,1.57,0.0,0.0
5990.0,0.0,0.0,0.0,-0.5426666666666666,0.0,0.0,-1.0653333333333332,-1.57,0.13466666666666666,0.0,0.4,0.0,0.0,-1.2,1.57,0.0,0.0
6000.0,0.0,0.0,0.0,-0.5333333333333333,0.0,0.0,-1.0666666666666667,-1.57,0.13333333333333336,0.0,0.4,0.0,0.0,-1.2,1.57,0.0,0.0
6010.0,0.0,0.0,0.0,-0.524,0.0,0.0,-1.068,-1.57,0.132,0.0,0.4,0.0,0.0,-1.2,1.57,0.0,0.0
6020.0,0.0,0.0,0.0,-0.5146666666666666,0.0,0.0,-1.0693333333333332,-1.57,0.13066666666666668,0.0,0.4,0.0,0.0,-1.2,1.57,0.0,0.0
6030.0,0.0,0.0,0.0,-0.5053333333333334,0.0,0.0,-1.0706666666666667,-1.57,0.12933333333333336,0.0,0.4,0.0,0.0,-1.2,1.57,0.0,0.0
6040.0,0.0,0.0,0.0,-0.496,0.0,0.0,-1.072,-1.57,0.128,0.0,0.4,0.0,0.0,-1.2,1.57,0.0,0.0
6050.0,0.0,0.0,0.0,-0.4866666666666667,0.0,0.0,-1.0733333333333333,-1.57,0.12666666666666668,0.0,0.4,0.0,0.0,-1.2,1.57,0.0,0.0
6060.0,0.0,0.0,0.0,-0.4773333333333334,0.0,0.0,-1.0746666666666667,-1.57,0.12533333333333335,0.0,0.4,0.0,0.0,-1.2,1.57,0.0,0.0
6070.0,0.0,0.0,0.0,-0.46799999999999997,0.0,0.0,-1.076,-1.57,0.12400000000000001,0.0,0.4,0.0,0.0,-1.2,1.57,0.0,0.0
6080.0,0.0,0.0,0.0,-0.45866666666666667,0.0,0.0,-1.0773333333333333,-1.57,0.12266666666666667,0.0,0.4,0.0,0.0,-1.2,1.57,0.0,0.0
6090.0,0.0,0.0,0.0,-0.44933333333333336,0.0,0.0,-1.0786666666666667,-1.57,0.12133333333333333,0.0,0.4,0.0,0.0,-1.2,1.57,0.0,0.0
6100.0,0.0,0.0,0.0,-0.44000000000000006,0.0,0.0,-1.08,-1.57,0.12000000000000001,0.0,0.4,0.0,0.0,-1.2,1.57,0.0,0.0
6110.0,0.0,0.0,0.0,-0.43066666666666664,0.0,0.0,-1.0813333333333333,-1.57,0.11866666666666667,0.0,0.4,0.0,0.0,-1.2,1.57,0.0,0.0
6120.0,0.0,0.0,0.0,-0.42133333333333334,0.0,0.0,-1.0826666666666667,-1.57,0.11733333333333335,0.0,0.4,0.0,0.0,-1.2,1.57,0.0,0.0
6130.0,0.0,0.0,0.0,-0.41200000000000003,0.0,0.0,-1.084,-1.57,0.116,0.0,0.4,0.0,0.0,-1.2,1.57,0.0,0.0
6140.0,0.0,0.0,0.0,-0.40266666666666673,0.0,0.0,-1.0853333333333333,-1.57,0.11466666666666667,0.0,0.4,0.0,0.0,-1.2,1.57,0.0,0.0
6150.0,0.0,0.0,0.0,-0.3933333333333333,0.0,0.0,-1.0866666666666667,-1.57,0.11333333333333334,0.0,0.4,0.0,0.0,-1.2,1.57,0.0,0.0
6160.0,0.0,0.0,0.0,-0.384,0.0,0.0,-1.088,-1.57,0.112,0.0,0.4,0.0,0.0,-1.2,1.57,0.0,0.0
6170.0,0.0,0.0,0.0,-0.3746666666666667,0.0,0.0,-1.0893333333333333,-1.57,0.11066666666666668,0.0,0.4,0.0,0.0,-1.2,1.57,0.0,0.0
6180.0,0.0,0.0,0.0,-0.3653333333333333,0.0,0.0,-1.0906666666666667,-1.57,0.10933333333333334,0.0,0.4,0.0,0.0,-1.2,1.57,0.0,0.0
6190.0,0.0,0.0,0.0,-0.356,0.0,0.0,-1.092,-1.57,0.10800000000000001,0.0,0.4,0.0,0.0,-1.2,1.57,0.0,0.0
6200.0,0.0,0.0,0.0,-0.3466666666666667,0.0,0.0,-1.0933333333333333,-1.57,0.10666666666666667,0.0,0.4,0.0,0.0,-1.2,1.57,0.0,0.0
6210.0,0.0,0.0,0.0,-0.3373333333333334,0.0,0.0,-1.0946666666666667,-1.57,0.10533333333333333,0.0,0.4,0.0,0.0,-1.2,1.57,0.0,0.0
6220.0,0.0,0.0,0.0,-0.32799999999999996,0.0,0.0,-1.096,-1.57,0.10400000000000001,0.0,0.4,0.0,0.0,-1.2,1.57,0.0,0.0
6230.0,0.0,0.0,0.0,-0.31866666666666665,0.0,0.0,-1.0973333333333333,-1.57,0.10266666666666667,0.0,0.4,0.0,0.0,-1.2,1.57,0.0,0.0
6240.0,0.0,0.0,0.0,-0.30933333333333335,0.0,0.0,-1.0986666666666667,-1.57,0.10133333333333334,0.0,0.4,0.0,0.0,-1.2,1.57,0.0,0.0
6250.0,0.0,0.0,0.0,-0.30000000000000004,0.0,0.0,-1.1,-1.57,0.1,0.0,0.4,0.0,0.0,-1.2,1.57,0.0,0.0
6260.0,0.0,0.0,0.0,-0.29066666666666663,0.0,0.0,-1.1013333333333333,-1.57,0.09866666666666667,0.0,0.4,0.0,0.0,-1.2,1.57,0.0,0.0
6270.0,0.0,0.0,0.0,-0.2813333333333333,0.0,0.0,-1.1026666666666667,-1.57,0.09733333333333334,0.0,0.4,0.0,0.0,-1.2,1.57,0.0,0.0
6280.0,0.0,0.0,0.0,-0.272,0.0,0.0,-1.104,-1.57,0.096,0.0,0.4,0.0,0.0,-1.2,1.57,0.0,0.0
6290.0,0.0,0.0,0.0,-0.2626666666666667,0.0,0.0,-1.1053333333333333,-1.57,0.09466666666666668,0.0,0.4,0.0,0.0,-1.2,1.57,0.0,0.0
6300.0,0.0,0.0,0.0,-0.2533333333333333,0.0,0.0,-1.1066666666666667,-1.57,0.09333333333333334,0.0,0.4,0.0,0.0,-1.2,1.57,0.0,0.0
6310.0,0.0,0.0,0.0,-0.244,0.0,0.0,-1.108,-1.57,0.09200000000000001,0.0,0.4,0.0,0.0,-1.2,1.57,0.0,0.0
6320.0,0.0,0.0,0.0,-0.2346666666666667,0.0,0.0,-1.1093333333333333,-1.57,0.09066666666666667,0.0,0.4,0.0,0.0,-1.2,1.57,0.0,0.0
6330.0,0.0,0.0,0.0,-0.22533333333333339,0.0,0.0,-1.1106666666666667,-1.57,0.08933333333333333,0.0,0.4,0.0,0.0,-1.2,1.57,0.0,0.0
6340.0,0.0,0.0,0.0,-0.21599999999999997,0.0,0.0,-1.112,-1.57,0.08800000000000001,0.0,0.4,0.0,0.0,-1.2,1.57,0.0,0.0
6350.0,0.0,0.0,0.0,-0.20666666666666667,0.0,0.0,-1.1133333333333333,-1.57,0.08666666666666667,0.0,0.4,0.0,0.0,-1.2,1.57,0.0,0.0
6360.0,0.0,0.0,0.0,-0.19733333333333336,0.0,0.0,-1.1146666666666667,-1.57,0.08533333333333334,0.0,0.4,0.0,0.0,-1.2,1.57,0.0,0.0
6370.0,0.0,0.0,0.0,-0.18800000000000006,0.0,0.0,-1.1159999999999999,-1.57,0.084,0.0,0.4,0.0,0.0,-1.2,1.57,0.0,0.0
6380.0,0.0,0.0,0.0,-0.17866666666666664,0.0,0.0,-1.1173333333333333,-1.57,0.08266666666666667,0.0,0.4,0.0,0.0,-1.2,1.57,0.0,0.0
6390.0,0.0,0.0,0.0,-0.16933333333333334,0.0,0.0,-1.1186666666666667,-1.57,0.08133333333333334,0.0,0.4,0.0,0.0,-1.2,1.57,0.0,0.0
6400.0,0.0,0.0,0.0,-0.16000000000000003,0.0,0.0,-1.1199999999999999,-1.57,0.08,0.0,0.4,0.0,0.0,-1.2,1.57,0.0,0.0
6410.0,0.0,0.0,0.0,-0.15066666666666673,0.0,0.0,-1.1213333333333333,-1.57,0.07866666666666668,0.0,0.4,0.0,0.0,-1.2,1.57,0.0,0.0
6420.0,0.0,0.0,0.0,-0.1413333333333333,0.0,0.0,-1.1226666666666667,-1.57,0.07733333333333334,0.0,0.4,0.0,0.0,-1.2,1.57,0.0,0.0
6430.0,0.0,0.0,0.0,-0.132,0.0,0.0,-1.1239999999999999,-1.57,0.07600000000000001,0.0,0.4,0.0,0.0,-1.2,1.57,0.0,0.0
6440.0,0.0,0.0,0.0,-0.1226666666666667,0.0,0.0,-1.1253333333333333,-1.57,0.07466666666666666,0.0,0.4,0.0,0.0,-1.2,1.57,0.0,0.0
6450.0,0.0,0.0,0.0,-0.1133333333333334,0.0,0.0,-1.1266666666666667,-1.57,0.07333333333333333,0.0,0.4,0.0,0.0,-1.2,1.57,0.0,0.0
6460.0,0.0,0.0,0.0,-0.10399999999999998,0.0,0.0,-1.128,-1.57,0.07200000000000001,0.0,0.4,0.0,0.0,-1.2,1.57,0.0,0.0
6470.0,0.0,0.0,0.0,-0.09466666666666668,0.0,0.0,-1.1293333333333333,-1.57,0.07066666666666668,0.0,0.4,0.0,0.0,-1.2,1.57,0.0,0.0
6480.0,0.0,0.0,0.0,-0.08533333333333337,0.0,0.0,-1.1306666666666667,-1.57,0.06933333333333333,0.0,0.4,0.0,0.0,-1.2,1.57,0.0,0.0
6490.0,0.0,0.0,0.0,-0.07599999999999996,0.0,0.0,-1.132,-1.57,0.068,0.0,0.4,0.0,0.0,-1.2,1.57,0.0,0.0
6500.0,0.0,0.0,0.0,-0.06666666666666665,0.0,0.0,-1.1333333333333333,-1.57,0.06666666666666668,0.0,0.4,0.0,0.0,-1.2,1.57,0.0,0.0
6510.0,0.0,0.0,0.0,-0.05733333333333335,0.0,0.0,-1.1346666666666667,-1.57,0.06533333333333333,0.0,0.4,0.0,0.0,-1.2,1.57,0.0,0.0
6520.0,0.0,0.0,0.0,-0.04800000000000004,0.0,0.0,-1.136,-1.57,0.064,0.0,0.4,0.0,0.0,-1.2,1.57,0.0,0.0
6530.0,0.0,0.0,0.0,-0.03866666666666663,0.0,0.0,-1.1373333333333333,-1.57,0.06266666666666668,0.0,0.4,0.0,0.0,-1.2,1.57,0.0,0.0
6540.0,0.0,0.0,0.0,-0.029333333333333322,0.0,0.0,-1.1386666666666667,-1.57,0.06133333333333335,0.0,0.4,0.0,0.0,-1.2,1.57,0.0,0.0
6550.0,0.0,0.0,0.0,-0.020000000000000018,0.0,0.0,-1.14,-1.57,0.06,0.0,0.4,0.0,0.0,-1.2,1.57,0.0,0.0
6560.0,0.0,0.0,0.0,-0.010666666666666713,0.0,0.0,-1.1413333333333333,-1.57,0.05866666666666667,0.0,0.4,0.0,0.0,-1.2,1.57,0.0,0.0
6570.0,0.0,0.0,0.0,-0.0013333333333332975,0.0,0.0,-1.1426666666666667,-1.57,0.05733333333333335,0.0,0.4,0.0,0.0,-1.2,1.57,0.0,0.0
6580.0,0.0,0.0,0.0,0.008000000000000007,0.0,0.0,-1.144,-1.57,0.055999999999999994,0.0,0.4,0.0,0.0,-1.2,1.57,0.0,0.0
6590.0,0.0,0.0,0.0,0.017333333333333423,0.0,0.0,-1.1453333333333333,-1.57,0.05466666666666667,0.0,0.4,0.0,0.0,-1.2,1.57,0.0,0.0
6600.0,0.0,0.0,0.0,0.026666666666666616,0.0,0.0,-1.1466666666666667,-1.57,0.053333333333333344,0.0,0.4,0.0,0.0,-1.2,1.57,0.0,0.0
6610.0,0.0,0.0,0.0,0.03600000000000003,0.0,0.0,-1.148,-1.57,0.05199999999999999,0.0,0.4,0.0,0.0,-1.2,1.57,0.0,0.0
6620.0,0.0,0.0,0.0,0.045333333333333226,0.0,0.0,-1.1493333333333333,-1.57,0.050666666666666665,0.0,0.4,0.0,0.0,-1.2,1.57,0.0,0.0
6630.0,0.0,0.0,0.0,0.05466666666666664,0.0,0.0,-1.1506666666666667,-1.57,0.04933333333333334,0.0,0.4,0.0,0.0,-1.2,1.57,0.0,0.0
6640.0,0.0,0.0,0.0,0.06400000000000006,0.0,0.0,-1.152,-1.57,0.048000000000000015,0.0,0.4,0.0,0.0,-1.2,1.57,0.0,0.0
6650.0,0.0,0.0,0.0,0.07333333333333325,0.0,0.0,-1.1533333333333333,-1.57,0.04666666666666666,0.0,0.4,0.0,0.0,-1.2,1.57,0.0,0.0
6660.0,0.0,0.0,0.0,0.08266666666666667,0.0,0.0,-1.1546666666666667,-1.57,0.04533333333333334,0.0,0.4,0.0,0.0,-1.2,1.57,0.0,0.0
6670.0,0.0,0.0,0.0,0.09200000000000008,0.0,0.0,-1.156,-1.57,0.04400000000000001,0.0,0.4,0.0,0.0,-1.2,1.57,0.0,0.0
6680.0,0.0,0.0,0.0,0.10133333333333328,0.0,0.0,-1.1573333333333333,-1.57,0.04266666666666666,0.0,0.4,0.0,0.0,-1.2,1.57,0.0,0.0
6690.0,0.0,0.0,0.0,0.11066666666666669,0.0,0.0,-1.1586666666666667,-1.57,0.04133333333333333,0.0,0.4,0.0,0.0,-1.2,1.57,0.0,0.0
6700.0,0.0,0.0,0.0,0.11999999999999988,0.0,0.0,-1.16,-1.57,0.04000000000000001,0.0,0.4,0.0,0.0,-1.2,1.57,0.0,0.0
6710.0,0.0,0.0,0.0,0.1293333333333333,0.0,0.0,-1.1613333333333333,-1.57,0.03866666666666668,0.0,0.4,0.0,0.0,-1.2,1.57,0.0,0.0
6720.0,0.0,0.0,0.0,0.13866666666666672,0.0,0.0,-1.1626666666666667,-1.57,0.03733333333333333,0.0,0.4,0.0,0.0,-1.2,1.57,0.0,0.0
6730.0,0.0,0.0,0.0,0.1479999999999999,0.0,0.0,-1.164,-1.57,0.036000000000000004,0.0,0.4,0.0,0.0,-1.2,1.57,0.0,0.0
6740.0,0.0,0.0,0.0,0.15733333333333333,0.0,0.0,-1.1653333333333333,-1.57,0.03466666666666668,0.0,0.4,0.0,0.0,-1.2,1.57,0.0,0.0
6750.0,0.0,0.0,0.0,0.16666666666666674,0.0,0.0,-1.1666666666666665,-1.57,0.033333333333333326,0.0,0.4,0.0,0.0,-1.2,1.57,0.0,0.0
6760.0,0.0,0.0,0.0,0.17599999999999993,0.0,0.0,-1.168,-1.57,0.032,0.0,0.4,0.0,0.0,-1.2,1.57,0.0,0.0
6770.0,0.0,0.0,0.0,0.18533333333333335,0.0,0.0,-1.1693333333333333,-1.57,0.030666666666666675,0.0,0.4,0.0,0.0,-1.2,1.57,0.0,0.0
6780.0,0.0,0.0,0.0,0.19466666666666654,0.0,0.0,-1.1706666666666665,-1.57,0.029333333333333322,0.0,0.4,0.0,0.0,-1.2,1.57,0.0,0.0
6790.0,0.0,0.0,0.0,0.20399999999999996,0.0,0.0,-1.172,-1.57,0.027999999999999997,0.0,0.4,0.0,0.0,-1.2,1.57,0.0,0.0
6800.0,0.0,0.0,0.0,0.21333333333333337,0.0,0.0,-1.1733333333333333,-1.57,0.026666666666666672,0.0,0.4,0.0,0.0,-1.2,1.57,0.0,0.0
6810.0,0.0,0.0,0.0,0.22266666666666657,0.0,0.0,-1.1746666666666665,-1.57,0.025333333333333347,0.0,0.4,0.0,0.0,-1.2,1.57,0.0,0.0
6820.0,0.0,0.0,0.0,0.23199999999999998,0.0,0.0,-1.176,-1.57,0.023999999999999994,0.0,0.4,0.0,0.0,-1.2,1.57,0.0,0.0
6830.0,0.0,0.0,0.0,0.2413333333333334,0.0,0.0,-1.1773333333333333,-1.57,0.02266666666666667,0.0,0.4,0.0,0.0,-1.2,1.57,0.0,0.0
6840.0,0.0,0.0,0.0,0.2506666666666666,0.0,0.0,-1.1786666666666665,-1.57,0.021333333333333343,0.0,0.4,0.0,0.0,-1.2,1.57,0.0,0.0
6850.0,0.0,0.0,0.0,0.26,0.0,0.0,-1.18,-1.57,0.01999999999999999,0.0,0.4,0.0,0.0,-1.2,1.57,0.0,0.0
6860.0,0.0,0.0,0.0,0.2693333333333334,0.0,0.0,-1.1813333333333333,-1.57,0.018666666666666665,0.0,0.4,0.0,0.0,-1.2,1.57,0.0,0.0
6870.0,0.0,0.0,0.0,0.2786666666666666,0.0,0.0,-1.1826666666666665,-1.57,0.01733333333333334,0.0,0.4,0.0,0.0,-1.2,1.57,0.0,0.0
6880.0,0.0,0.0,0.0,0.28800000000000003,0.0,0.0,-1.184,-1.57,0.016000000000000014,0.0,0.4,0.0,0.0,-1.2,1.57,0.0,0.0
6890.0,0.0,0.0,0.0,0.2973333333333332,0.0,0.0,-1.1853333333333333,-1.57,0.014666666666666661,0.0,0.4,0.0,0.0,-1.2,1.57,0.0,0.0
6900.0,0.0,0.0,0.0,0.30666666666666664,0.0,0.0,-1.1866666666666665,-1.57,0.013333333333333336,0.0,0.4,0.0,0.0,-1.2,1.57,0.0,0.0
6910.0,0.0,0.0,0.0,0.31600000000000006,0.0,0.0,-1.188,-1.57,0.01200000000000001,0.0,0.4,0.0,0.0,-1.2,1.57,0.0,0.0
6920.0,0.0,0.0,0.0,0.32533333333333325,0.0,0.0,-1.1893333333333334,-1.57,0.010666666666666658,0.0,0.4,0.0,0.0,-1.2,1.57,0.0,0.0
6930.0,0.0,0.0,0.0,0.33466666666666667,0.0,0.0,-1.1906666666666665,-1.57,0.009333333333333332,0.0,0.4,0.0,0.0,-1.2,1.57,0.0,0.0
6940.0,0.0,0.0,0.0,0.3440000000000001,0.0,0.0,-1.192,-1.57,0.008000000000000007,0.0,0.4,0.0,0.0,-1.2,1.57,0.0,0.0
6950.0,0.0,0.0,0.0,0.3533333333333333,0.0,0.0,-1.1933333333333334,-1.57,0.006666666666666682,0.0,0.4,0.0,0.0,-1.2,1.57,0.0,0.0
6960.0,0.0,0.0,0.0,0.3626666666666667,0.0,0.0,-1.1946666666666665,-1.57,0.005333333333333329,0.0,0.4,0.0,0.0,-1.2,1.57,0.0,0.0
6970.0,0.0,0.0,0.0,0.3719999999999999,0.0,0.0,-1.196,-1.57,0.0040000000000000036,0.0,0.4,0.0,0.0,-1.2,1.57,0.0,0.0
6980.0,0.0,0.0,0.0,0.3813333333333333,0.0,0.0,-1.1973333333333334,-1.57,0.0026666666666666783,0.0,0.4,0.0,0.0,-1.2,1.57,0.0,0.0
6990.0,0.0,0.0,0.0,0.3906666666666667,0.0,0.0,-1.1986666666666665,-1.57,0.0013333333333333253,0.0,0.4,0.0,0.0,-1.2,1.57,0.0,0.0
7000.0,0.0,0.0,0.0,0.4,0.0,0.0,-1.2,-1.57,0.0,0.0,0.4,0.0,0.0,-1.2,1.57,0.0,0.0
